; 3D printing pcb etching machine
G28 X Y ; home position
M106 S0 ; turn off the fan completely
M140 S80 ; start heating the bed to 80 degrees Celsius
G91 ; use relative positioning for the XYZ axes

G1 Y100 F3000 ; move to the Y=100mm position on the bed
G1 Y-20 F3000 ; move to the Y=20mm position on the bed
G1 Y20 F3000 ; move to the Y=20mm position on the bed
G1 Y-20 F3000 ; move to the Y=20mm position on the bed
G1 Y20 F3000 ; move to the Y=20mm position on the bed
G1 Y-20 F3000 ; move to the Y=20mm position on the bed
G1 Y20 F3000 ; move to the Y=20mm position on the bed
G1 Y-20 F3000 ; move to the Y=20mm position on the bed
G1 Y20 F3000 ; move to the Y=20mm position on the bed
G1 Y-20 F3000 ; move to the Y=20mm position on the bed
G1 Y20 F3000 ; move to the Y=20mm position on the bed
G1 Y-20 F3000 ; move to the Y=20mm position on the bed
G1 Y20 F3000 ; move to the Y=20mm position on the bed
G1 Y-20 F3000 ; move to the Y=20mm position on the bed
G1 Y20 F3000 ; move to the Y=20mm position on the bed
G1 Y-20 F3000 ; move to the Y=20mm position on the bed
G1 Y20 F3000 ; move to the Y=20mm position on the bed
G1 Y-20 F3000 ; move to the Y=20mm position on the bed
G1 Y20 F3000 ; move to the Y=20mm position on the bed
G1 Y-20 F3000 ; move to the Y=20mm position on the bed
G1 Y20 F3000 ; move to the Y=20mm position on the bed
G1 Y-20 F3000 ; move to the Y=20mm position on the bed
G1 Y20 F3000 ; move to the Y=20mm position on the bed
G1 Y-20 F3000 ; move to the Y=20mm position on the bed
G1 Y20 F3000 ; move to the Y=20mm position on the bed
G1 Y-20 F3000 ; move to the Y=20mm position on the bed
G1 Y20 F3000 ; move to the Y=20mm position on the bed
G1 Y-20 F3000 ; move to the Y=20mm position on the bed
G1 Y20 F3000 ; move to the Y=20mm position on the bed
G1 Y-20 F3000 ; move to the Y=20mm position on the bed
G1 Y20 F3000 ; move to the Y=20mm position on the bed
G1 Y-20 F3000 ; move to the Y=20mm position on the bed
G1 Y20 F3000 ; move to the Y=20mm position on the bed
G1 Y-20 F3000 ; move to the Y=20mm position on the bed
G1 Y20 F3000 ; move to the Y=20mm position on the bed
G1 Y-20 F3000 ; move to the Y=20mm position on the bed
G1 Y20 F3000 ; move to the Y=20mm position on the bed
G1 Y-20 F3000 ; move to the Y=20mm position on the bed
G1 Y20 F3000 ; move to the Y=20mm position on the bed
G1 Y-20 F3000 ; move to the Y=20mm position on the bed
G1 Y20 F3000 ; move to the Y=20mm position on the bed
G1 Y-20 F3000 ; move to the Y=20mm position on the bed
G1 Y20 F3000 ; move to the Y=20mm position on the bed
G1 Y-20 F3000 ; move to the Y=20mm position on the bed
G1 Y20 F3000 ; move to the Y=20mm position on the bed
G1 Y-20 F3000 ; move to the Y=20mm position on the bed
G1 Y20 F3000 ; move to the Y=20mm position on the bed
G1 Y-20 F3000 ; move to the Y=20mm position on the bed
G1 Y20 F3000 ; move to the Y=20mm position on the bed
G1 Y-20 F3000 ; move to the Y=20mm position on the bed
G1 Y20 F3000 ; move to the Y=20mm position on the bed
G1 Y-20 F3000 ; move to the Y=20mm position on the bed
G1 Y20 F3000 ; move to the Y=20mm position on the bed
G1 Y-20 F3000 ; move to the Y=20mm position on the bed
G1 Y20 F3000 ; move to the Y=20mm position on the bed
G1 Y-20 F3000 ; move to the Y=20mm position on the bed
G1 Y20 F3000 ; move to the Y=20mm position on the bed
G1 Y-20 F3000 ; move to the Y=20mm position on the bed
G1 Y20 F3000 ; move to the Y=20mm position on the bed
G1 Y-20 F3000 ; move to the Y=20mm position on the bed
G1 Y20 F3000 ; move to the Y=20mm position on the bed
G1 Y-20 F3000 ; move to the Y=20mm position on the bed
G1 Y20 F3000 ; move to the Y=20mm position on the bed
G1 Y-20 F3000 ; move to the Y=20mm position on the bed
G1 Y20 F3000 ; move to the Y=20mm position on the bed
G1 Y-20 F3000 ; move to the Y=20mm position on the bed
G1 Y20 F3000 ; move to the Y=20mm position on the bed
G1 Y-20 F3000 ; move to the Y=20mm position on the bed
G1 Y20 F3000 ; move to the Y=20mm position on the bed
G1 Y-20 F3000 ; move to the Y=20mm position on the bed
G1 Y20 F3000 ; move to the Y=20mm position on the bed
G1 Y-20 F3000 ; move to the Y=20mm position on the bed
G1 Y20 F3000 ; move to the Y=20mm position on the bed
G1 Y-20 F3000 ; move to the Y=20mm position on the bed
G1 Y20 F3000 ; move to the Y=20mm position on the bed
G1 Y-20 F3000 ; move to the Y=20mm position on the bed
G1 Y20 F3000 ; move to the Y=20mm position on the bed
G1 Y-20 F3000 ; move to the Y=20mm position on the bed
G1 Y20 F3000 ; move to the Y=20mm position on the bed
G1 Y-20 F3000 ; move to the Y=20mm position on the bed
G1 Y20 F3000 ; move to the Y=20mm position on the bed
G1 Y-20 F3000 ; move to the Y=20mm position on the bed
G1 Y20 F3000 ; move to the Y=20mm position on the bed
G1 Y-20 F3000 ; move to the Y=20mm position on the bed
G1 Y20 F3000 ; move to the Y=20mm position on the bed
G1 Y-20 F3000 ; move to the Y=20mm position on the bed
G1 Y20 F3000 ; move to the Y=20mm position on the bed
G1 Y-20 F3000 ; move to the Y=20mm position on the bed
G1 Y20 F3000 ; move to the Y=20mm position on the bed
G1 Y-20 F3000 ; move to the Y=20mm position on the bed
G1 Y20 F3000 ; move to the Y=20mm position on the bed
G1 Y-20 F3000 ; move to the Y=20mm position on the bed
G1 Y20 F3000 ; move to the Y=20mm position on the bed
G1 Y-20 F3000 ; move to the Y=20mm position on the bed
G1 Y20 F3000 ; move to the Y=20mm position on the bed
G1 Y-20 F3000 ; move to the Y=20mm position on the bed
G1 Y20 F3000 ; move to the Y=20mm position on the bed
G1 Y-20 F3000 ; move to the Y=20mm position on the bed
G1 Y20 F3000 ; move to the Y=20mm position on the bed
G1 Y-20 F3000 ; move to the Y=20mm position on the bed
G1 Y20 F3000 ; move to the Y=20mm position on the bed
G1 Y-20 F3000 ; move to the Y=20mm position on the bed
G1 Y20 F3000 ; move to the Y=20mm position on the bed
G1 Y-20 F3000 ; move to the Y=20mm position on the bed
G1 Y20 F3000 ; move to the Y=20mm position on the bed
G1 Y-20 F3000 ; move to the Y=20mm position on the bed
G1 Y20 F3000 ; move to the Y=20mm position on the bed
G1 Y-20 F3000 ; move to the Y=20mm position on the bed
G1 Y20 F3000 ; move to the Y=20mm position on the bed
G1 Y-20 F3000 ; move to the Y=20mm position on the bed
G1 Y20 F3000 ; move to the Y=20mm position on the bed
G1 Y-20 F3000 ; move to the Y=20mm position on the bed
G1 Y20 F3000 ; move to the Y=20mm position on the bed
G1 Y-20 F3000 ; move to the Y=20mm position on the bed
G1 Y20 F3000 ; move to the Y=20mm position on the bed
G1 Y-20 F3000 ; move to the Y=20mm position on the bed
G1 Y20 F3000 ; move to the Y=20mm position on the bed
G1 Y-20 F3000 ; move to the Y=20mm position on the bed
G1 Y20 F3000 ; move to the Y=20mm position on the bed
G1 Y-20 F3000 ; move to the Y=20mm position on the bed
G1 Y20 F3000 ; move to the Y=20mm position on the bed
G1 Y-20 F3000 ; move to the Y=20mm position on the bed
G1 Y20 F3000 ; move to the Y=20mm position on the bed
G1 Y-20 F3000 ; move to the Y=20mm position on the bed
G1 Y20 F3000 ; move to the Y=20mm position on the bed
G1 Y-20 F3000 ; move to the Y=20mm position on the bed
G1 Y20 F3000 ; move to the Y=20mm position on the bed
G1 Y-20 F3000 ; move to the Y=20mm position on the bed
G1 Y20 F3000 ; move to the Y=20mm position on the bed
G1 Y-20 F3000 ; move to the Y=20mm position on the bed
G1 Y20 F3000 ; move to the Y=20mm position on the bed
G1 Y-20 F3000 ; move to the Y=20mm position on the bed
G1 Y20 F3000 ; move to the Y=20mm position on the bed
G1 Y-20 F3000 ; move to the Y=20mm position on the bed
G1 Y20 F3000 ; move to the Y=20mm position on the bed
G1 Y-20 F3000 ; move to the Y=20mm position on the bed
G1 Y20 F3000 ; move to the Y=20mm position on the bed
G1 Y-20 F3000 ; move to the Y=20mm position on the bed
G1 Y20 F3000 ; move to the Y=20mm position on the bed
G1 Y-20 F3000 ; move to the Y=20mm position on the bed
G1 Y20 F3000 ; move to the Y=20mm position on the bed
G1 Y-20 F3000 ; move to the Y=20mm position on the bed
G1 Y20 F3000 ; move to the Y=20mm position on the bed
G1 Y-20 F3000 ; move to the Y=20mm position on the bed
G1 Y20 F3000 ; move to the Y=20mm position on the bed
G1 Y-20 F3000 ; move to the Y=20mm position on the bed
G1 Y20 F3000 ; move to the Y=20mm position on the bed
G1 Y-20 F3000 ; move to the Y=20mm position on the bed
G1 Y20 F3000 ; move to the Y=20mm position on the bed
G1 Y-20 F3000 ; move to the Y=20mm position on the bed
G1 Y20 F3000 ; move to the Y=20mm position on the bed
G1 Y-20 F3000 ; move to the Y=20mm position on the bed
G1 Y20 F3000 ; move to the Y=20mm position on the bed
G1 Y-20 F3000 ; move to the Y=20mm position on the bed
G1 Y20 F3000 ; move to the Y=20mm position on the bed
G1 Y-20 F3000 ; move to the Y=20mm position on the bed
G1 Y20 F3000 ; move to the Y=20mm position on the bed
G1 Y-20 F3000 ; move to the Y=20mm position on the bed
G1 Y20 F3000 ; move to the Y=20mm position on the bed
G1 Y-20 F3000 ; move to the Y=20mm position on the bed
G1 Y20 F3000 ; move to the Y=20mm position on the bed
G1 Y-20 F3000 ; move to the Y=20mm position on the bed
G1 Y20 F3000 ; move to the Y=20mm position on the bed
G1 Y-20 F3000 ; move to the Y=20mm position on the bed
G1 Y20 F3000 ; move to the Y=20mm position on the bed
G1 Y-20 F3000 ; move to the Y=20mm position on the bed
G1 Y20 F3000 ; move to the Y=20mm position on the bed
G1 Y-20 F3000 ; move to the Y=20mm position on the bed
G1 Y20 F3000 ; move to the Y=20mm position on the bed
G1 Y-20 F3000 ; move to the Y=20mm position on the bed
G1 Y20 F3000 ; move to the Y=20mm position on the bed
G1 Y-20 F3000 ; move to the Y=20mm position on the bed
G1 Y20 F3000 ; move to the Y=20mm position on the bed
G1 Y-20 F3000 ; move to the Y=20mm position on the bed
G1 Y20 F3000 ; move to the Y=20mm position on the bed
G1 Y-20 F3000 ; move to the Y=20mm position on the bed
G1 Y20 F3000 ; move to the Y=20mm position on the bed
G1 Y-20 F3000 ; move to the Y=20mm position on the bed
G1 Y20 F3000 ; move to the Y=20mm position on the bed
G1 Y-20 F3000 ; move to the Y=20mm position on the bed
G1 Y20 F3000 ; move to the Y=20mm position on the bed
G1 Y-20 F3000 ; move to the Y=20mm position on the bed
G1 Y20 F3000 ; move to the Y=20mm position on the bed
G1 Y-20 F3000 ; move to the Y=20mm position on the bed
G1 Y20 F3000 ; move to the Y=20mm position on the bed
G1 Y-20 F3000 ; move to the Y=20mm position on the bed
G1 Y20 F3000 ; move to the Y=20mm position on the bed
G1 Y-20 F3000 ; move to the Y=20mm position on the bed
G1 Y20 F3000 ; move to the Y=20mm position on the bed
G1 Y-20 F3000 ; move to the Y=20mm position on the bed
G1 Y20 F3000 ; move to the Y=20mm position on the bed
G1 Y-20 F3000 ; move to the Y=20mm position on the bed
G1 Y20 F3000 ; move to the Y=20mm position on the bed
G1 Y-20 F3000 ; move to the Y=20mm position on the bed
G1 Y20 F3000 ; move to the Y=20mm position on the bed
G1 Y-20 F3000 ; move to the Y=20mm position on the bed
G1 Y20 F3000 ; move to the Y=20mm position on the bed
G1 Y-20 F3000 ; move to the Y=20mm position on the bed
G1 Y20 F3000 ; move to the Y=20mm position on the bed
G1 Y-20 F3000 ; move to the Y=20mm position on the bed
G1 Y20 F3000 ; move to the Y=20mm position on the bed
G1 Y-20 F3000 ; move to the Y=20mm position on the bed
G1 Y20 F3000 ; move to the Y=20mm position on the bed
G1 Y-20 F3000 ; move to the Y=20mm position on the bed
G1 Y20 F3000 ; move to the Y=20mm position on the bed
G1 Y-20 F3000 ; move to the Y=20mm position on the bed
G1 Y20 F3000 ; move to the Y=20mm position on the bed
G1 Y-20 F3000 ; move to the Y=20mm position on the bed
G1 Y20 F3000 ; move to the Y=20mm position on the bed
G1 Y-20 F3000 ; move to the Y=20mm position on the bed
G1 Y20 F3000 ; move to the Y=20mm position on the bed
G1 Y-20 F3000 ; move to the Y=20mm position on the bed
G1 Y20 F3000 ; move to the Y=20mm position on the bed
G1 Y-20 F3000 ; move to the Y=20mm position on the bed
G1 Y20 F3000 ; move to the Y=20mm position on the bed
G1 Y-20 F3000 ; move to the Y=20mm position on the bed
G1 Y20 F3000 ; move to the Y=20mm position on the bed
G1 Y-20 F3000 ; move to the Y=20mm position on the bed
G1 Y20 F3000 ; move to the Y=20mm position on the bed
G1 Y-20 F3000 ; move to the Y=20mm position on the bed
G1 Y20 F3000 ; move to the Y=20mm position on the bed
G1 Y-20 F3000 ; move to the Y=20mm position on the bed
G1 Y20 F3000 ; move to the Y=20mm position on the bed
G1 Y-20 F3000 ; move to the Y=20mm position on the bed
G1 Y20 F3000 ; move to the Y=20mm position on the bed
G1 Y-20 F3000 ; move to the Y=20mm position on the bed
G1 Y20 F3000 ; move to the Y=20mm position on the bed
G1 Y-20 F3000 ; move to the Y=20mm position on the bed
G1 Y20 F3000 ; move to the Y=20mm position on the bed
G1 Y-20 F3000 ; move to the Y=20mm position on the bed
G1 Y20 F3000 ; move to the Y=20mm position on the bed
G1 Y-20 F3000 ; move to the Y=20mm position on the bed
G1 Y20 F3000 ; move to the Y=20mm position on the bed
G1 Y-20 F3000 ; move to the Y=20mm position on the bed
G1 Y20 F3000 ; move to the Y=20mm position on the bed
G1 Y-20 F3000 ; move to the Y=20mm position on the bed
G1 Y20 F3000 ; move to the Y=20mm position on the bed
G1 Y-20 F3000 ; move to the Y=20mm position on the bed
G1 Y20 F3000 ; move to the Y=20mm position on the bed
G1 Y-20 F3000 ; move to the Y=20mm position on the bed
G1 Y20 F3000 ; move to the Y=20mm position on the bed
G1 Y-20 F3000 ; move to the Y=20mm position on the bed
G1 Y20 F3000 ; move to the Y=20mm position on the bed
G1 Y-20 F3000 ; move to the Y=20mm position on the bed
G1 Y20 F3000 ; move to the Y=20mm position on the bed
G1 Y-20 F3000 ; move to the Y=20mm position on the bed
G1 Y20 F3000 ; move to the Y=20mm position on the bed
G1 Y-20 F3000 ; move to the Y=20mm position on the bed
G1 Y20 F3000 ; move to the Y=20mm position on the bed
G1 Y-20 F3000 ; move to the Y=20mm position on the bed
G1 Y20 F3000 ; move to the Y=20mm position on the bed
G1 Y-20 F3000 ; move to the Y=20mm position on the bed
G1 Y20 F3000 ; move to the Y=20mm position on the bed
G1 Y-20 F3000 ; move to the Y=20mm position on the bed
G1 Y20 F3000 ; move to the Y=20mm position on the bed
G1 Y-20 F3000 ; move to the Y=20mm position on the bed
G1 Y20 F3000 ; move to the Y=20mm position on the bed
G1 Y-20 F3000 ; move to the Y=20mm position on the bed
G1 Y20 F3000 ; move to the Y=20mm position on the bed
G1 Y-20 F3000 ; move to the Y=20mm position on the bed
G1 Y20 F3000 ; move to the Y=20mm position on the bed
G1 Y-20 F3000 ; move to the Y=20mm position on the bed
G1 Y20 F3000 ; move to the Y=20mm position on the bed
G1 Y-20 F3000 ; move to the Y=20mm position on the bed
G1 Y20 F3000 ; move to the Y=20mm position on the bed
G1 Y-20 F3000 ; move to the Y=20mm position on the bed
G1 Y20 F3000 ; move to the Y=20mm position on the bed
G1 Y-20 F3000 ; move to the Y=20mm position on the bed
G1 Y20 F3000 ; move to the Y=20mm position on the bed
G1 Y-20 F3000 ; move to the Y=20mm position on the bed
G1 Y20 F3000 ; move to the Y=20mm position on the bed
G1 Y-20 F3000 ; move to the Y=20mm position on the bed
G1 Y20 F3000 ; move to the Y=20mm position on the bed
G1 Y-20 F3000 ; move to the Y=20mm position on the bed
G1 Y20 F3000 ; move to the Y=20mm position on the bed
G1 Y-20 F3000 ; move to the Y=20mm position on the bed
G1 Y20 F3000 ; move to the Y=20mm position on the bed
G1 Y-20 F3000 ; move to the Y=20mm position on the bed
G1 Y20 F3000 ; move to the Y=20mm position on the bed
G1 Y-20 F3000 ; move to the Y=20mm position on the bed
G1 Y20 F3000 ; move to the Y=20mm position on the bed
G1 Y-20 F3000 ; move to the Y=20mm position on the bed
G1 Y20 F3000 ; move to the Y=20mm position on the bed
G1 Y-20 F3000 ; move to the Y=20mm position on the bed
G1 Y20 F3000 ; move to the Y=20mm position on the bed
G1 Y-20 F3000 ; move to the Y=20mm position on the bed
G1 Y20 F3000 ; move to the Y=20mm position on the bed
G1 Y-20 F3000 ; move to the Y=20mm position on the bed
G1 Y20 F3000 ; move to the Y=20mm position on the bed
G1 Y-20 F3000 ; move to the Y=20mm position on the bed
G1 Y20 F3000 ; move to the Y=20mm position on the bed
G1 Y-20 F3000 ; move to the Y=20mm position on the bed
G1 Y20 F3000 ; move to the Y=20mm position on the bed
G1 Y-20 F3000 ; move to the Y=20mm position on the bed
G1 Y20 F3000 ; move to the Y=20mm position on the bed
G1 Y-20 F3000 ; move to the Y=20mm position on the bed
G1 Y20 F3000 ; move to the Y=20mm position on the bed
G1 Y-20 F3000 ; move to the Y=20mm position on the bed
G1 Y20 F3000 ; move to the Y=20mm position on the bed
G1 Y-20 F3000 ; move to the Y=20mm position on the bed
G1 Y20 F3000 ; move to the Y=20mm position on the bed
G1 Y-20 F3000 ; move to the Y=20mm position on the bed
G1 Y20 F3000 ; move to the Y=20mm position on the bed
G1 Y-20 F3000 ; move to the Y=20mm position on the bed
G1 Y20 F3000 ; move to the Y=20mm position on the bed
G1 Y-20 F3000 ; move to the Y=20mm position on the bed
G1 Y20 F3000 ; move to the Y=20mm position on the bed
G1 Y-20 F3000 ; move to the Y=20mm position on the bed
G1 Y20 F3000 ; move to the Y=20mm position on the bed
G1 Y-20 F3000 ; move to the Y=20mm position on the bed
G1 Y20 F3000 ; move to the Y=20mm position on the bed
G1 Y-20 F3000 ; move to the Y=20mm position on the bed
G1 Y20 F3000 ; move to the Y=20mm position on the bed
G1 Y-20 F3000 ; move to the Y=20mm position on the bed
G1 Y20 F3000 ; move to the Y=20mm position on the bed
G1 Y-20 F3000 ; move to the Y=20mm position on the bed
G1 Y20 F3000 ; move to the Y=20mm position on the bed
G1 Y-20 F3000 ; move to the Y=20mm position on the bed
G1 Y20 F3000 ; move to the Y=20mm position on the bed
G1 Y-20 F3000 ; move to the Y=20mm position on the bed
G1 Y20 F3000 ; move to the Y=20mm position on the bed
G1 Y-20 F3000 ; move to the Y=20mm position on the bed
G1 Y20 F3000 ; move to the Y=20mm position on the bed
G1 Y-20 F3000 ; move to the Y=20mm position on the bed
G1 Y20 F3000 ; move to the Y=20mm position on the bed
G1 Y-20 F3000 ; move to the Y=20mm position on the bed
G1 Y20 F3000 ; move to the Y=20mm position on the bed
G1 Y-20 F3000 ; move to the Y=20mm position on the bed
G1 Y20 F3000 ; move to the Y=20mm position on the bed
G1 Y-20 F3000 ; move to the Y=20mm position on the bed
G1 Y20 F3000 ; move to the Y=20mm position on the bed
G1 Y-20 F3000 ; move to the Y=20mm position on the bed
G1 Y20 F3000 ; move to the Y=20mm position on the bed
G1 Y-20 F3000 ; move to the Y=20mm position on the bed
G1 Y20 F3000 ; move to the Y=20mm position on the bed
G1 Y-20 F3000 ; move to the Y=20mm position on the bed
G1 Y20 F3000 ; move to the Y=20mm position on the bed
G1 Y-20 F3000 ; move to the Y=20mm position on the bed
G1 Y20 F3000 ; move to the Y=20mm position on the bed
G1 Y-20 F3000 ; move to the Y=20mm position on the bed
G1 Y20 F3000 ; move to the Y=20mm position on the bed
G1 Y-20 F3000 ; move to the Y=20mm position on the bed
G1 Y20 F3000 ; move to the Y=20mm position on the bed
G1 Y-20 F3000 ; move to the Y=20mm position on the bed
G1 Y20 F3000 ; move to the Y=20mm position on the bed
G1 Y-20 F3000 ; move to the Y=20mm position on the bed
G1 Y20 F3000 ; move to the Y=20mm position on the bed
G1 Y-20 F3000 ; move to the Y=20mm position on the bed
G1 Y20 F3000 ; move to the Y=20mm position on the bed
G1 Y-20 F3000 ; move to the Y=20mm position on the bed
G1 Y20 F3000 ; move to the Y=20mm position on the bed
G1 Y-20 F3000 ; move to the Y=20mm position on the bed
G1 Y20 F3000 ; move to the Y=20mm position on the bed
G1 Y-20 F3000 ; move to the Y=20mm position on the bed
G1 Y20 F3000 ; move to the Y=20mm position on the bed
G1 Y-20 F3000 ; move to the Y=20mm position on the bed
G1 Y20 F3000 ; move to the Y=20mm position on the bed
G1 Y-20 F3000 ; move to the Y=20mm position on the bed
G1 Y20 F3000 ; move to the Y=20mm position on the bed
G1 Y-20 F3000 ; move to the Y=20mm position on the bed
G1 Y20 F3000 ; move to the Y=20mm position on the bed
G1 Y-20 F3000 ; move to the Y=20mm position on the bed
G1 Y20 F3000 ; move to the Y=20mm position on the bed
G1 Y-20 F3000 ; move to the Y=20mm position on the bed
G1 Y20 F3000 ; move to the Y=20mm position on the bed
G1 Y-20 F3000 ; move to the Y=20mm position on the bed
G1 Y20 F3000 ; move to the Y=20mm position on the bed
G1 Y-20 F3000 ; move to the Y=20mm position on the bed
G1 Y20 F3000 ; move to the Y=20mm position on the bed
G1 Y-20 F3000 ; move to the Y=20mm position on the bed
G1 Y20 F3000 ; move to the Y=20mm position on the bed
G1 Y-20 F3000 ; move to the Y=20mm position on the bed
G1 Y20 F3000 ; move to the Y=20mm position on the bed
G1 Y-20 F3000 ; move to the Y=20mm position on the bed
G1 Y20 F3000 ; move to the Y=20mm position on the bed
G1 Y-20 F3000 ; move to the Y=20mm position on the bed
G1 Y20 F3000 ; move to the Y=20mm position on the bed
G1 Y-20 F3000 ; move to the Y=20mm position on the bed
G1 Y20 F3000 ; move to the Y=20mm position on the bed
G1 Y-20 F3000 ; move to the Y=20mm position on the bed
G1 Y20 F3000 ; move to the Y=20mm position on the bed
G1 Y-20 F3000 ; move to the Y=20mm position on the bed
G1 Y20 F3000 ; move to the Y=20mm position on the bed
G1 Y-20 F3000 ; move to the Y=20mm position on the bed
G1 Y20 F3000 ; move to the Y=20mm position on the bed
G1 Y-20 F3000 ; move to the Y=20mm position on the bed
G1 Y20 F3000 ; move to the Y=20mm position on the bed
G1 Y-20 F3000 ; move to the Y=20mm position on the bed
G1 Y20 F3000 ; move to the Y=20mm position on the bed
G1 Y-20 F3000 ; move to the Y=20mm position on the bed
G1 Y20 F3000 ; move to the Y=20mm position on the bed
G1 Y-20 F3000 ; move to the Y=20mm position on the bed
G1 Y20 F3000 ; move to the Y=20mm position on the bed
G1 Y-20 F3000 ; move to the Y=20mm position on the bed
G1 Y20 F3000 ; move to the Y=20mm position on the bed
G1 Y-20 F3000 ; move to the Y=20mm position on the bed
G1 Y20 F3000 ; move to the Y=20mm position on the bed
G1 Y-20 F3000 ; move to the Y=20mm position on the bed
G1 Y20 F3000 ; move to the Y=20mm position on the bed
G1 Y-20 F3000 ; move to the Y=20mm position on the bed
G1 Y20 F3000 ; move to the Y=20mm position on the bed
G1 Y-20 F3000 ; move to the Y=20mm position on the bed
G1 Y20 F3000 ; move to the Y=20mm position on the bed
G1 Y-20 F3000 ; move to the Y=20mm position on the bed
G1 Y20 F3000 ; move to the Y=20mm position on the bed
G1 Y-20 F3000 ; move to the Y=20mm position on the bed
G1 Y20 F3000 ; move to the Y=20mm position on the bed
G1 Y-20 F3000 ; move to the Y=20mm position on the bed
G1 Y20 F3000 ; move to the Y=20mm position on the bed
G1 Y-20 F3000 ; move to the Y=20mm position on the bed
G1 Y20 F3000 ; move to the Y=20mm position on the bed
G1 Y-20 F3000 ; move to the Y=20mm position on the bed
G1 Y20 F3000 ; move to the Y=20mm position on the bed
G1 Y-20 F3000 ; move to the Y=20mm position on the bed
G1 Y20 F3000 ; move to the Y=20mm position on the bed
G1 Y-20 F3000 ; move to the Y=20mm position on the bed
G1 Y20 F3000 ; move to the Y=20mm position on the bed
G1 Y-20 F3000 ; move to the Y=20mm position on the bed
G1 Y20 F3000 ; move to the Y=20mm position on the bed
G1 Y-20 F3000 ; move to the Y=20mm position on the bed
G1 Y20 F3000 ; move to the Y=20mm position on the bed
G1 Y-20 F3000 ; move to the Y=20mm position on the bed
G1 Y20 F3000 ; move to the Y=20mm position on the bed
G1 Y-20 F3000 ; move to the Y=20mm position on the bed
G1 Y20 F3000 ; move to the Y=20mm position on the bed
G1 Y-20 F3000 ; move to the Y=20mm position on the bed
G1 Y20 F3000 ; move to the Y=20mm position on the bed
G1 Y-20 F3000 ; move to the Y=20mm position on the bed
G1 Y20 F3000 ; move to the Y=20mm position on the bed
G1 Y-20 F3000 ; move to the Y=20mm position on the bed
G1 Y20 F3000 ; move to the Y=20mm position on the bed
G1 Y-20 F3000 ; move to the Y=20mm position on the bed
G1 Y20 F3000 ; move to the Y=20mm position on the bed
G1 Y-20 F3000 ; move to the Y=20mm position on the bed
G1 Y20 F3000 ; move to the Y=20mm position on the bed
G1 Y-20 F3000 ; move to the Y=20mm position on the bed
G1 Y20 F3000 ; move to the Y=20mm position on the bed
G1 Y-20 F3000 ; move to the Y=20mm position on the bed
G1 Y20 F3000 ; move to the Y=20mm position on the bed
G1 Y-20 F3000 ; move to the Y=20mm position on the bed
G1 Y20 F3000 ; move to the Y=20mm position on the bed
G1 Y-20 F3000 ; move to the Y=20mm position on the bed
G1 Y20 F3000 ; move to the Y=20mm position on the bed
G1 Y-20 F3000 ; move to the Y=20mm position on the bed
G1 Y20 F3000 ; move to the Y=20mm position on the bed
G1 Y-20 F3000 ; move to the Y=20mm position on the bed
G1 Y20 F3000 ; move to the Y=20mm position on the bed
G1 Y-20 F3000 ; move to the Y=20mm position on the bed
G1 Y20 F3000 ; move to the Y=20mm position on the bed
G1 Y-20 F3000 ; move to the Y=20mm position on the bed
G1 Y20 F3000 ; move to the Y=20mm position on the bed
G1 Y-20 F3000 ; move to the Y=20mm position on the bed
G1 Y20 F3000 ; move to the Y=20mm position on the bed
G1 Y-20 F3000 ; move to the Y=20mm position on the bed
G1 Y20 F3000 ; move to the Y=20mm position on the bed
G1 Y-20 F3000 ; move to the Y=20mm position on the bed
G1 Y20 F3000 ; move to the Y=20mm position on the bed
G1 Y-20 F3000 ; move to the Y=20mm position on the bed
G1 Y20 F3000 ; move to the Y=20mm position on the bed
G1 Y-20 F3000 ; move to the Y=20mm position on the bed
G1 Y20 F3000 ; move to the Y=20mm position on the bed
G1 Y-20 F3000 ; move to the Y=20mm position on the bed
G1 Y20 F3000 ; move to the Y=20mm position on the bed
G1 Y-20 F3000 ; move to the Y=20mm position on the bed
G1 Y20 F3000 ; move to the Y=20mm position on the bed
G1 Y-20 F3000 ; move to the Y=20mm position on the bed
G1 Y20 F3000 ; move to the Y=20mm position on the bed
G1 Y-20 F3000 ; move to the Y=20mm position on the bed
G1 Y20 F3000 ; move to the Y=20mm position on the bed
G1 Y-20 F3000 ; move to the Y=20mm position on the bed
G1 Y20 F3000 ; move to the Y=20mm position on the bed
G1 Y-20 F3000 ; move to the Y=20mm position on the bed
G1 Y20 F3000 ; move to the Y=20mm position on the bed
G1 Y-20 F3000 ; move to the Y=20mm position on the bed
G1 Y20 F3000 ; move to the Y=20mm position on the bed
G1 Y-20 F3000 ; move to the Y=20mm position on the bed
G1 Y20 F3000 ; move to the Y=20mm position on the bed
G1 Y-20 F3000 ; move to the Y=20mm position on the bed
G1 Y20 F3000 ; move to the Y=20mm position on the bed
G1 Y-20 F3000 ; move to the Y=20mm position on the bed
G1 Y20 F3000 ; move to the Y=20mm position on the bed
G1 Y-20 F3000 ; move to the Y=20mm position on the bed
G1 Y20 F3000 ; move to the Y=20mm position on the bed
G1 Y-20 F3000 ; move to the Y=20mm position on the bed
G1 Y20 F3000 ; move to the Y=20mm position on the bed
G1 Y-20 F3000 ; move to the Y=20mm position on the bed
G1 Y20 F3000 ; move to the Y=20mm position on the bed
G1 Y-20 F3000 ; move to the Y=20mm position on the bed
G1 Y20 F3000 ; move to the Y=20mm position on the bed
G1 Y-20 F3000 ; move to the Y=20mm position on the bed
G1 Y20 F3000 ; move to the Y=20mm position on the bed
G1 Y-20 F3000 ; move to the Y=20mm position on the bed
G1 Y20 F3000 ; move to the Y=20mm position on the bed
G1 Y-20 F3000 ; move to the Y=20mm position on the bed
G1 Y20 F3000 ; move to the Y=20mm position on the bed
G1 Y-20 F3000 ; move to the Y=20mm position on the bed
G1 Y20 F3000 ; move to the Y=20mm position on the bed
G1 Y-20 F3000 ; move to the Y=20mm position on the bed
G1 Y20 F3000 ; move to the Y=20mm position on the bed
G1 Y-20 F3000 ; move to the Y=20mm position on the bed
G1 Y20 F3000 ; move to the Y=20mm position on the bed
G1 Y-20 F3000 ; move to the Y=20mm position on the bed
G1 Y20 F3000 ; move to the Y=20mm position on the bed
G1 Y-20 F3000 ; move to the Y=20mm position on the bed
G1 Y20 F3000 ; move to the Y=20mm position on the bed
G1 Y-20 F3000 ; move to the Y=20mm position on the bed
G1 Y20 F3000 ; move to the Y=20mm position on the bed
G1 Y-20 F3000 ; move to the Y=20mm position on the bed
G1 Y20 F3000 ; move to the Y=20mm position on the bed
G1 Y-20 F3000 ; move to the Y=20mm position on the bed
G1 Y20 F3000 ; move to the Y=20mm position on the bed
G1 Y-20 F3000 ; move to the Y=20mm position on the bed
G1 Y20 F3000 ; move to the Y=20mm position on the bed
G1 Y-20 F3000 ; move to the Y=20mm position on the bed
G1 Y20 F3000 ; move to the Y=20mm position on the bed
G1 Y-20 F3000 ; move to the Y=20mm position on the bed
G1 Y20 F3000 ; move to the Y=20mm position on the bed
G1 Y-20 F3000 ; move to the Y=20mm position on the bed
G1 Y20 F3000 ; move to the Y=20mm position on the bed
G1 Y-20 F3000 ; move to the Y=20mm position on the bed
G1 Y20 F3000 ; move to the Y=20mm position on the bed
G1 Y-20 F3000 ; move to the Y=20mm position on the bed
G1 Y20 F3000 ; move to the Y=20mm position on the bed
G1 Y-20 F3000 ; move to the Y=20mm position on the bed
G1 Y20 F3000 ; move to the Y=20mm position on the bed
G1 Y-20 F3000 ; move to the Y=20mm position on the bed
G1 Y20 F3000 ; move to the Y=20mm position on the bed
G1 Y-20 F3000 ; move to the Y=20mm position on the bed
G1 Y20 F3000 ; move to the Y=20mm position on the bed
G1 Y-20 F3000 ; move to the Y=20mm position on the bed
G1 Y20 F3000 ; move to the Y=20mm position on the bed
G1 Y-20 F3000 ; move to the Y=20mm position on the bed
G1 Y20 F3000 ; move to the Y=20mm position on the bed
G1 Y-20 F3000 ; move to the Y=20mm position on the bed
G1 Y20 F3000 ; move to the Y=20mm position on the bed
G1 Y-20 F3000 ; move to the Y=20mm position on the bed
G1 Y20 F3000 ; move to the Y=20mm position on the bed
G1 Y-20 F3000 ; move to the Y=20mm position on the bed
G1 Y20 F3000 ; move to the Y=20mm position on the bed
G1 Y-20 F3000 ; move to the Y=20mm position on the bed
G1 Y20 F3000 ; move to the Y=20mm position on the bed
G1 Y-20 F3000 ; move to the Y=20mm position on the bed
G1 Y20 F3000 ; move to the Y=20mm position on the bed
G1 Y-20 F3000 ; move to the Y=20mm position on the bed
G1 Y20 F3000 ; move to the Y=20mm position on the bed
G1 Y-20 F3000 ; move to the Y=20mm position on the bed
G1 Y20 F3000 ; move to the Y=20mm position on the bed
G1 Y-20 F3000 ; move to the Y=20mm position on the bed
G1 Y20 F3000 ; move to the Y=20mm position on the bed
G1 Y-20 F3000 ; move to the Y=20mm position on the bed
G1 Y20 F3000 ; move to the Y=20mm position on the bed
G1 Y-20 F3000 ; move to the Y=20mm position on the bed
G1 Y20 F3000 ; move to the Y=20mm position on the bed
G1 Y-20 F3000 ; move to the Y=20mm position on the bed
G1 Y20 F3000 ; move to the Y=20mm position on the bed
G1 Y-20 F3000 ; move to the Y=20mm position on the bed
G1 Y20 F3000 ; move to the Y=20mm position on the bed
G1 Y-20 F3000 ; move to the Y=20mm position on the bed
G1 Y20 F3000 ; move to the Y=20mm position on the bed
G1 Y-20 F3000 ; move to the Y=20mm position on the bed
G1 Y20 F3000 ; move to the Y=20mm position on the bed
G1 Y-20 F3000 ; move to the Y=20mm position on the bed
G1 Y20 F3000 ; move to the Y=20mm position on the bed
G1 Y-20 F3000 ; move to the Y=20mm position on the bed
G1 Y20 F3000 ; move to the Y=20mm position on the bed
G1 Y-20 F3000 ; move to the Y=20mm position on the bed
G1 Y20 F3000 ; move to the Y=20mm position on the bed
G1 Y-20 F3000 ; move to the Y=20mm position on the bed
G1 Y20 F3000 ; move to the Y=20mm position on the bed
G1 Y-20 F3000 ; move to the Y=20mm position on the bed
G1 Y20 F3000 ; move to the Y=20mm position on the bed
G1 Y-20 F3000 ; move to the Y=20mm position on the bed
G1 Y20 F3000 ; move to the Y=20mm position on the bed
G1 Y-20 F3000 ; move to the Y=20mm position on the bed
G1 Y20 F3000 ; move to the Y=20mm position on the bed
G1 Y-20 F3000 ; move to the Y=20mm position on the bed
G1 Y20 F3000 ; move to the Y=20mm position on the bed
G1 Y-20 F3000 ; move to the Y=20mm position on the bed
G1 Y20 F3000 ; move to the Y=20mm position on the bed
G1 Y-20 F3000 ; move to the Y=20mm position on the bed
G1 Y20 F3000 ; move to the Y=20mm position on the bed
G1 Y-20 F3000 ; move to the Y=20mm position on the bed
G1 Y20 F3000 ; move to the Y=20mm position on the bed
G1 Y-20 F3000 ; move to the Y=20mm position on the bed
G1 Y20 F3000 ; move to the Y=20mm position on the bed
G1 Y-20 F3000 ; move to the Y=20mm position on the bed
G1 Y20 F3000 ; move to the Y=20mm position on the bed
G1 Y-20 F3000 ; move to the Y=20mm position on the bed
G1 Y20 F3000 ; move to the Y=20mm position on the bed
G1 Y-20 F3000 ; move to the Y=20mm position on the bed
G1 Y20 F3000 ; move to the Y=20mm position on the bed
G1 Y-20 F3000 ; move to the Y=20mm position on the bed
G1 Y20 F3000 ; move to the Y=20mm position on the bed
G1 Y-20 F3000 ; move to the Y=20mm position on the bed
G1 Y20 F3000 ; move to the Y=20mm position on the bed
G1 Y-20 F3000 ; move to the Y=20mm position on the bed
G1 Y20 F3000 ; move to the Y=20mm position on the bed
G1 Y-20 F3000 ; move to the Y=20mm position on the bed
G1 Y20 F3000 ; move to the Y=20mm position on the bed
G1 Y-20 F3000 ; move to the Y=20mm position on the bed
G1 Y20 F3000 ; move to the Y=20mm position on the bed
G1 Y-20 F3000 ; move to the Y=20mm position on the bed
G1 Y20 F3000 ; move to the Y=20mm position on the bed
G1 Y-20 F3000 ; move to the Y=20mm position on the bed
G1 Y20 F3000 ; move to the Y=20mm position on the bed
G1 Y-20 F3000 ; move to the Y=20mm position on the bed
G1 Y20 F3000 ; move to the Y=20mm position on the bed
G1 Y-20 F3000 ; move to the Y=20mm position on the bed
G1 Y20 F3000 ; move to the Y=20mm position on the bed
G1 Y-20 F3000 ; move to the Y=20mm position on the bed
G1 Y20 F3000 ; move to the Y=20mm position on the bed
G1 Y-20 F3000 ; move to the Y=20mm position on the bed
G1 Y20 F3000 ; move to the Y=20mm position on the bed
G1 Y-20 F3000 ; move to the Y=20mm position on the bed
G1 Y20 F3000 ; move to the Y=20mm position on the bed
G1 Y-20 F3000 ; move to the Y=20mm position on the bed
G1 Y20 F3000 ; move to the Y=20mm position on the bed
G1 Y-20 F3000 ; move to the Y=20mm position on the bed
G1 Y20 F3000 ; move to the Y=20mm position on the bed
G1 Y-20 F3000 ; move to the Y=20mm position on the bed
G1 Y20 F3000 ; move to the Y=20mm position on the bed
G1 Y-20 F3000 ; move to the Y=20mm position on the bed
G1 Y20 F3000 ; move to the Y=20mm position on the bed
G1 Y-20 F3000 ; move to the Y=20mm position on the bed
G1 Y20 F3000 ; move to the Y=20mm position on the bed
G1 Y-20 F3000 ; move to the Y=20mm position on the bed
G1 Y20 F3000 ; move to the Y=20mm position on the bed
G1 Y-20 F3000 ; move to the Y=20mm position on the bed
G1 Y20 F3000 ; move to the Y=20mm position on the bed
G1 Y-20 F3000 ; move to the Y=20mm position on the bed
G1 Y20 F3000 ; move to the Y=20mm position on the bed
G1 Y-20 F3000 ; move to the Y=20mm position on the bed
G1 Y20 F3000 ; move to the Y=20mm position on the bed
G1 Y-20 F3000 ; move to the Y=20mm position on the bed
G1 Y20 F3000 ; move to the Y=20mm position on the bed
G1 Y-20 F3000 ; move to the Y=20mm position on the bed
G1 Y20 F3000 ; move to the Y=20mm position on the bed
G1 Y-20 F3000 ; move to the Y=20mm position on the bed
G1 Y20 F3000 ; move to the Y=20mm position on the bed
G1 Y-20 F3000 ; move to the Y=20mm position on the bed
G1 Y20 F3000 ; move to the Y=20mm position on the bed
G1 Y-20 F3000 ; move to the Y=20mm position on the bed
G1 Y20 F3000 ; move to the Y=20mm position on the bed
G1 Y-20 F3000 ; move to the Y=20mm position on the bed
G1 Y20 F3000 ; move to the Y=20mm position on the bed
G1 Y-20 F3000 ; move to the Y=20mm position on the bed
G1 Y20 F3000 ; move to the Y=20mm position on the bed
G1 Y-20 F3000 ; move to the Y=20mm position on the bed
G1 Y20 F3000 ; move to the Y=20mm position on the bed
G1 Y-20 F3000 ; move to the Y=20mm position on the bed
G1 Y20 F3000 ; move to the Y=20mm position on the bed
G1 Y-20 F3000 ; move to the Y=20mm position on the bed
G1 Y20 F3000 ; move to the Y=20mm position on the bed
G1 Y-20 F3000 ; move to the Y=20mm position on the bed
G1 Y20 F3000 ; move to the Y=20mm position on the bed
G1 Y-20 F3000 ; move to the Y=20mm position on the bed
G1 Y20 F3000 ; move to the Y=20mm position on the bed
G1 Y-20 F3000 ; move to the Y=20mm position on the bed
G1 Y20 F3000 ; move to the Y=20mm position on the bed
G1 Y-20 F3000 ; move to the Y=20mm position on the bed
G1 Y20 F3000 ; move to the Y=20mm position on the bed
G1 Y-20 F3000 ; move to the Y=20mm position on the bed
G1 Y20 F3000 ; move to the Y=20mm position on the bed
G1 Y-20 F3000 ; move to the Y=20mm position on the bed
G1 Y20 F3000 ; move to the Y=20mm position on the bed
G1 Y-20 F3000 ; move to the Y=20mm position on the bed
G1 Y20 F3000 ; move to the Y=20mm position on the bed
G1 Y-20 F3000 ; move to the Y=20mm position on the bed
G1 Y20 F3000 ; move to the Y=20mm position on the bed
G1 Y-20 F3000 ; move to the Y=20mm position on the bed
G1 Y20 F3000 ; move to the Y=20mm position on the bed
G1 Y-20 F3000 ; move to the Y=20mm position on the bed
G1 Y20 F3000 ; move to the Y=20mm position on the bed
G1 Y-20 F3000 ; move to the Y=20mm position on the bed
G1 Y20 F3000 ; move to the Y=20mm position on the bed
G1 Y-20 F3000 ; move to the Y=20mm position on the bed
G1 Y20 F3000 ; move to the Y=20mm position on the bed
G1 Y-20 F3000 ; move to the Y=20mm position on the bed
G1 Y20 F3000 ; move to the Y=20mm position on the bed
G1 Y-20 F3000 ; move to the Y=20mm position on the bed
G1 Y20 F3000 ; move to the Y=20mm position on the bed
G1 Y-20 F3000 ; move to the Y=20mm position on the bed
G1 Y20 F3000 ; move to the Y=20mm position on the bed
G1 Y-20 F3000 ; move to the Y=20mm position on the bed
G1 Y20 F3000 ; move to the Y=20mm position on the bed
G1 Y-20 F3000 ; move to the Y=20mm position on the bed
G1 Y20 F3000 ; move to the Y=20mm position on the bed
G1 Y-20 F3000 ; move to the Y=20mm position on the bed
G1 Y20 F3000 ; move to the Y=20mm position on the bed
G1 Y-20 F3000 ; move to the Y=20mm position on the bed
G1 Y20 F3000 ; move to the Y=20mm position on the bed
G1 Y-20 F3000 ; move to the Y=20mm position on the bed
G1 Y20 F3000 ; move to the Y=20mm position on the bed
G1 Y-20 F3000 ; move to the Y=20mm position on the bed
G1 Y20 F3000 ; move to the Y=20mm position on the bed
G1 Y-20 F3000 ; move to the Y=20mm position on the bed
G1 Y20 F3000 ; move to the Y=20mm position on the bed
G1 Y-20 F3000 ; move to the Y=20mm position on the bed
G1 Y20 F3000 ; move to the Y=20mm position on the bed
G1 Y-20 F3000 ; move to the Y=20mm position on the bed
G1 Y20 F3000 ; move to the Y=20mm position on the bed
G1 Y-20 F3000 ; move to the Y=20mm position on the bed
G1 Y20 F3000 ; move to the Y=20mm position on the bed
G1 Y-20 F3000 ; move to the Y=20mm position on the bed
G1 Y20 F3000 ; move to the Y=20mm position on the bed
G1 Y-20 F3000 ; move to the Y=20mm position on the bed
G1 Y20 F3000 ; move to the Y=20mm position on the bed
G1 Y-20 F3000 ; move to the Y=20mm position on the bed
G1 Y20 F3000 ; move to the Y=20mm position on the bed
G1 Y-20 F3000 ; move to the Y=20mm position on the bed
G1 Y20 F3000 ; move to the Y=20mm position on the bed
G1 Y-20 F3000 ; move to the Y=20mm position on the bed
G1 Y20 F3000 ; move to the Y=20mm position on the bed
G1 Y-20 F3000 ; move to the Y=20mm position on the bed
G1 Y20 F3000 ; move to the Y=20mm position on the bed
G1 Y-20 F3000 ; move to the Y=20mm position on the bed
G1 Y20 F3000 ; move to the Y=20mm position on the bed
G1 Y-20 F3000 ; move to the Y=20mm position on the bed
G1 Y20 F3000 ; move to the Y=20mm position on the bed
G1 Y-20 F3000 ; move to the Y=20mm position on the bed
G1 Y20 F3000 ; move to the Y=20mm position on the bed
G1 Y-20 F3000 ; move to the Y=20mm position on the bed
G1 Y20 F3000 ; move to the Y=20mm position on the bed
G1 Y-20 F3000 ; move to the Y=20mm position on the bed
G1 Y20 F3000 ; move to the Y=20mm position on the bed
G1 Y-20 F3000 ; move to the Y=20mm position on the bed
G1 Y20 F3000 ; move to the Y=20mm position on the bed
G1 Y-20 F3000 ; move to the Y=20mm position on the bed
G1 Y20 F3000 ; move to the Y=20mm position on the bed
G1 Y-20 F3000 ; move to the Y=20mm position on the bed
G1 Y20 F3000 ; move to the Y=20mm position on the bed
G1 Y-20 F3000 ; move to the Y=20mm position on the bed
G1 Y20 F3000 ; move to the Y=20mm position on the bed
G1 Y-20 F3000 ; move to the Y=20mm position on the bed
G1 Y20 F3000 ; move to the Y=20mm position on the bed
G1 Y-20 F3000 ; move to the Y=20mm position on the bed
G1 Y20 F3000 ; move to the Y=20mm position on the bed
G1 Y-20 F3000 ; move to the Y=20mm position on the bed
G1 Y20 F3000 ; move to the Y=20mm position on the bed
G1 Y-20 F3000 ; move to the Y=20mm position on the bed
G1 Y20 F3000 ; move to the Y=20mm position on the bed
G1 Y-20 F3000 ; move to the Y=20mm position on the bed
G1 Y20 F3000 ; move to the Y=20mm position on the bed
G1 Y-20 F3000 ; move to the Y=20mm position on the bed
G1 Y20 F3000 ; move to the Y=20mm position on the bed
G1 Y-20 F3000 ; move to the Y=20mm position on the bed
G1 Y20 F3000 ; move to the Y=20mm position on the bed
G1 Y-20 F3000 ; move to the Y=20mm position on the bed
G1 Y20 F3000 ; move to the Y=20mm position on the bed
G1 Y-20 F3000 ; move to the Y=20mm position on the bed
G1 Y20 F3000 ; move to the Y=20mm position on the bed
G1 Y-20 F3000 ; move to the Y=20mm position on the bed
G1 Y20 F3000 ; move to the Y=20mm position on the bed
G1 Y-20 F3000 ; move to the Y=20mm position on the bed
G1 Y20 F3000 ; move to the Y=20mm position on the bed
G1 Y-20 F3000 ; move to the Y=20mm position on the bed
G1 Y20 F3000 ; move to the Y=20mm position on the bed
G1 Y-20 F3000 ; move to the Y=20mm position on the bed
G1 Y20 F3000 ; move to the Y=20mm position on the bed
G1 Y-20 F3000 ; move to the Y=20mm position on the bed
G1 Y20 F3000 ; move to the Y=20mm position on the bed
G1 Y-20 F3000 ; move to the Y=20mm position on the bed
G1 Y20 F3000 ; move to the Y=20mm position on the bed
G1 Y-20 F3000 ; move to the Y=20mm position on the bed
G1 Y20 F3000 ; move to the Y=20mm position on the bed
G1 Y-20 F3000 ; move to the Y=20mm position on the bed
G1 Y20 F3000 ; move to the Y=20mm position on the bed
G1 Y-20 F3000 ; move to the Y=20mm position on the bed
G1 Y20 F3000 ; move to the Y=20mm position on the bed
G1 Y-20 F3000 ; move to the Y=20mm position on the bed
G1 Y20 F3000 ; move to the Y=20mm position on the bed
G1 Y-20 F3000 ; move to the Y=20mm position on the bed
G1 Y20 F3000 ; move to the Y=20mm position on the bed
G1 Y-20 F3000 ; move to the Y=20mm position on the bed
G1 Y20 F3000 ; move to the Y=20mm position on the bed
G1 Y-20 F3000 ; move to the Y=20mm position on the bed
G1 Y20 F3000 ; move to the Y=20mm position on the bed
G1 Y-20 F3000 ; move to the Y=20mm position on the bed
G1 Y20 F3000 ; move to the Y=20mm position on the bed
G1 Y-20 F3000 ; move to the Y=20mm position on the bed
G1 Y20 F3000 ; move to the Y=20mm position on the bed
G1 Y-20 F3000 ; move to the Y=20mm position on the bed
G1 Y20 F3000 ; move to the Y=20mm position on the bed
G1 Y-20 F3000 ; move to the Y=20mm position on the bed
G1 Y20 F3000 ; move to the Y=20mm position on the bed
G1 Y-20 F3000 ; move to the Y=20mm position on the bed
G1 Y20 F3000 ; move to the Y=20mm position on the bed
G1 Y-20 F3000 ; move to the Y=20mm position on the bed
G1 Y20 F3000 ; move to the Y=20mm position on the bed
G1 Y-20 F3000 ; move to the Y=20mm position on the bed
G1 Y20 F3000 ; move to the Y=20mm position on the bed
G1 Y-20 F3000 ; move to the Y=20mm position on the bed
G1 Y20 F3000 ; move to the Y=20mm position on the bed
G1 Y-20 F3000 ; move to the Y=20mm position on the bed
G1 Y20 F3000 ; move to the Y=20mm position on the bed
G1 Y-20 F3000 ; move to the Y=20mm position on the bed
G1 Y20 F3000 ; move to the Y=20mm position on the bed
G1 Y-20 F3000 ; move to the Y=20mm position on the bed
G1 Y20 F3000 ; move to the Y=20mm position on the bed
G1 Y-20 F3000 ; move to the Y=20mm position on the bed
G1 Y20 F3000 ; move to the Y=20mm position on the bed
G1 Y-20 F3000 ; move to the Y=20mm position on the bed
G1 Y20 F3000 ; move to the Y=20mm position on the bed
G1 Y-20 F3000 ; move to the Y=20mm position on the bed
G1 Y20 F3000 ; move to the Y=20mm position on the bed
G1 Y-20 F3000 ; move to the Y=20mm position on the bed
G1 Y20 F3000 ; move to the Y=20mm position on the bed
G1 Y-20 F3000 ; move to the Y=20mm position on the bed
G1 Y20 F3000 ; move to the Y=20mm position on the bed
G1 Y-20 F3000 ; move to the Y=20mm position on the bed
G1 Y20 F3000 ; move to the Y=20mm position on the bed
G1 Y-20 F3000 ; move to the Y=20mm position on the bed
G1 Y20 F3000 ; move to the Y=20mm position on the bed
G1 Y-20 F3000 ; move to the Y=20mm position on the bed
G1 Y20 F3000 ; move to the Y=20mm position on the bed
G1 Y-20 F3000 ; move to the Y=20mm position on the bed
G1 Y20 F3000 ; move to the Y=20mm position on the bed
G1 Y-20 F3000 ; move to the Y=20mm position on the bed
G1 Y20 F3000 ; move to the Y=20mm position on the bed
G1 Y-20 F3000 ; move to the Y=20mm position on the bed
G1 Y20 F3000 ; move to the Y=20mm position on the bed
G1 Y-20 F3000 ; move to the Y=20mm position on the bed
G1 Y20 F3000 ; move to the Y=20mm position on the bed
G1 Y-20 F3000 ; move to the Y=20mm position on the bed
G1 Y20 F3000 ; move to the Y=20mm position on the bed
G1 Y-20 F3000 ; move to the Y=20mm position on the bed
G1 Y20 F3000 ; move to the Y=20mm position on the bed
G1 Y-20 F3000 ; move to the Y=20mm position on the bed
G1 Y20 F3000 ; move to the Y=20mm position on the bed
G1 Y-20 F3000 ; move to the Y=20mm position on the bed
G1 Y20 F3000 ; move to the Y=20mm position on the bed
G1 Y-20 F3000 ; move to the Y=20mm position on the bed
G1 Y20 F3000 ; move to the Y=20mm position on the bed
G1 Y-20 F3000 ; move to the Y=20mm position on the bed
G1 Y20 F3000 ; move to the Y=20mm position on the bed
G1 Y-20 F3000 ; move to the Y=20mm position on the bed
G1 Y20 F3000 ; move to the Y=20mm position on the bed
G1 Y-20 F3000 ; move to the Y=20mm position on the bed
G1 Y20 F3000 ; move to the Y=20mm position on the bed
G1 Y-20 F3000 ; move to the Y=20mm position on the bed
G1 Y20 F3000 ; move to the Y=20mm position on the bed
G1 Y-20 F3000 ; move to the Y=20mm position on the bed
G1 Y20 F3000 ; move to the Y=20mm position on the bed
G1 Y-20 F3000 ; move to the Y=20mm position on the bed
G1 Y20 F3000 ; move to the Y=20mm position on the bed
G1 Y-20 F3000 ; move to the Y=20mm position on the bed
G1 Y20 F3000 ; move to the Y=20mm position on the bed
G1 Y-20 F3000 ; move to the Y=20mm position on the bed
G1 Y20 F3000 ; move to the Y=20mm position on the bed
G1 Y-20 F3000 ; move to the Y=20mm position on the bed
G1 Y20 F3000 ; move to the Y=20mm position on the bed
G1 Y-20 F3000 ; move to the Y=20mm position on the bed
G1 Y20 F3000 ; move to the Y=20mm position on the bed
G1 Y-20 F3000 ; move to the Y=20mm position on the bed
G1 Y20 F3000 ; move to the Y=20mm position on the bed
G1 Y-20 F3000 ; move to the Y=20mm position on the bed
G1 Y20 F3000 ; move to the Y=20mm position on the bed
G1 Y-20 F3000 ; move to the Y=20mm position on the bed
G1 Y20 F3000 ; move to the Y=20mm position on the bed
G1 Y-20 F3000 ; move to the Y=20mm position on the bed
G1 Y20 F3000 ; move to the Y=20mm position on the bed
G1 Y-20 F3000 ; move to the Y=20mm position on the bed
G1 Y20 F3000 ; move to the Y=20mm position on the bed
G1 Y-20 F3000 ; move to the Y=20mm position on the bed
G1 Y20 F3000 ; move to the Y=20mm position on the bed
G1 Y-20 F3000 ; move to the Y=20mm position on the bed
G1 Y20 F3000 ; move to the Y=20mm position on the bed
G1 Y-20 F3000 ; move to the Y=20mm position on the bed
G1 Y20 F3000 ; move to the Y=20mm position on the bed
G1 Y-20 F3000 ; move to the Y=20mm position on the bed
G1 Y20 F3000 ; move to the Y=20mm position on the bed
G1 Y-20 F3000 ; move to the Y=20mm position on the bed
G1 Y20 F3000 ; move to the Y=20mm position on the bed
G1 Y-20 F3000 ; move to the Y=20mm position on the bed
G1 Y20 F3000 ; move to the Y=20mm position on the bed
G1 Y-20 F3000 ; move to the Y=20mm position on the bed
G1 Y20 F3000 ; move to the Y=20mm position on the bed
G1 Y-20 F3000 ; move to the Y=20mm position on the bed
G1 Y20 F3000 ; move to the Y=20mm position on the bed
G1 Y-20 F3000 ; move to the Y=20mm position on the bed
G1 Y20 F3000 ; move to the Y=20mm position on the bed
G1 Y-20 F3000 ; move to the Y=20mm position on the bed
G1 Y20 F3000 ; move to the Y=20mm position on the bed
G1 Y-20 F3000 ; move to the Y=20mm position on the bed
G1 Y20 F3000 ; move to the Y=20mm position on the bed
G1 Y-20 F3000 ; move to the Y=20mm position on the bed
G1 Y20 F3000 ; move to the Y=20mm position on the bed
G1 Y-20 F3000 ; move to the Y=20mm position on the bed
G1 Y20 F3000 ; move to the Y=20mm position on the bed
G1 Y-20 F3000 ; move to the Y=20mm position on the bed
G1 Y20 F3000 ; move to the Y=20mm position on the bed
G1 Y-20 F3000 ; move to the Y=20mm position on the bed
G1 Y20 F3000 ; move to the Y=20mm position on the bed
G1 Y-20 F3000 ; move to the Y=20mm position on the bed
G1 Y20 F3000 ; move to the Y=20mm position on the bed
G1 Y-20 F3000 ; move to the Y=20mm position on the bed
G1 Y20 F3000 ; move to the Y=20mm position on the bed
G1 Y-20 F3000 ; move to the Y=20mm position on the bed
G1 Y20 F3000 ; move to the Y=20mm position on the bed
G1 Y-20 F3000 ; move to the Y=20mm position on the bed
G1 Y20 F3000 ; move to the Y=20mm position on the bed
G1 Y-20 F3000 ; move to the Y=20mm position on the bed
G1 Y20 F3000 ; move to the Y=20mm position on the bed
G1 Y-20 F3000 ; move to the Y=20mm position on the bed
G1 Y20 F3000 ; move to the Y=20mm position on the bed
G1 Y-20 F3000 ; move to the Y=20mm position on the bed
G1 Y20 F3000 ; move to the Y=20mm position on the bed
G1 Y-20 F3000 ; move to the Y=20mm position on the bed
G1 Y20 F3000 ; move to the Y=20mm position on the bed
G1 Y-20 F3000 ; move to the Y=20mm position on the bed
G1 Y20 F3000 ; move to the Y=20mm position on the bed
G1 Y-20 F3000 ; move to the Y=20mm position on the bed
G1 Y20 F3000 ; move to the Y=20mm position on the bed
G1 Y-20 F3000 ; move to the Y=20mm position on the bed
G1 Y20 F3000 ; move to the Y=20mm position on the bed
G1 Y-20 F3000 ; move to the Y=20mm position on the bed
G1 Y20 F3000 ; move to the Y=20mm position on the bed
G1 Y-20 F3000 ; move to the Y=20mm position on the bed
G1 Y20 F3000 ; move to the Y=20mm position on the bed
G1 Y-20 F3000 ; move to the Y=20mm position on the bed
G1 Y20 F3000 ; move to the Y=20mm position on the bed
G1 Y-20 F3000 ; move to the Y=20mm position on the bed
G1 Y20 F3000 ; move to the Y=20mm position on the bed
G1 Y-20 F3000 ; move to the Y=20mm position on the bed
G1 Y20 F3000 ; move to the Y=20mm position on the bed
G1 Y-20 F3000 ; move to the Y=20mm position on the bed
G1 Y20 F3000 ; move to the Y=20mm position on the bed
G1 Y-20 F3000 ; move to the Y=20mm position on the bed
G1 Y20 F3000 ; move to the Y=20mm position on the bed
G1 Y-20 F3000 ; move to the Y=20mm position on the bed
G1 Y20 F3000 ; move to the Y=20mm position on the bed
G1 Y-20 F3000 ; move to the Y=20mm position on the bed
G1 Y20 F3000 ; move to the Y=20mm position on the bed
G1 Y-20 F3000 ; move to the Y=20mm position on the bed
G1 Y20 F3000 ; move to the Y=20mm position on the bed
G1 Y-20 F3000 ; move to the Y=20mm position on the bed
G1 Y20 F3000 ; move to the Y=20mm position on the bed
G1 Y-20 F3000 ; move to the Y=20mm position on the bed
G1 Y20 F3000 ; move to the Y=20mm position on the bed
G1 Y-20 F3000 ; move to the Y=20mm position on the bed
G1 Y20 F3000 ; move to the Y=20mm position on the bed
G1 Y-20 F3000 ; move to the Y=20mm position on the bed
G1 Y20 F3000 ; move to the Y=20mm position on the bed
G1 Y-20 F3000 ; move to the Y=20mm position on the bed
G1 Y20 F3000 ; move to the Y=20mm position on the bed
G1 Y-20 F3000 ; move to the Y=20mm position on the bed
G1 Y20 F3000 ; move to the Y=20mm position on the bed
G1 Y-20 F3000 ; move to the Y=20mm position on the bed
G1 Y20 F3000 ; move to the Y=20mm position on the bed
G1 Y-20 F3000 ; move to the Y=20mm position on the bed
G1 Y20 F3000 ; move to the Y=20mm position on the bed
G1 Y-20 F3000 ; move to the Y=20mm position on the bed
G1 Y20 F3000 ; move to the Y=20mm position on the bed
G1 Y-20 F3000 ; move to the Y=20mm position on the bed
G1 Y20 F3000 ; move to the Y=20mm position on the bed
G1 Y-20 F3000 ; move to the Y=20mm position on the bed
G1 Y20 F3000 ; move to the Y=20mm position on the bed
G1 Y-20 F3000 ; move to the Y=20mm position on the bed
G1 Y20 F3000 ; move to the Y=20mm position on the bed
G1 Y-20 F3000 ; move to the Y=20mm position on the bed
G1 Y20 F3000 ; move to the Y=20mm position on the bed
G1 Y-20 F3000 ; move to the Y=20mm position on the bed
G1 Y20 F3000 ; move to the Y=20mm position on the bed
G1 Y-20 F3000 ; move to the Y=20mm position on the bed
G1 Y20 F3000 ; move to the Y=20mm position on the bed
G1 Y-20 F3000 ; move to the Y=20mm position on the bed
G1 Y20 F3000 ; move to the Y=20mm position on the bed
G1 Y-20 F3000 ; move to the Y=20mm position on the bed
G1 Y20 F3000 ; move to the Y=20mm position on the bed
G1 Y-20 F3000 ; move to the Y=20mm position on the bed
G1 Y20 F3000 ; move to the Y=20mm position on the bed
G1 Y-20 F3000 ; move to the Y=20mm position on the bed
G1 Y20 F3000 ; move to the Y=20mm position on the bed
G1 Y-20 F3000 ; move to the Y=20mm position on the bed
G1 Y20 F3000 ; move to the Y=20mm position on the bed
G1 Y-20 F3000 ; move to the Y=20mm position on the bed
G1 Y20 F3000 ; move to the Y=20mm position on the bed
G1 Y-20 F3000 ; move to the Y=20mm position on the bed
G1 Y20 F3000 ; move to the Y=20mm position on the bed
G1 Y-20 F3000 ; move to the Y=20mm position on the bed
G1 Y20 F3000 ; move to the Y=20mm position on the bed
G1 Y-20 F3000 ; move to the Y=20mm position on the bed
G1 Y20 F3000 ; move to the Y=20mm position on the bed
G1 Y-20 F3000 ; move to the Y=20mm position on the bed
G1 Y20 F3000 ; move to the Y=20mm position on the bed
G1 Y-20 F3000 ; move to the Y=20mm position on the bed
G1 Y20 F3000 ; move to the Y=20mm position on the bed
G1 Y-20 F3000 ; move to the Y=20mm position on the bed
G1 Y20 F3000 ; move to the Y=20mm position on the bed
G1 Y-20 F3000 ; move to the Y=20mm position on the bed
G1 Y20 F3000 ; move to the Y=20mm position on the bed
G1 Y-20 F3000 ; move to the Y=20mm position on the bed
G1 Y20 F3000 ; move to the Y=20mm position on the bed
G1 Y-20 F3000 ; move to the Y=20mm position on the bed
G1 Y20 F3000 ; move to the Y=20mm position on the bed
G1 Y-20 F3000 ; move to the Y=20mm position on the bed
G1 Y20 F3000 ; move to the Y=20mm position on the bed
G1 Y-20 F3000 ; move to the Y=20mm position on the bed
G1 Y20 F3000 ; move to the Y=20mm position on the bed
G1 Y-20 F3000 ; move to the Y=20mm position on the bed
G1 Y20 F3000 ; move to the Y=20mm position on the bed
G1 Y-20 F3000 ; move to the Y=20mm position on the bed
G1 Y20 F3000 ; move to the Y=20mm position on the bed
G1 Y-20 F3000 ; move to the Y=20mm position on the bed
G1 Y20 F3000 ; move to the Y=20mm position on the bed
G1 Y-20 F3000 ; move to the Y=20mm position on the bed
G1 Y20 F3000 ; move to the Y=20mm position on the bed
G1 Y-20 F3000 ; move to the Y=20mm position on the bed
G1 Y20 F3000 ; move to the Y=20mm position on the bed
G1 Y-20 F3000 ; move to the Y=20mm position on the bed
G1 Y20 F3000 ; move to the Y=20mm position on the bed
G1 Y-20 F3000 ; move to the Y=20mm position on the bed
G1 Y20 F3000 ; move to the Y=20mm position on the bed
G1 Y-20 F3000 ; move to the Y=20mm position on the bed
G1 Y20 F3000 ; move to the Y=20mm position on the bed
G1 Y-20 F3000 ; move to the Y=20mm position on the bed
G1 Y20 F3000 ; move to the Y=20mm position on the bed
G1 Y-20 F3000 ; move to the Y=20mm position on the bed
G1 Y20 F3000 ; move to the Y=20mm position on the bed
G1 Y-20 F3000 ; move to the Y=20mm position on the bed
G1 Y20 F3000 ; move to the Y=20mm position on the bed
G1 Y-20 F3000 ; move to the Y=20mm position on the bed
G1 Y20 F3000 ; move to the Y=20mm position on the bed
G1 Y-20 F3000 ; move to the Y=20mm position on the bed
G1 Y20 F3000 ; move to the Y=20mm position on the bed
G1 Y-20 F3000 ; move to the Y=20mm position on the bed
G1 Y20 F3000 ; move to the Y=20mm position on the bed
G1 Y-20 F3000 ; move to the Y=20mm position on the bed
G1 Y20 F3000 ; move to the Y=20mm position on the bed
G1 Y-20 F3000 ; move to the Y=20mm position on the bed
G1 Y20 F3000 ; move to the Y=20mm position on the bed
G1 Y-20 F3000 ; move to the Y=20mm position on the bed
G1 Y20 F3000 ; move to the Y=20mm position on the bed
G1 Y-20 F3000 ; move to the Y=20mm position on the bed
G1 Y20 F3000 ; move to the Y=20mm position on the bed
G1 Y-20 F3000 ; move to the Y=20mm position on the bed
G1 Y20 F3000 ; move to the Y=20mm position on the bed
G1 Y-20 F3000 ; move to the Y=20mm position on the bed
G1 Y20 F3000 ; move to the Y=20mm position on the bed
G1 Y-20 F3000 ; move to the Y=20mm position on the bed
G1 Y20 F3000 ; move to the Y=20mm position on the bed
G1 Y-20 F3000 ; move to the Y=20mm position on the bed
G1 Y20 F3000 ; move to the Y=20mm position on the bed
G1 Y-20 F3000 ; move to the Y=20mm position on the bed
G1 Y20 F3000 ; move to the Y=20mm position on the bed
G1 Y-20 F3000 ; move to the Y=20mm position on the bed
G1 Y20 F3000 ; move to the Y=20mm position on the bed
G1 Y-20 F3000 ; move to the Y=20mm position on the bed
G1 Y20 F3000 ; move to the Y=20mm position on the bed
G1 Y-20 F3000 ; move to the Y=20mm position on the bed
G1 Y20 F3000 ; move to the Y=20mm position on the bed
G1 Y-20 F3000 ; move to the Y=20mm position on the bed
G1 Y20 F3000 ; move to the Y=20mm position on the bed
G1 Y-20 F3000 ; move to the Y=20mm position on the bed
G1 Y20 F3000 ; move to the Y=20mm position on the bed
G1 Y-20 F3000 ; move to the Y=20mm position on the bed
G1 Y20 F3000 ; move to the Y=20mm position on the bed
G1 Y-20 F3000 ; move to the Y=20mm position on the bed
G1 Y20 F3000 ; move to the Y=20mm position on the bed
G1 Y-20 F3000 ; move to the Y=20mm position on the bed
G1 Y20 F3000 ; move to the Y=20mm position on the bed
G1 Y-20 F3000 ; move to the Y=20mm position on the bed
G1 Y20 F3000 ; move to the Y=20mm position on the bed
G1 Y-20 F3000 ; move to the Y=20mm position on the bed
G1 Y20 F3000 ; move to the Y=20mm position on the bed
G1 Y-20 F3000 ; move to the Y=20mm position on the bed
G1 Y20 F3000 ; move to the Y=20mm position on the bed
G1 Y-20 F3000 ; move to the Y=20mm position on the bed
G1 Y20 F3000 ; move to the Y=20mm position on the bed
G1 Y-20 F3000 ; move to the Y=20mm position on the bed
G1 Y20 F3000 ; move to the Y=20mm position on the bed
G1 Y-20 F3000 ; move to the Y=20mm position on the bed
G1 Y20 F3000 ; move to the Y=20mm position on the bed
G1 Y-20 F3000 ; move to the Y=20mm position on the bed
G1 Y20 F3000 ; move to the Y=20mm position on the bed
G1 Y-20 F3000 ; move to the Y=20mm position on the bed
G1 Y20 F3000 ; move to the Y=20mm position on the bed
G1 Y-20 F3000 ; move to the Y=20mm position on the bed
G1 Y20 F3000 ; move to the Y=20mm position on the bed
G1 Y-20 F3000 ; move to the Y=20mm position on the bed
G1 Y20 F3000 ; move to the Y=20mm position on the bed
G1 Y-20 F3000 ; move to the Y=20mm position on the bed
G1 Y20 F3000 ; move to the Y=20mm position on the bed
G1 Y-20 F3000 ; move to the Y=20mm position on the bed
G1 Y20 F3000 ; move to the Y=20mm position on the bed
G1 Y-20 F3000 ; move to the Y=20mm position on the bed
G1 Y20 F3000 ; move to the Y=20mm position on the bed
G1 Y-20 F3000 ; move to the Y=20mm position on the bed
G1 Y20 F3000 ; move to the Y=20mm position on the bed
G1 Y-20 F3000 ; move to the Y=20mm position on the bed
G1 Y20 F3000 ; move to the Y=20mm position on the bed
G1 Y-20 F3000 ; move to the Y=20mm position on the bed
G1 Y20 F3000 ; move to the Y=20mm position on the bed
G1 Y-20 F3000 ; move to the Y=20mm position on the bed
G1 Y20 F3000 ; move to the Y=20mm position on the bed
G1 Y-20 F3000 ; move to the Y=20mm position on the bed
G1 Y20 F3000 ; move to the Y=20mm position on the bed
G1 Y-20 F3000 ; move to the Y=20mm position on the bed
G1 Y20 F3000 ; move to the Y=20mm position on the bed
G1 Y-20 F3000 ; move to the Y=20mm position on the bed
G1 Y20 F3000 ; move to the Y=20mm position on the bed
G1 Y-20 F3000 ; move to the Y=20mm position on the bed
G1 Y20 F3000 ; move to the Y=20mm position on the bed
G1 Y-20 F3000 ; move to the Y=20mm position on the bed
G1 Y20 F3000 ; move to the Y=20mm position on the bed
G1 Y-20 F3000 ; move to the Y=20mm position on the bed
G1 Y20 F3000 ; move to the Y=20mm position on the bed
G1 Y-20 F3000 ; move to the Y=20mm position on the bed
G1 Y20 F3000 ; move to the Y=20mm position on the bed
G1 Y-20 F3000 ; move to the Y=20mm position on the bed
G1 Y20 F3000 ; move to the Y=20mm position on the bed
G1 Y-20 F3000 ; move to the Y=20mm position on the bed
G1 Y20 F3000 ; move to the Y=20mm position on the bed
G1 Y-20 F3000 ; move to the Y=20mm position on the bed
G1 Y20 F3000 ; move to the Y=20mm position on the bed
G1 Y-20 F3000 ; move to the Y=20mm position on the bed
G1 Y20 F3000 ; move to the Y=20mm position on the bed
G1 Y-20 F3000 ; move to the Y=20mm position on the bed
G1 Y20 F3000 ; move to the Y=20mm position on the bed
G1 Y-20 F3000 ; move to the Y=20mm position on the bed
G1 Y20 F3000 ; move to the Y=20mm position on the bed
G1 Y-20 F3000 ; move to the Y=20mm position on the bed
G1 Y20 F3000 ; move to the Y=20mm position on the bed
G1 Y-20 F3000 ; move to the Y=20mm position on the bed
G1 Y20 F3000 ; move to the Y=20mm position on the bed
G1 Y-20 F3000 ; move to the Y=20mm position on the bed
G1 Y20 F3000 ; move to the Y=20mm position on the bed
G1 Y-20 F3000 ; move to the Y=20mm position on the bed
G1 Y20 F3000 ; move to the Y=20mm position on the bed
G1 Y-20 F3000 ; move to the Y=20mm position on the bed
G1 Y20 F3000 ; move to the Y=20mm position on the bed
G1 Y-20 F3000 ; move to the Y=20mm position on the bed
G1 Y20 F3000 ; move to the Y=20mm position on the bed
G1 Y-20 F3000 ; move to the Y=20mm position on the bed
G1 Y20 F3000 ; move to the Y=20mm position on the bed
G1 Y-20 F3000 ; move to the Y=20mm position on the bed
G1 Y20 F3000 ; move to the Y=20mm position on the bed
G1 Y-20 F3000 ; move to the Y=20mm position on the bed
G1 Y20 F3000 ; move to the Y=20mm position on the bed
G1 Y-20 F3000 ; move to the Y=20mm position on the bed
G1 Y20 F3000 ; move to the Y=20mm position on the bed
G1 Y-20 F3000 ; move to the Y=20mm position on the bed
G1 Y20 F3000 ; move to the Y=20mm position on the bed
G1 Y-20 F3000 ; move to the Y=20mm position on the bed
G1 Y20 F3000 ; move to the Y=20mm position on the bed
G1 Y-20 F3000 ; move to the Y=20mm position on the bed
G1 Y20 F3000 ; move to the Y=20mm position on the bed
G1 Y-20 F3000 ; move to the Y=20mm position on the bed
G1 Y20 F3000 ; move to the Y=20mm position on the bed
G1 Y-20 F3000 ; move to the Y=20mm position on the bed
G1 Y20 F3000 ; move to the Y=20mm position on the bed
G1 Y-20 F3000 ; move to the Y=20mm position on the bed
G1 Y20 F3000 ; move to the Y=20mm position on the bed
G1 Y-20 F3000 ; move to the Y=20mm position on the bed
G1 Y20 F3000 ; move to the Y=20mm position on the bed
G1 Y-20 F3000 ; move to the Y=20mm position on the bed
G1 Y20 F3000 ; move to the Y=20mm position on the bed
G1 Y-20 F3000 ; move to the Y=20mm position on the bed
G1 Y20 F3000 ; move to the Y=20mm position on the bed
G1 Y-20 F3000 ; move to the Y=20mm position on the bed
G1 Y20 F3000 ; move to the Y=20mm position on the bed
G1 Y-20 F3000 ; move to the Y=20mm position on the bed
G1 Y20 F3000 ; move to the Y=20mm position on the bed
G1 Y-20 F3000 ; move to the Y=20mm position on the bed
G1 Y20 F3000 ; move to the Y=20mm position on the bed
G1 Y-20 F3000 ; move to the Y=20mm position on the bed
G1 Y20 F3000 ; move to the Y=20mm position on the bed
G1 Y-20 F3000 ; move to the Y=20mm position on the bed
G1 Y20 F3000 ; move to the Y=20mm position on the bed
G1 Y-20 F3000 ; move to the Y=20mm position on the bed
G1 Y20 F3000 ; move to the Y=20mm position on the bed
G1 Y-20 F3000 ; move to the Y=20mm position on the bed
G1 Y20 F3000 ; move to the Y=20mm position on the bed
G1 Y-20 F3000 ; move to the Y=20mm position on the bed
G1 Y20 F3000 ; move to the Y=20mm position on the bed
G1 Y-20 F3000 ; move to the Y=20mm position on the bed
G1 Y20 F3000 ; move to the Y=20mm position on the bed
G1 Y-20 F3000 ; move to the Y=20mm position on the bed
G1 Y20 F3000 ; move to the Y=20mm position on the bed
G1 Y-20 F3000 ; move to the Y=20mm position on the bed
G1 Y20 F3000 ; move to the Y=20mm position on the bed
G1 Y-20 F3000 ; move to the Y=20mm position on the bed
G1 Y20 F3000 ; move to the Y=20mm position on the bed
G1 Y-20 F3000 ; move to the Y=20mm position on the bed
G1 Y20 F3000 ; move to the Y=20mm position on the bed
G1 Y-20 F3000 ; move to the Y=20mm position on the bed
G1 Y20 F3000 ; move to the Y=20mm position on the bed
G1 Y-20 F3000 ; move to the Y=20mm position on the bed
G1 Y20 F3000 ; move to the Y=20mm position on the bed
G1 Y-20 F3000 ; move to the Y=20mm position on the bed
G1 Y20 F3000 ; move to the Y=20mm position on the bed
G1 Y-20 F3000 ; move to the Y=20mm position on the bed
G1 Y20 F3000 ; move to the Y=20mm position on the bed
G1 Y-20 F3000 ; move to the Y=20mm position on the bed
G1 Y20 F3000 ; move to the Y=20mm position on the bed
G1 Y-20 F3000 ; move to the Y=20mm position on the bed
G1 Y20 F3000 ; move to the Y=20mm position on the bed
G1 Y-20 F3000 ; move to the Y=20mm position on the bed
G1 Y20 F3000 ; move to the Y=20mm position on the bed
G1 Y-20 F3000 ; move to the Y=20mm position on the bed
G1 Y20 F3000 ; move to the Y=20mm position on the bed
G1 Y-20 F3000 ; move to the Y=20mm position on the bed
G1 Y20 F3000 ; move to the Y=20mm position on the bed
G1 Y-20 F3000 ; move to the Y=20mm position on the bed
G1 Y20 F3000 ; move to the Y=20mm position on the bed
G1 Y-20 F3000 ; move to the Y=20mm position on the bed
G1 Y20 F3000 ; move to the Y=20mm position on the bed
G1 Y-20 F3000 ; move to the Y=20mm position on the bed
G1 Y20 F3000 ; move to the Y=20mm position on the bed
G1 Y-20 F3000 ; move to the Y=20mm position on the bed
G1 Y20 F3000 ; move to the Y=20mm position on the bed
G1 Y-20 F3000 ; move to the Y=20mm position on the bed
G1 Y20 F3000 ; move to the Y=20mm position on the bed
G1 Y-20 F3000 ; move to the Y=20mm position on the bed
G1 Y20 F3000 ; move to the Y=20mm position on the bed
G1 Y-20 F3000 ; move to the Y=20mm position on the bed
G1 Y20 F3000 ; move to the Y=20mm position on the bed
G1 Y-20 F3000 ; move to the Y=20mm position on the bed
G1 Y20 F3000 ; move to the Y=20mm position on the bed
G1 Y-20 F3000 ; move to the Y=20mm position on the bed
G1 Y20 F3000 ; move to the Y=20mm position on the bed
G1 Y-20 F3000 ; move to the Y=20mm position on the bed
G1 Y20 F3000 ; move to the Y=20mm position on the bed
G1 Y-20 F3000 ; move to the Y=20mm position on the bed
G1 Y20 F3000 ; move to the Y=20mm position on the bed
G1 Y-20 F3000 ; move to the Y=20mm position on the bed
G1 Y20 F3000 ; move to the Y=20mm position on the bed
G1 Y-20 F3000 ; move to the Y=20mm position on the bed
G1 Y20 F3000 ; move to the Y=20mm position on the bed
G1 Y-20 F3000 ; move to the Y=20mm position on the bed
G1 Y20 F3000 ; move to the Y=20mm position on the bed
G1 Y-20 F3000 ; move to the Y=20mm position on the bed
G1 Y20 F3000 ; move to the Y=20mm position on the bed
G1 Y-20 F3000 ; move to the Y=20mm position on the bed
G1 Y20 F3000 ; move to the Y=20mm position on the bed
G1 Y-20 F3000 ; move to the Y=20mm position on the bed
G1 Y20 F3000 ; move to the Y=20mm position on the bed
G1 Y-20 F3000 ; move to the Y=20mm position on the bed
G1 Y20 F3000 ; move to the Y=20mm position on the bed
G1 Y-20 F3000 ; move to the Y=20mm position on the bed
G1 Y20 F3000 ; move to the Y=20mm position on the bed
G1 Y-20 F3000 ; move to the Y=20mm position on the bed
G1 Y20 F3000 ; move to the Y=20mm position on the bed
G1 Y-20 F3000 ; move to the Y=20mm position on the bed
G1 Y20 F3000 ; move to the Y=20mm position on the bed
G1 Y-20 F3000 ; move to the Y=20mm position on the bed
G1 Y20 F3000 ; move to the Y=20mm position on the bed
G1 Y-20 F3000 ; move to the Y=20mm position on the bed
G1 Y20 F3000 ; move to the Y=20mm position on the bed
G1 Y-20 F3000 ; move to the Y=20mm position on the bed
G1 Y20 F3000 ; move to the Y=20mm position on the bed
G1 Y-20 F3000 ; move to the Y=20mm position on the bed
G1 Y20 F3000 ; move to the Y=20mm position on the bed
G1 Y-20 F3000 ; move to the Y=20mm position on the bed
G1 Y20 F3000 ; move to the Y=20mm position on the bed
G1 Y-20 F3000 ; move to the Y=20mm position on the bed
G1 Y20 F3000 ; move to the Y=20mm position on the bed
G1 Y-20 F3000 ; move to the Y=20mm position on the bed
G1 Y20 F3000 ; move to the Y=20mm position on the bed
G1 Y-20 F3000 ; move to the Y=20mm position on the bed
G1 Y20 F3000 ; move to the Y=20mm position on the bed
G1 Y-20 F3000 ; move to the Y=20mm position on the bed
G1 Y20 F3000 ; move to the Y=20mm position on the bed
G1 Y-20 F3000 ; move to the Y=20mm position on the bed
G1 Y20 F3000 ; move to the Y=20mm position on the bed
G1 Y-20 F3000 ; move to the Y=20mm position on the bed
G1 Y20 F3000 ; move to the Y=20mm position on the bed
G1 Y-20 F3000 ; move to the Y=20mm position on the bed
G1 Y20 F3000 ; move to the Y=20mm position on the bed
G1 Y-20 F3000 ; move to the Y=20mm position on the bed
G1 Y20 F3000 ; move to the Y=20mm position on the bed
G1 Y-20 F3000 ; move to the Y=20mm position on the bed
G1 Y20 F3000 ; move to the Y=20mm position on the bed
G1 Y-20 F3000 ; move to the Y=20mm position on the bed
G1 Y20 F3000 ; move to the Y=20mm position on the bed
G1 Y-20 F3000 ; move to the Y=20mm position on the bed
G1 Y20 F3000 ; move to the Y=20mm position on the bed
G1 Y-20 F3000 ; move to the Y=20mm position on the bed
G1 Y20 F3000 ; move to the Y=20mm position on the bed
G1 Y-20 F3000 ; move to the Y=20mm position on the bed
G1 Y20 F3000 ; move to the Y=20mm position on the bed
G1 Y-20 F3000 ; move to the Y=20mm position on the bed
G1 Y20 F3000 ; move to the Y=20mm position on the bed
G1 Y-20 F3000 ; move to the Y=20mm position on the bed
G1 Y20 F3000 ; move to the Y=20mm position on the bed
G1 Y-20 F3000 ; move to the Y=20mm position on the bed
G1 Y20 F3000 ; move to the Y=20mm position on the bed
G1 Y-20 F3000 ; move to the Y=20mm position on the bed
G1 Y20 F3000 ; move to the Y=20mm position on the bed
G1 Y-20 F3000 ; move to the Y=20mm position on the bed
G1 Y20 F3000 ; move to the Y=20mm position on the bed
G1 Y-20 F3000 ; move to the Y=20mm position on the bed
G1 Y20 F3000 ; move to the Y=20mm position on the bed
G1 Y-20 F3000 ; move to the Y=20mm position on the bed
G1 Y20 F3000 ; move to the Y=20mm position on the bed
G1 Y-20 F3000 ; move to the Y=20mm position on the bed
G1 Y20 F3000 ; move to the Y=20mm position on the bed
G1 Y-20 F3000 ; move to the Y=20mm position on the bed
G1 Y20 F3000 ; move to the Y=20mm position on the bed
G1 Y-20 F3000 ; move to the Y=20mm position on the bed
G1 Y20 F3000 ; move to the Y=20mm position on the bed
G1 Y-20 F3000 ; move to the Y=20mm position on the bed
G1 Y20 F3000 ; move to the Y=20mm position on the bed
G1 Y-20 F3000 ; move to the Y=20mm position on the bed
G1 Y20 F3000 ; move to the Y=20mm position on the bed
G1 Y-20 F3000 ; move to the Y=20mm position on the bed
G1 Y20 F3000 ; move to the Y=20mm position on the bed
G1 Y-20 F3000 ; move to the Y=20mm position on the bed
G1 Y20 F3000 ; move to the Y=20mm position on the bed
G1 Y-20 F3000 ; move to the Y=20mm position on the bed
G1 Y20 F3000 ; move to the Y=20mm position on the bed
G1 Y-20 F3000 ; move to the Y=20mm position on the bed
G1 Y20 F3000 ; move to the Y=20mm position on the bed
G1 Y-20 F3000 ; move to the Y=20mm position on the bed
G1 Y20 F3000 ; move to the Y=20mm position on the bed
G1 Y-20 F3000 ; move to the Y=20mm position on the bed
G1 Y20 F3000 ; move to the Y=20mm position on the bed
G1 Y-20 F3000 ; move to the Y=20mm position on the bed
G1 Y20 F3000 ; move to the Y=20mm position on the bed
G1 Y-20 F3000 ; move to the Y=20mm position on the bed
G1 Y20 F3000 ; move to the Y=20mm position on the bed
G1 Y-20 F3000 ; move to the Y=20mm position on the bed
G1 Y20 F3000 ; move to the Y=20mm position on the bed
G1 Y-20 F3000 ; move to the Y=20mm position on the bed
G1 Y20 F3000 ; move to the Y=20mm position on the bed
G1 Y-20 F3000 ; move to the Y=20mm position on the bed
G1 Y20 F3000 ; move to the Y=20mm position on the bed
G1 Y-20 F3000 ; move to the Y=20mm position on the bed
G1 Y20 F3000 ; move to the Y=20mm position on the bed
G1 Y-20 F3000 ; move to the Y=20mm position on the bed
G1 Y20 F3000 ; move to the Y=20mm position on the bed
G1 Y-20 F3000 ; move to the Y=20mm position on the bed
G1 Y20 F3000 ; move to the Y=20mm position on the bed
G1 Y-20 F3000 ; move to the Y=20mm position on the bed
G1 Y20 F3000 ; move to the Y=20mm position on the bed
G1 Y-20 F3000 ; move to the Y=20mm position on the bed
G1 Y20 F3000 ; move to the Y=20mm position on the bed
G1 Y-20 F3000 ; move to the Y=20mm position on the bed
G1 Y20 F3000 ; move to the Y=20mm position on the bed
G1 Y-20 F3000 ; move to the Y=20mm position on the bed
G1 Y20 F3000 ; move to the Y=20mm position on the bed
G1 Y-20 F3000 ; move to the Y=20mm position on the bed
G1 Y20 F3000 ; move to the Y=20mm position on the bed
G1 Y-20 F3000 ; move to the Y=20mm position on the bed
G1 Y20 F3000 ; move to the Y=20mm position on the bed
G1 Y-20 F3000 ; move to the Y=20mm position on the bed
G1 Y20 F3000 ; move to the Y=20mm position on the bed
G1 Y-20 F3000 ; move to the Y=20mm position on the bed
G1 Y20 F3000 ; move to the Y=20mm position on the bed
G1 Y-20 F3000 ; move to the Y=20mm position on the bed
G1 Y20 F3000 ; move to the Y=20mm position on the bed
G1 Y-20 F3000 ; move to the Y=20mm position on the bed
G1 Y20 F3000 ; move to the Y=20mm position on the bed
G1 Y-20 F3000 ; move to the Y=20mm position on the bed
G1 Y20 F3000 ; move to the Y=20mm position on the bed
G1 Y-20 F3000 ; move to the Y=20mm position on the bed
G1 Y20 F3000 ; move to the Y=20mm position on the bed
G1 Y-20 F3000 ; move to the Y=20mm position on the bed
G1 Y20 F3000 ; move to the Y=20mm position on the bed
G1 Y-20 F3000 ; move to the Y=20mm position on the bed
G1 Y20 F3000 ; move to the Y=20mm position on the bed
G1 Y-20 F3000 ; move to the Y=20mm position on the bed
G1 Y20 F3000 ; move to the Y=20mm position on the bed
G1 Y-20 F3000 ; move to the Y=20mm position on the bed
G1 Y20 F3000 ; move to the Y=20mm position on the bed
G1 Y-20 F3000 ; move to the Y=20mm position on the bed
G1 Y20 F3000 ; move to the Y=20mm position on the bed
G1 Y-20 F3000 ; move to the Y=20mm position on the bed
G1 Y20 F3000 ; move to the Y=20mm position on the bed
G1 Y-20 F3000 ; move to the Y=20mm position on the bed
G1 Y20 F3000 ; move to the Y=20mm position on the bed
G1 Y-20 F3000 ; move to the Y=20mm position on the bed
G1 Y20 F3000 ; move to the Y=20mm position on the bed
G1 Y-20 F3000 ; move to the Y=20mm position on the bed
G1 Y20 F3000 ; move to the Y=20mm position on the bed
G1 Y-20 F3000 ; move to the Y=20mm position on the bed
G1 Y20 F3000 ; move to the Y=20mm position on the bed
G1 Y-20 F3000 ; move to the Y=20mm position on the bed
G1 Y20 F3000 ; move to the Y=20mm position on the bed
G1 Y-20 F3000 ; move to the Y=20mm position on the bed
G1 Y20 F3000 ; move to the Y=20mm position on the bed
G1 Y-20 F3000 ; move to the Y=20mm position on the bed
G1 Y20 F3000 ; move to the Y=20mm position on the bed
G1 Y-20 F3000 ; move to the Y=20mm position on the bed
G1 Y20 F3000 ; move to the Y=20mm position on the bed
G1 Y-20 F3000 ; move to the Y=20mm position on the bed
G1 Y20 F3000 ; move to the Y=20mm position on the bed
G1 Y-20 F3000 ; move to the Y=20mm position on the bed
G1 Y20 F3000 ; move to the Y=20mm position on the bed
G1 Y-20 F3000 ; move to the Y=20mm position on the bed
G1 Y20 F3000 ; move to the Y=20mm position on the bed
G1 Y-20 F3000 ; move to the Y=20mm position on the bed
G1 Y20 F3000 ; move to the Y=20mm position on the bed
G1 Y-20 F3000 ; move to the Y=20mm position on the bed
G1 Y20 F3000 ; move to the Y=20mm position on the bed
G1 Y-20 F3000 ; move to the Y=20mm position on the bed
G1 Y20 F3000 ; move to the Y=20mm position on the bed
G1 Y-20 F3000 ; move to the Y=20mm position on the bed
G1 Y20 F3000 ; move to the Y=20mm position on the bed
G1 Y-20 F3000 ; move to the Y=20mm position on the bed
G1 Y20 F3000 ; move to the Y=20mm position on the bed
G1 Y-20 F3000 ; move to the Y=20mm position on the bed
G1 Y20 F3000 ; move to the Y=20mm position on the bed
G1 Y-20 F3000 ; move to the Y=20mm position on the bed
G1 Y20 F3000 ; move to the Y=20mm position on the bed
G1 Y-20 F3000 ; move to the Y=20mm position on the bed
G1 Y20 F3000 ; move to the Y=20mm position on the bed
G1 Y-20 F3000 ; move to the Y=20mm position on the bed
G1 Y20 F3000 ; move to the Y=20mm position on the bed
G1 Y-20 F3000 ; move to the Y=20mm position on the bed
G1 Y20 F3000 ; move to the Y=20mm position on the bed
G1 Y-20 F3000 ; move to the Y=20mm position on the bed
G1 Y20 F3000 ; move to the Y=20mm position on the bed
G1 Y-20 F3000 ; move to the Y=20mm position on the bed
G1 Y20 F3000 ; move to the Y=20mm position on the bed
G1 Y-20 F3000 ; move to the Y=20mm position on the bed
G1 Y20 F3000 ; move to the Y=20mm position on the bed
G1 Y-20 F3000 ; move to the Y=20mm position on the bed
G1 Y20 F3000 ; move to the Y=20mm position on the bed
G1 Y-20 F3000 ; move to the Y=20mm position on the bed
G1 Y20 F3000 ; move to the Y=20mm position on the bed
G1 Y-20 F3000 ; move to the Y=20mm position on the bed
G1 Y20 F3000 ; move to the Y=20mm position on the bed
G1 Y-20 F3000 ; move to the Y=20mm position on the bed
G1 Y20 F3000 ; move to the Y=20mm position on the bed
G1 Y-20 F3000 ; move to the Y=20mm position on the bed
G1 Y20 F3000 ; move to the Y=20mm position on the bed
G1 Y-20 F3000 ; move to the Y=20mm position on the bed
G1 Y20 F3000 ; move to the Y=20mm position on the bed
G1 Y-20 F3000 ; move to the Y=20mm position on the bed
G1 Y20 F3000 ; move to the Y=20mm position on the bed
G1 Y-20 F3000 ; move to the Y=20mm position on the bed
G1 Y20 F3000 ; move to the Y=20mm position on the bed
G1 Y-20 F3000 ; move to the Y=20mm position on the bed
G1 Y20 F3000 ; move to the Y=20mm position on the bed
G1 Y-20 F3000 ; move to the Y=20mm position on the bed
G1 Y20 F3000 ; move to the Y=20mm position on the bed
G1 Y-20 F3000 ; move to the Y=20mm position on the bed
G1 Y20 F3000 ; move to the Y=20mm position on the bed
G1 Y-20 F3000 ; move to the Y=20mm position on the bed
G1 Y20 F3000 ; move to the Y=20mm position on the bed
G1 Y-20 F3000 ; move to the Y=20mm position on the bed
G1 Y20 F3000 ; move to the Y=20mm position on the bed
G1 Y-20 F3000 ; move to the Y=20mm position on the bed
G1 Y20 F3000 ; move to the Y=20mm position on the bed
G1 Y-20 F3000 ; move to the Y=20mm position on the bed
G1 Y20 F3000 ; move to the Y=20mm position on the bed
G1 Y-20 F3000 ; move to the Y=20mm position on the bed
G1 Y20 F3000 ; move to the Y=20mm position on the bed
G1 Y-20 F3000 ; move to the Y=20mm position on the bed
G1 Y20 F3000 ; move to the Y=20mm position on the bed
G1 Y-20 F3000 ; move to the Y=20mm position on the bed
G1 Y20 F3000 ; move to the Y=20mm position on the bed
G1 Y-20 F3000 ; move to the Y=20mm position on the bed
G1 Y20 F3000 ; move to the Y=20mm position on the bed
G1 Y-20 F3000 ; move to the Y=20mm position on the bed
G1 Y20 F3000 ; move to the Y=20mm position on the bed
G1 Y-20 F3000 ; move to the Y=20mm position on the bed
G1 Y20 F3000 ; move to the Y=20mm position on the bed
G1 Y-20 F3000 ; move to the Y=20mm position on the bed
G1 Y20 F3000 ; move to the Y=20mm position on the bed
G1 Y-20 F3000 ; move to the Y=20mm position on the bed
G1 Y20 F3000 ; move to the Y=20mm position on the bed
G1 Y-20 F3000 ; move to the Y=20mm position on the bed
G1 Y20 F3000 ; move to the Y=20mm position on the bed
G1 Y-20 F3000 ; move to the Y=20mm position on the bed
G1 Y20 F3000 ; move to the Y=20mm position on the bed
G1 Y-20 F3000 ; move to the Y=20mm position on the bed
G1 Y20 F3000 ; move to the Y=20mm position on the bed
G1 Y-20 F3000 ; move to the Y=20mm position on the bed
G1 Y20 F3000 ; move to the Y=20mm position on the bed
G1 Y-20 F3000 ; move to the Y=20mm position on the bed
G1 Y20 F3000 ; move to the Y=20mm position on the bed
G1 Y-20 F3000 ; move to the Y=20mm position on the bed
G1 Y20 F3000 ; move to the Y=20mm position on the bed
G1 Y-20 F3000 ; move to the Y=20mm position on the bed
G1 Y20 F3000 ; move to the Y=20mm position on the bed
G1 Y-20 F3000 ; move to the Y=20mm position on the bed
G1 Y20 F3000 ; move to the Y=20mm position on the bed
G1 Y-20 F3000 ; move to the Y=20mm position on the bed
G1 Y20 F3000 ; move to the Y=20mm position on the bed
G1 Y-20 F3000 ; move to the Y=20mm position on the bed
G1 Y20 F3000 ; move to the Y=20mm position on the bed
G1 Y-20 F3000 ; move to the Y=20mm position on the bed
G1 Y20 F3000 ; move to the Y=20mm position on the bed
G1 Y-20 F3000 ; move to the Y=20mm position on the bed
G1 Y20 F3000 ; move to the Y=20mm position on the bed
G1 Y-20 F3000 ; move to the Y=20mm position on the bed
G1 Y20 F3000 ; move to the Y=20mm position on the bed
G1 Y-20 F3000 ; move to the Y=20mm position on the bed
G1 Y20 F3000 ; move to the Y=20mm position on the bed
G1 Y-20 F3000 ; move to the Y=20mm position on the bed
G1 Y20 F3000 ; move to the Y=20mm position on the bed
G1 Y-20 F3000 ; move to the Y=20mm position on the bed
G1 Y20 F3000 ; move to the Y=20mm position on the bed
G1 Y-20 F3000 ; move to the Y=20mm position on the bed
G1 Y20 F3000 ; move to the Y=20mm position on the bed
G1 Y-20 F3000 ; move to the Y=20mm position on the bed
G1 Y20 F3000 ; move to the Y=20mm position on the bed
G1 Y-20 F3000 ; move to the Y=20mm position on the bed
G1 Y20 F3000 ; move to the Y=20mm position on the bed
G1 Y-20 F3000 ; move to the Y=20mm position on the bed
G1 Y20 F3000 ; move to the Y=20mm position on the bed
G1 Y-20 F3000 ; move to the Y=20mm position on the bed
G1 Y20 F3000 ; move to the Y=20mm position on the bed
G1 Y-20 F3000 ; move to the Y=20mm position on the bed
G1 Y20 F3000 ; move to the Y=20mm position on the bed
G1 Y-20 F3000 ; move to the Y=20mm position on the bed
G1 Y20 F3000 ; move to the Y=20mm position on the bed
G1 Y-20 F3000 ; move to the Y=20mm position on the bed
G1 Y20 F3000 ; move to the Y=20mm position on the bed
G1 Y-20 F3000 ; move to the Y=20mm position on the bed
G1 Y20 F3000 ; move to the Y=20mm position on the bed
G1 Y-20 F3000 ; move to the Y=20mm position on the bed
G1 Y20 F3000 ; move to the Y=20mm position on the bed
G1 Y-20 F3000 ; move to the Y=20mm position on the bed
G1 Y20 F3000 ; move to the Y=20mm position on the bed
G1 Y-20 F3000 ; move to the Y=20mm position on the bed
G1 Y20 F3000 ; move to the Y=20mm position on the bed
G1 Y-20 F3000 ; move to the Y=20mm position on the bed
G1 Y20 F3000 ; move to the Y=20mm position on the bed
G1 Y-20 F3000 ; move to the Y=20mm position on the bed
G1 Y20 F3000 ; move to the Y=20mm position on the bed
G1 Y-20 F3000 ; move to the Y=20mm position on the bed
G1 Y20 F3000 ; move to the Y=20mm position on the bed
G1 Y-20 F3000 ; move to the Y=20mm position on the bed
G1 Y20 F3000 ; move to the Y=20mm position on the bed
G1 Y-20 F3000 ; move to the Y=20mm position on the bed
G1 Y20 F3000 ; move to the Y=20mm position on the bed
G1 Y-20 F3000 ; move to the Y=20mm position on the bed
G1 Y20 F3000 ; move to the Y=20mm position on the bed
G1 Y-20 F3000 ; move to the Y=20mm position on the bed
G1 Y20 F3000 ; move to the Y=20mm position on the bed
G1 Y-20 F3000 ; move to the Y=20mm position on the bed
G1 Y20 F3000 ; move to the Y=20mm position on the bed
G1 Y-20 F3000 ; move to the Y=20mm position on the bed
G1 Y20 F3000 ; move to the Y=20mm position on the bed
G1 Y-20 F3000 ; move to the Y=20mm position on the bed
G1 Y20 F3000 ; move to the Y=20mm position on the bed
G1 Y-20 F3000 ; move to the Y=20mm position on the bed
G1 Y20 F3000 ; move to the Y=20mm position on the bed
G1 Y-20 F3000 ; move to the Y=20mm position on the bed
G1 Y20 F3000 ; move to the Y=20mm position on the bed
G1 Y-20 F3000 ; move to the Y=20mm position on the bed
G1 Y20 F3000 ; move to the Y=20mm position on the bed
G1 Y-20 F3000 ; move to the Y=20mm position on the bed
G1 Y20 F3000 ; move to the Y=20mm position on the bed
G1 Y-20 F3000 ; move to the Y=20mm position on the bed
G1 Y20 F3000 ; move to the Y=20mm position on the bed
G1 Y-20 F3000 ; move to the Y=20mm position on the bed
G1 Y20 F3000 ; move to the Y=20mm position on the bed
G1 Y-20 F3000 ; move to the Y=20mm position on the bed
G1 Y20 F3000 ; move to the Y=20mm position on the bed
G1 Y-20 F3000 ; move to the Y=20mm position on the bed
G1 Y20 F3000 ; move to the Y=20mm position on the bed
G1 Y-20 F3000 ; move to the Y=20mm position on the bed
G1 Y20 F3000 ; move to the Y=20mm position on the bed
G1 Y-20 F3000 ; move to the Y=20mm position on the bed
G1 Y20 F3000 ; move to the Y=20mm position on the bed
G1 Y-20 F3000 ; move to the Y=20mm position on the bed
G1 Y20 F3000 ; move to the Y=20mm position on the bed
G1 Y-20 F3000 ; move to the Y=20mm position on the bed
G1 Y20 F3000 ; move to the Y=20mm position on the bed
G1 Y-20 F3000 ; move to the Y=20mm position on the bed
G1 Y20 F3000 ; move to the Y=20mm position on the bed
G1 Y-20 F3000 ; move to the Y=20mm position on the bed
G1 Y20 F3000 ; move to the Y=20mm position on the bed
G1 Y-20 F3000 ; move to the Y=20mm position on the bed
G1 Y20 F3000 ; move to the Y=20mm position on the bed
G1 Y-20 F3000 ; move to the Y=20mm position on the bed
G1 Y20 F3000 ; move to the Y=20mm position on the bed
G1 Y-20 F3000 ; move to the Y=20mm position on the bed
G1 Y20 F3000 ; move to the Y=20mm position on the bed
G1 Y-20 F3000 ; move to the Y=20mm position on the bed
G1 Y20 F3000 ; move to the Y=20mm position on the bed
G1 Y-20 F3000 ; move to the Y=20mm position on the bed
G1 Y20 F3000 ; move to the Y=20mm position on the bed
G1 Y-20 F3000 ; move to the Y=20mm position on the bed
G1 Y20 F3000 ; move to the Y=20mm position on the bed
G1 Y-20 F3000 ; move to the Y=20mm position on the bed
G1 Y20 F3000 ; move to the Y=20mm position on the bed
G1 Y-20 F3000 ; move to the Y=20mm position on the bed
G1 Y20 F3000 ; move to the Y=20mm position on the bed
G1 Y-20 F3000 ; move to the Y=20mm position on the bed
G1 Y20 F3000 ; move to the Y=20mm position on the bed
G1 Y-20 F3000 ; move to the Y=20mm position on the bed
G1 Y20 F3000 ; move to the Y=20mm position on the bed
G1 Y-20 F3000 ; move to the Y=20mm position on the bed
G1 Y20 F3000 ; move to the Y=20mm position on the bed
G1 Y-20 F3000 ; move to the Y=20mm position on the bed
G1 Y20 F3000 ; move to the Y=20mm position on the bed
G1 Y-20 F3000 ; move to the Y=20mm position on the bed
G1 Y20 F3000 ; move to the Y=20mm position on the bed
G1 Y-20 F3000 ; move to the Y=20mm position on the bed
G1 Y20 F3000 ; move to the Y=20mm position on the bed
G1 Y-20 F3000 ; move to the Y=20mm position on the bed
G1 Y20 F3000 ; move to the Y=20mm position on the bed
G1 Y-20 F3000 ; move to the Y=20mm position on the bed
G1 Y20 F3000 ; move to the Y=20mm position on the bed
G1 Y-20 F3000 ; move to the Y=20mm position on the bed
G1 Y20 F3000 ; move to the Y=20mm position on the bed
G1 Y-20 F3000 ; move to the Y=20mm position on the bed
G1 Y20 F3000 ; move to the Y=20mm position on the bed
G1 Y-20 F3000 ; move to the Y=20mm position on the bed
G1 Y20 F3000 ; move to the Y=20mm position on the bed
G1 Y-20 F3000 ; move to the Y=20mm position on the bed
G1 Y20 F3000 ; move to the Y=20mm position on the bed
G1 Y-20 F3000 ; move to the Y=20mm position on the bed
G1 Y20 F3000 ; move to the Y=20mm position on the bed
G1 Y-20 F3000 ; move to the Y=20mm position on the bed
G1 Y20 F3000 ; move to the Y=20mm position on the bed
G1 Y-20 F3000 ; move to the Y=20mm position on the bed
G1 Y20 F3000 ; move to the Y=20mm position on the bed
G1 Y-20 F3000 ; move to the Y=20mm position on the bed
G1 Y20 F3000 ; move to the Y=20mm position on the bed
G1 Y-20 F3000 ; move to the Y=20mm position on the bed
G1 Y20 F3000 ; move to the Y=20mm position on the bed
G1 Y-20 F3000 ; move to the Y=20mm position on the bed
G1 Y20 F3000 ; move to the Y=20mm position on the bed
G1 Y-20 F3000 ; move to the Y=20mm position on the bed
G1 Y20 F3000 ; move to the Y=20mm position on the bed
G1 Y-20 F3000 ; move to the Y=20mm position on the bed
G1 Y20 F3000 ; move to the Y=20mm position on the bed
G1 Y-20 F3000 ; move to the Y=20mm position on the bed
G1 Y20 F3000 ; move to the Y=20mm position on the bed
G1 Y-20 F3000 ; move to the Y=20mm position on the bed
G1 Y20 F3000 ; move to the Y=20mm position on the bed
G1 Y-20 F3000 ; move to the Y=20mm position on the bed
G1 Y20 F3000 ; move to the Y=20mm position on the bed
G1 Y-20 F3000 ; move to the Y=20mm position on the bed
G1 Y20 F3000 ; move to the Y=20mm position on the bed
G1 Y-20 F3000 ; move to the Y=20mm position on the bed
G1 Y20 F3000 ; move to the Y=20mm position on the bed
G1 Y-20 F3000 ; move to the Y=20mm position on the bed
G1 Y20 F3000 ; move to the Y=20mm position on the bed
G1 Y-20 F3000 ; move to the Y=20mm position on the bed
G1 Y20 F3000 ; move to the Y=20mm position on the bed
G1 Y-20 F3000 ; move to the Y=20mm position on the bed
G1 Y20 F3000 ; move to the Y=20mm position on the bed
G1 Y-20 F3000 ; move to the Y=20mm position on the bed
G1 Y20 F3000 ; move to the Y=20mm position on the bed
G1 Y-20 F3000 ; move to the Y=20mm position on the bed
G1 Y20 F3000 ; move to the Y=20mm position on the bed
G1 Y-20 F3000 ; move to the Y=20mm position on the bed
G1 Y20 F3000 ; move to the Y=20mm position on the bed
G1 Y-20 F3000 ; move to the Y=20mm position on the bed
G1 Y20 F3000 ; move to the Y=20mm position on the bed
G1 Y-20 F3000 ; move to the Y=20mm position on the bed
G1 Y20 F3000 ; move to the Y=20mm position on the bed
G1 Y-20 F3000 ; move to the Y=20mm position on the bed
G1 Y20 F3000 ; move to the Y=20mm position on the bed
G1 Y-20 F3000 ; move to the Y=20mm position on the bed
G1 Y20 F3000 ; move to the Y=20mm position on the bed
G1 Y-20 F3000 ; move to the Y=20mm position on the bed
G1 Y20 F3000 ; move to the Y=20mm position on the bed
G1 Y-20 F3000 ; move to the Y=20mm position on the bed
G1 Y20 F3000 ; move to the Y=20mm position on the bed
G1 Y-20 F3000 ; move to the Y=20mm position on the bed
G1 Y20 F3000 ; move to the Y=20mm position on the bed
G1 Y-20 F3000 ; move to the Y=20mm position on the bed
G1 Y20 F3000 ; move to the Y=20mm position on the bed
G1 Y-20 F3000 ; move to the Y=20mm position on the bed
G1 Y20 F3000 ; move to the Y=20mm position on the bed
G1 Y-20 F3000 ; move to the Y=20mm position on the bed
G1 Y20 F3000 ; move to the Y=20mm position on the bed
G1 Y-20 F3000 ; move to the Y=20mm position on the bed
G1 Y20 F3000 ; move to the Y=20mm position on the bed
G1 Y-20 F3000 ; move to the Y=20mm position on the bed
G1 Y20 F3000 ; move to the Y=20mm position on the bed
G1 Y-20 F3000 ; move to the Y=20mm position on the bed
G1 Y20 F3000 ; move to the Y=20mm position on the bed
G1 Y-20 F3000 ; move to the Y=20mm position on the bed
G1 Y20 F3000 ; move to the Y=20mm position on the bed
G1 Y-20 F3000 ; move to the Y=20mm position on the bed
G1 Y20 F3000 ; move to the Y=20mm position on the bed
G1 Y-20 F3000 ; move to the Y=20mm position on the bed
G1 Y20 F3000 ; move to the Y=20mm position on the bed
G1 Y-20 F3000 ; move to the Y=20mm position on the bed
G1 Y20 F3000 ; move to the Y=20mm position on the bed
G1 Y-20 F3000 ; move to the Y=20mm position on the bed
G1 Y20 F3000 ; move to the Y=20mm position on the bed
G1 Y-20 F3000 ; move to the Y=20mm position on the bed
G1 Y20 F3000 ; move to the Y=20mm position on the bed
G1 Y-20 F3000 ; move to the Y=20mm position on the bed
G1 Y20 F3000 ; move to the Y=20mm position on the bed
G1 Y-20 F3000 ; move to the Y=20mm position on the bed
G1 Y20 F3000 ; move to the Y=20mm position on the bed
G1 Y-20 F3000 ; move to the Y=20mm position on the bed
G1 Y20 F3000 ; move to the Y=20mm position on the bed
G1 Y-20 F3000 ; move to the Y=20mm position on the bed
G1 Y20 F3000 ; move to the Y=20mm position on the bed
G1 Y-20 F3000 ; move to the Y=20mm position on the bed
G1 Y20 F3000 ; move to the Y=20mm position on the bed
G1 Y-20 F3000 ; move to the Y=20mm position on the bed
G1 Y20 F3000 ; move to the Y=20mm position on the bed
G1 Y-20 F3000 ; move to the Y=20mm position on the bed
G1 Y20 F3000 ; move to the Y=20mm position on the bed
G1 Y-20 F3000 ; move to the Y=20mm position on the bed
G1 Y20 F3000 ; move to the Y=20mm position on the bed
G1 Y-20 F3000 ; move to the Y=20mm position on the bed
G1 Y20 F3000 ; move to the Y=20mm position on the bed
G1 Y-20 F3000 ; move to the Y=20mm position on the bed
G1 Y20 F3000 ; move to the Y=20mm position on the bed
G1 Y-20 F3000 ; move to the Y=20mm position on the bed
G1 Y20 F3000 ; move to the Y=20mm position on the bed
G1 Y-20 F3000 ; move to the Y=20mm position on the bed
G1 Y20 F3000 ; move to the Y=20mm position on the bed
G1 Y-20 F3000 ; move to the Y=20mm position on the bed
G1 Y20 F3000 ; move to the Y=20mm position on the bed
G1 Y-20 F3000 ; move to the Y=20mm position on the bed
G1 Y20 F3000 ; move to the Y=20mm position on the bed
G1 Y-20 F3000 ; move to the Y=20mm position on the bed
G1 Y20 F3000 ; move to the Y=20mm position on the bed
G1 Y-20 F3000 ; move to the Y=20mm position on the bed
G1 Y20 F3000 ; move to the Y=20mm position on the bed
G1 Y-20 F3000 ; move to the Y=20mm position on the bed
G1 Y20 F3000 ; move to the Y=20mm position on the bed
G1 Y-20 F3000 ; move to the Y=20mm position on the bed
G1 Y20 F3000 ; move to the Y=20mm position on the bed
G1 Y-20 F3000 ; move to the Y=20mm position on the bed
G1 Y20 F3000 ; move to the Y=20mm position on the bed
G1 Y-20 F3000 ; move to the Y=20mm position on the bed
G1 Y20 F3000 ; move to the Y=20mm position on the bed
G1 Y-20 F3000 ; move to the Y=20mm position on the bed
G1 Y20 F3000 ; move to the Y=20mm position on the bed
G1 Y-20 F3000 ; move to the Y=20mm position on the bed
G1 Y20 F3000 ; move to the Y=20mm position on the bed
G1 Y-20 F3000 ; move to the Y=20mm position on the bed
G1 Y20 F3000 ; move to the Y=20mm position on the bed
G1 Y-20 F3000 ; move to the Y=20mm position on the bed
G1 Y20 F3000 ; move to the Y=20mm position on the bed
G1 Y-20 F3000 ; move to the Y=20mm position on the bed
G1 Y20 F3000 ; move to the Y=20mm position on the bed
G1 Y-20 F3000 ; move to the Y=20mm position on the bed
G1 Y20 F3000 ; move to the Y=20mm position on the bed
G1 Y-20 F3000 ; move to the Y=20mm position on the bed
G1 Y20 F3000 ; move to the Y=20mm position on the bed
G1 Y-20 F3000 ; move to the Y=20mm position on the bed
G1 Y20 F3000 ; move to the Y=20mm position on the bed
G1 Y-20 F3000 ; move to the Y=20mm position on the bed
G1 Y20 F3000 ; move to the Y=20mm position on the bed
G1 Y-20 F3000 ; move to the Y=20mm position on the bed
G1 Y20 F3000 ; move to the Y=20mm position on the bed
G1 Y-20 F3000 ; move to the Y=20mm position on the bed
G1 Y20 F3000 ; move to the Y=20mm position on the bed
G1 Y-20 F3000 ; move to the Y=20mm position on the bed
G1 Y20 F3000 ; move to the Y=20mm position on the bed
G1 Y-20 F3000 ; move to the Y=20mm position on the bed
G1 Y20 F3000 ; move to the Y=20mm position on the bed
G1 Y-20 F3000 ; move to the Y=20mm position on the bed
G1 Y20 F3000 ; move to the Y=20mm position on the bed
G1 Y-20 F3000 ; move to the Y=20mm position on the bed
G1 Y20 F3000 ; move to the Y=20mm position on the bed
G1 Y-20 F3000 ; move to the Y=20mm position on the bed
G1 Y20 F3000 ; move to the Y=20mm position on the bed
G1 Y-20 F3000 ; move to the Y=20mm position on the bed
G1 Y20 F3000 ; move to the Y=20mm position on the bed
G1 Y-20 F3000 ; move to the Y=20mm position on the bed
G1 Y20 F3000 ; move to the Y=20mm position on the bed
G1 Y-20 F3000 ; move to the Y=20mm position on the bed
G1 Y20 F3000 ; move to the Y=20mm position on the bed
G1 Y-20 F3000 ; move to the Y=20mm position on the bed
G1 Y20 F3000 ; move to the Y=20mm position on the bed
G1 Y-20 F3000 ; move to the Y=20mm position on the bed
G1 Y20 F3000 ; move to the Y=20mm position on the bed
G1 Y-20 F3000 ; move to the Y=20mm position on the bed
G1 Y20 F3000 ; move to the Y=20mm position on the bed
G1 Y-20 F3000 ; move to the Y=20mm position on the bed
G1 Y20 F3000 ; move to the Y=20mm position on the bed
G1 Y-20 F3000 ; move to the Y=20mm position on the bed
G1 Y20 F3000 ; move to the Y=20mm position on the bed
G1 Y-20 F3000 ; move to the Y=20mm position on the bed
G1 Y20 F3000 ; move to the Y=20mm position on the bed
G1 Y-20 F3000 ; move to the Y=20mm position on the bed
G1 Y20 F3000 ; move to the Y=20mm position on the bed
G1 Y-20 F3000 ; move to the Y=20mm position on the bed
G1 Y20 F3000 ; move to the Y=20mm position on the bed
G1 Y-20 F3000 ; move to the Y=20mm position on the bed
G1 Y20 F3000 ; move to the Y=20mm position on the bed
G1 Y-20 F3000 ; move to the Y=20mm position on the bed
G1 Y20 F3000 ; move to the Y=20mm position on the bed
G1 Y-20 F3000 ; move to the Y=20mm position on the bed
G1 Y20 F3000 ; move to the Y=20mm position on the bed
G1 Y-20 F3000 ; move to the Y=20mm position on the bed
G1 Y20 F3000 ; move to the Y=20mm position on the bed
G1 Y-20 F3000 ; move to the Y=20mm position on the bed
G1 Y20 F3000 ; move to the Y=20mm position on the bed
G1 Y-20 F3000 ; move to the Y=20mm position on the bed
G1 Y20 F3000 ; move to the Y=20mm position on the bed
G1 Y-20 F3000 ; move to the Y=20mm position on the bed
G1 Y20 F3000 ; move to the Y=20mm position on the bed
G1 Y-20 F3000 ; move to the Y=20mm position on the bed
G1 Y20 F3000 ; move to the Y=20mm position on the bed
G1 Y-20 F3000 ; move to the Y=20mm position on the bed
G1 Y20 F3000 ; move to the Y=20mm position on the bed
G1 Y-20 F3000 ; move to the Y=20mm position on the bed
G1 Y20 F3000 ; move to the Y=20mm position on the bed
G1 Y-20 F3000 ; move to the Y=20mm position on the bed
