; 3D printing pcb etching machine
G28 X Y ; home position
M106 S0 ; turn off the fan completely
M140 S60 ; start heating the bed to 60 degrees Celsius
G91 ; use relative positioning for the XYZ axes

G1 Y100 F1500 ; move to the Y=100mm position on the bed
G1 Y-20 F1500 ; move to the Y=20mm position on the bed
G1 Y20 F1500 ; move to the Y=20mm position on the bed
G1 Y-20 F1500 ; move to the Y=20mm position on the bed
G1 Y20 F1500 ; move to the Y=20mm position on the bed
G1 Y-20 F1500 ; move to the Y=20mm position on the bed
G1 Y20 F1500 ; move to the Y=20mm position on the bed
G1 Y-20 F1500 ; move to the Y=20mm position on the bed
G1 Y20 F1500 ; move to the Y=20mm position on the bed
G1 Y-20 F1500 ; move to the Y=20mm position on the bed
G1 Y20 F1500 ; move to the Y=20mm position on the bed
G1 Y-20 F1500 ; move to the Y=20mm position on the bed
G1 Y20 F1500 ; move to the Y=20mm position on the bed
G1 Y-20 F1500 ; move to the Y=20mm position on the bed
G1 Y20 F1500 ; move to the Y=20mm position on the bed
G1 Y-20 F1500 ; move to the Y=20mm position on the bed
G1 Y20 F1500 ; move to the Y=20mm position on the bed
G1 Y-20 F1500 ; move to the Y=20mm position on the bed
G1 Y20 F1500 ; move to the Y=20mm position on the bed
G1 Y-20 F1500 ; move to the Y=20mm position on the bed
G1 Y20 F1500 ; move to the Y=20mm position on the bed
G1 Y-20 F1500 ; move to the Y=20mm position on the bed
G1 Y20 F1500 ; move to the Y=20mm position on the bed
G1 Y-20 F1500 ; move to the Y=20mm position on the bed
G1 Y20 F1500 ; move to the Y=20mm position on the bed
G1 Y-20 F1500 ; move to the Y=20mm position on the bed
G1 Y20 F1500 ; move to the Y=20mm position on the bed
G1 Y-20 F1500 ; move to the Y=20mm position on the bed
G1 Y20 F1500 ; move to the Y=20mm position on the bed
G1 Y-20 F1500 ; move to the Y=20mm position on the bed
G1 Y20 F1500 ; move to the Y=20mm position on the bed
G1 Y-20 F1500 ; move to the Y=20mm position on the bed
G1 Y20 F1500 ; move to the Y=20mm position on the bed
G1 Y-20 F1500 ; move to the Y=20mm position on the bed
G1 Y20 F1500 ; move to the Y=20mm position on the bed
G1 Y-20 F1500 ; move to the Y=20mm position on the bed
G1 Y20 F1500 ; move to the Y=20mm position on the bed
G1 Y-20 F1500 ; move to the Y=20mm position on the bed
G1 Y20 F1500 ; move to the Y=20mm position on the bed
G1 Y-20 F1500 ; move to the Y=20mm position on the bed
G1 Y20 F1500 ; move to the Y=20mm position on the bed
G1 Y-20 F1500 ; move to the Y=20mm position on the bed
G1 Y20 F1500 ; move to the Y=20mm position on the bed
G1 Y-20 F1500 ; move to the Y=20mm position on the bed
G1 Y20 F1500 ; move to the Y=20mm position on the bed
G1 Y-20 F1500 ; move to the Y=20mm position on the bed
G1 Y20 F1500 ; move to the Y=20mm position on the bed
G1 Y-20 F1500 ; move to the Y=20mm position on the bed
G1 Y20 F1500 ; move to the Y=20mm position on the bed
G1 Y-20 F1500 ; move to the Y=20mm position on the bed
G1 Y20 F1500 ; move to the Y=20mm position on the bed
G1 Y-20 F1500 ; move to the Y=20mm position on the bed
G1 Y20 F1500 ; move to the Y=20mm position on the bed
G1 Y-20 F1500 ; move to the Y=20mm position on the bed
G1 Y20 F1500 ; move to the Y=20mm position on the bed
G1 Y-20 F1500 ; move to the Y=20mm position on the bed
G1 Y20 F1500 ; move to the Y=20mm position on the bed
G1 Y-20 F1500 ; move to the Y=20mm position on the bed
G1 Y20 F1500 ; move to the Y=20mm position on the bed
G1 Y-20 F1500 ; move to the Y=20mm position on the bed
G1 Y20 F1500 ; move to the Y=20mm position on the bed
G1 Y-20 F1500 ; move to the Y=20mm position on the bed
G1 Y20 F1500 ; move to the Y=20mm position on the bed
G1 Y-20 F1500 ; move to the Y=20mm position on the bed
G1 Y20 F1500 ; move to the Y=20mm position on the bed
G1 Y-20 F1500 ; move to the Y=20mm position on the bed
G1 Y20 F1500 ; move to the Y=20mm position on the bed
G1 Y-20 F1500 ; move to the Y=20mm position on the bed
G1 Y20 F1500 ; move to the Y=20mm position on the bed
G1 Y-20 F1500 ; move to the Y=20mm position on the bed
G1 Y20 F1500 ; move to the Y=20mm position on the bed
G1 Y-20 F1500 ; move to the Y=20mm position on the bed
G1 Y20 F1500 ; move to the Y=20mm position on the bed
G1 Y-20 F1500 ; move to the Y=20mm position on the bed
G1 Y20 F1500 ; move to the Y=20mm position on the bed
G1 Y-20 F1500 ; move to the Y=20mm position on the bed
G1 Y20 F1500 ; move to the Y=20mm position on the bed
G1 Y-20 F1500 ; move to the Y=20mm position on the bed
G1 Y20 F1500 ; move to the Y=20mm position on the bed
G1 Y-20 F1500 ; move to the Y=20mm position on the bed
G1 Y20 F1500 ; move to the Y=20mm position on the bed
G1 Y-20 F1500 ; move to the Y=20mm position on the bed
G1 Y20 F1500 ; move to the Y=20mm position on the bed
G1 Y-20 F1500 ; move to the Y=20mm position on the bed
G1 Y20 F1500 ; move to the Y=20mm position on the bed
G1 Y-20 F1500 ; move to the Y=20mm position on the bed
G1 Y20 F1500 ; move to the Y=20mm position on the bed
G1 Y-20 F1500 ; move to the Y=20mm position on the bed
G1 Y20 F1500 ; move to the Y=20mm position on the bed
G1 Y-20 F1500 ; move to the Y=20mm position on the bed
G1 Y20 F1500 ; move to the Y=20mm position on the bed
G1 Y-20 F1500 ; move to the Y=20mm position on the bed
G1 Y20 F1500 ; move to the Y=20mm position on the bed
G1 Y-20 F1500 ; move to the Y=20mm position on the bed
G1 Y20 F1500 ; move to the Y=20mm position on the bed
G1 Y-20 F1500 ; move to the Y=20mm position on the bed
G1 Y20 F1500 ; move to the Y=20mm position on the bed
G1 Y-20 F1500 ; move to the Y=20mm position on the bed
G1 Y20 F1500 ; move to the Y=20mm position on the bed
G1 Y-20 F1500 ; move to the Y=20mm position on the bed
G1 Y20 F1500 ; move to the Y=20mm position on the bed
G1 Y-20 F1500 ; move to the Y=20mm position on the bed
G1 Y20 F1500 ; move to the Y=20mm position on the bed
G1 Y-20 F1500 ; move to the Y=20mm position on the bed
G1 Y20 F1500 ; move to the Y=20mm position on the bed
G1 Y-20 F1500 ; move to the Y=20mm position on the bed
G1 Y20 F1500 ; move to the Y=20mm position on the bed
G1 Y-20 F1500 ; move to the Y=20mm position on the bed
G1 Y20 F1500 ; move to the Y=20mm position on the bed
G1 Y-20 F1500 ; move to the Y=20mm position on the bed
G1 Y20 F1500 ; move to the Y=20mm position on the bed
G1 Y-20 F1500 ; move to the Y=20mm position on the bed
G1 Y20 F1500 ; move to the Y=20mm position on the bed
G1 Y-20 F1500 ; move to the Y=20mm position on the bed
G1 Y20 F1500 ; move to the Y=20mm position on the bed
G1 Y-20 F1500 ; move to the Y=20mm position on the bed
G1 Y20 F1500 ; move to the Y=20mm position on the bed
G1 Y-20 F1500 ; move to the Y=20mm position on the bed
G1 Y20 F1500 ; move to the Y=20mm position on the bed
G1 Y-20 F1500 ; move to the Y=20mm position on the bed
G1 Y20 F1500 ; move to the Y=20mm position on the bed
G1 Y-20 F1500 ; move to the Y=20mm position on the bed
G1 Y20 F1500 ; move to the Y=20mm position on the bed
G1 Y-20 F1500 ; move to the Y=20mm position on the bed
G1 Y20 F1500 ; move to the Y=20mm position on the bed
G1 Y-20 F1500 ; move to the Y=20mm position on the bed
G1 Y20 F1500 ; move to the Y=20mm position on the bed
G1 Y-20 F1500 ; move to the Y=20mm position on the bed
G1 Y20 F1500 ; move to the Y=20mm position on the bed
G1 Y-20 F1500 ; move to the Y=20mm position on the bed
G1 Y20 F1500 ; move to the Y=20mm position on the bed
G1 Y-20 F1500 ; move to the Y=20mm position on the bed
G1 Y20 F1500 ; move to the Y=20mm position on the bed
G1 Y-20 F1500 ; move to the Y=20mm position on the bed
G1 Y20 F1500 ; move to the Y=20mm position on the bed
G1 Y-20 F1500 ; move to the Y=20mm position on the bed
G1 Y20 F1500 ; move to the Y=20mm position on the bed
G1 Y-20 F1500 ; move to the Y=20mm position on the bed
G1 Y20 F1500 ; move to the Y=20mm position on the bed
G1 Y-20 F1500 ; move to the Y=20mm position on the bed
G1 Y20 F1500 ; move to the Y=20mm position on the bed
G1 Y-20 F1500 ; move to the Y=20mm position on the bed
G1 Y20 F1500 ; move to the Y=20mm position on the bed
G1 Y-20 F1500 ; move to the Y=20mm position on the bed
G1 Y20 F1500 ; move to the Y=20mm position on the bed
G1 Y-20 F1500 ; move to the Y=20mm position on the bed
G1 Y20 F1500 ; move to the Y=20mm position on the bed
G1 Y-20 F1500 ; move to the Y=20mm position on the bed
G1 Y20 F1500 ; move to the Y=20mm position on the bed
G1 Y-20 F1500 ; move to the Y=20mm position on the bed
G1 Y20 F1500 ; move to the Y=20mm position on the bed
G1 Y-20 F1500 ; move to the Y=20mm position on the bed
G1 Y20 F1500 ; move to the Y=20mm position on the bed
G1 Y-20 F1500 ; move to the Y=20mm position on the bed
G1 Y20 F1500 ; move to the Y=20mm position on the bed
G1 Y-20 F1500 ; move to the Y=20mm position on the bed
G1 Y20 F1500 ; move to the Y=20mm position on the bed
G1 Y-20 F1500 ; move to the Y=20mm position on the bed
G1 Y20 F1500 ; move to the Y=20mm position on the bed
G1 Y-20 F1500 ; move to the Y=20mm position on the bed
G1 Y20 F1500 ; move to the Y=20mm position on the bed
G1 Y-20 F1500 ; move to the Y=20mm position on the bed
G1 Y20 F1500 ; move to the Y=20mm position on the bed
G1 Y-20 F1500 ; move to the Y=20mm position on the bed
G1 Y20 F1500 ; move to the Y=20mm position on the bed
G1 Y-20 F1500 ; move to the Y=20mm position on the bed
G1 Y20 F1500 ; move to the Y=20mm position on the bed
G1 Y-20 F1500 ; move to the Y=20mm position on the bed
G1 Y20 F1500 ; move to the Y=20mm position on the bed
G1 Y-20 F1500 ; move to the Y=20mm position on the bed
G1 Y20 F1500 ; move to the Y=20mm position on the bed
G1 Y-20 F1500 ; move to the Y=20mm position on the bed
G1 Y20 F1500 ; move to the Y=20mm position on the bed
G1 Y-20 F1500 ; move to the Y=20mm position on the bed
G1 Y20 F1500 ; move to the Y=20mm position on the bed
G1 Y-20 F1500 ; move to the Y=20mm position on the bed
G1 Y20 F1500 ; move to the Y=20mm position on the bed
G1 Y-20 F1500 ; move to the Y=20mm position on the bed
G1 Y20 F1500 ; move to the Y=20mm position on the bed
G1 Y-20 F1500 ; move to the Y=20mm position on the bed
G1 Y20 F1500 ; move to the Y=20mm position on the bed
G1 Y-20 F1500 ; move to the Y=20mm position on the bed
G1 Y20 F1500 ; move to the Y=20mm position on the bed
G1 Y-20 F1500 ; move to the Y=20mm position on the bed
G1 Y20 F1500 ; move to the Y=20mm position on the bed
G1 Y-20 F1500 ; move to the Y=20mm position on the bed
G1 Y20 F1500 ; move to the Y=20mm position on the bed
G1 Y-20 F1500 ; move to the Y=20mm position on the bed
G1 Y20 F1500 ; move to the Y=20mm position on the bed
G1 Y-20 F1500 ; move to the Y=20mm position on the bed
G1 Y20 F1500 ; move to the Y=20mm position on the bed
G1 Y-20 F1500 ; move to the Y=20mm position on the bed
G1 Y20 F1500 ; move to the Y=20mm position on the bed
G1 Y-20 F1500 ; move to the Y=20mm position on the bed
G1 Y20 F1500 ; move to the Y=20mm position on the bed
G1 Y-20 F1500 ; move to the Y=20mm position on the bed
G1 Y20 F1500 ; move to the Y=20mm position on the bed
G1 Y-20 F1500 ; move to the Y=20mm position on the bed
G1 Y20 F1500 ; move to the Y=20mm position on the bed
G1 Y-20 F1500 ; move to the Y=20mm position on the bed
G1 Y20 F1500 ; move to the Y=20mm position on the bed
G1 Y-20 F1500 ; move to the Y=20mm position on the bed
G1 Y20 F1500 ; move to the Y=20mm position on the bed
G1 Y-20 F1500 ; move to the Y=20mm position on the bed
G1 Y20 F1500 ; move to the Y=20mm position on the bed
G1 Y-20 F1500 ; move to the Y=20mm position on the bed
G1 Y20 F1500 ; move to the Y=20mm position on the bed
G1 Y-20 F1500 ; move to the Y=20mm position on the bed
G1 Y20 F1500 ; move to the Y=20mm position on the bed
G1 Y-20 F1500 ; move to the Y=20mm position on the bed
G1 Y20 F1500 ; move to the Y=20mm position on the bed
G1 Y-20 F1500 ; move to the Y=20mm position on the bed
G1 Y20 F1500 ; move to the Y=20mm position on the bed
G1 Y-20 F1500 ; move to the Y=20mm position on the bed
G1 Y20 F1500 ; move to the Y=20mm position on the bed
G1 Y-20 F1500 ; move to the Y=20mm position on the bed
G1 Y20 F1500 ; move to the Y=20mm position on the bed
G1 Y-20 F1500 ; move to the Y=20mm position on the bed
G1 Y20 F1500 ; move to the Y=20mm position on the bed
G1 Y-20 F1500 ; move to the Y=20mm position on the bed
G1 Y20 F1500 ; move to the Y=20mm position on the bed
G1 Y-20 F1500 ; move to the Y=20mm position on the bed
G1 Y20 F1500 ; move to the Y=20mm position on the bed
G1 Y-20 F1500 ; move to the Y=20mm position on the bed
G1 Y20 F1500 ; move to the Y=20mm position on the bed
G1 Y-20 F1500 ; move to the Y=20mm position on the bed
G1 Y20 F1500 ; move to the Y=20mm position on the bed
G1 Y-20 F1500 ; move to the Y=20mm position on the bed
G1 Y20 F1500 ; move to the Y=20mm position on the bed
G1 Y-20 F1500 ; move to the Y=20mm position on the bed
G1 Y20 F1500 ; move to the Y=20mm position on the bed
G1 Y-20 F1500 ; move to the Y=20mm position on the bed
G1 Y20 F1500 ; move to the Y=20mm position on the bed
G1 Y-20 F1500 ; move to the Y=20mm position on the bed
G1 Y20 F1500 ; move to the Y=20mm position on the bed
G1 Y-20 F1500 ; move to the Y=20mm position on the bed
G1 Y20 F1500 ; move to the Y=20mm position on the bed
G1 Y-20 F1500 ; move to the Y=20mm position on the bed
G1 Y20 F1500 ; move to the Y=20mm position on the bed
G1 Y-20 F1500 ; move to the Y=20mm position on the bed
G1 Y20 F1500 ; move to the Y=20mm position on the bed
G1 Y-20 F1500 ; move to the Y=20mm position on the bed
G1 Y20 F1500 ; move to the Y=20mm position on the bed
G1 Y-20 F1500 ; move to the Y=20mm position on the bed
G1 Y20 F1500 ; move to the Y=20mm position on the bed
G1 Y-20 F1500 ; move to the Y=20mm position on the bed
G1 Y20 F1500 ; move to the Y=20mm position on the bed
G1 Y-20 F1500 ; move to the Y=20mm position on the bed
G1 Y20 F1500 ; move to the Y=20mm position on the bed
G1 Y-20 F1500 ; move to the Y=20mm position on the bed
G1 Y20 F1500 ; move to the Y=20mm position on the bed
G1 Y-20 F1500 ; move to the Y=20mm position on the bed
G1 Y20 F1500 ; move to the Y=20mm position on the bed
G1 Y-20 F1500 ; move to the Y=20mm position on the bed
G1 Y20 F1500 ; move to the Y=20mm position on the bed
G1 Y-20 F1500 ; move to the Y=20mm position on the bed
G1 Y20 F1500 ; move to the Y=20mm position on the bed
G1 Y-20 F1500 ; move to the Y=20mm position on the bed
G1 Y20 F1500 ; move to the Y=20mm position on the bed
G1 Y-20 F1500 ; move to the Y=20mm position on the bed
G1 Y20 F1500 ; move to the Y=20mm position on the bed
G1 Y-20 F1500 ; move to the Y=20mm position on the bed
G1 Y20 F1500 ; move to the Y=20mm position on the bed
G1 Y-20 F1500 ; move to the Y=20mm position on the bed
G1 Y20 F1500 ; move to the Y=20mm position on the bed
G1 Y-20 F1500 ; move to the Y=20mm position on the bed
G1 Y20 F1500 ; move to the Y=20mm position on the bed
G1 Y-20 F1500 ; move to the Y=20mm position on the bed
G1 Y20 F1500 ; move to the Y=20mm position on the bed
G1 Y-20 F1500 ; move to the Y=20mm position on the bed
G1 Y20 F1500 ; move to the Y=20mm position on the bed
G1 Y-20 F1500 ; move to the Y=20mm position on the bed
G1 Y20 F1500 ; move to the Y=20mm position on the bed
G1 Y-20 F1500 ; move to the Y=20mm position on the bed
G1 Y20 F1500 ; move to the Y=20mm position on the bed
G1 Y-20 F1500 ; move to the Y=20mm position on the bed
G1 Y20 F1500 ; move to the Y=20mm position on the bed
G1 Y-20 F1500 ; move to the Y=20mm position on the bed
G1 Y20 F1500 ; move to the Y=20mm position on the bed
G1 Y-20 F1500 ; move to the Y=20mm position on the bed
G1 Y20 F1500 ; move to the Y=20mm position on the bed
G1 Y-20 F1500 ; move to the Y=20mm position on the bed
G1 Y20 F1500 ; move to the Y=20mm position on the bed
G1 Y-20 F1500 ; move to the Y=20mm position on the bed
G1 Y20 F1500 ; move to the Y=20mm position on the bed
G1 Y-20 F1500 ; move to the Y=20mm position on the bed
G1 Y20 F1500 ; move to the Y=20mm position on the bed
G1 Y-20 F1500 ; move to the Y=20mm position on the bed
G1 Y20 F1500 ; move to the Y=20mm position on the bed
G1 Y-20 F1500 ; move to the Y=20mm position on the bed
G1 Y20 F1500 ; move to the Y=20mm position on the bed
G1 Y-20 F1500 ; move to the Y=20mm position on the bed
G1 Y20 F1500 ; move to the Y=20mm position on the bed
G1 Y-20 F1500 ; move to the Y=20mm position on the bed
G1 Y20 F1500 ; move to the Y=20mm position on the bed
G1 Y-20 F1500 ; move to the Y=20mm position on the bed
G1 Y20 F1500 ; move to the Y=20mm position on the bed
G1 Y-20 F1500 ; move to the Y=20mm position on the bed
G1 Y20 F1500 ; move to the Y=20mm position on the bed
G1 Y-20 F1500 ; move to the Y=20mm position on the bed
G1 Y20 F1500 ; move to the Y=20mm position on the bed
G1 Y-20 F1500 ; move to the Y=20mm position on the bed
G1 Y20 F1500 ; move to the Y=20mm position on the bed
G1 Y-20 F1500 ; move to the Y=20mm position on the bed
G1 Y20 F1500 ; move to the Y=20mm position on the bed
G1 Y-20 F1500 ; move to the Y=20mm position on the bed
G1 Y20 F1500 ; move to the Y=20mm position on the bed
G1 Y-20 F1500 ; move to the Y=20mm position on the bed
G1 Y20 F1500 ; move to the Y=20mm position on the bed
G1 Y-20 F1500 ; move to the Y=20mm position on the bed
G1 Y20 F1500 ; move to the Y=20mm position on the bed
G1 Y-20 F1500 ; move to the Y=20mm position on the bed
G1 Y20 F1500 ; move to the Y=20mm position on the bed
G1 Y-20 F1500 ; move to the Y=20mm position on the bed
G1 Y20 F1500 ; move to the Y=20mm position on the bed
G1 Y-20 F1500 ; move to the Y=20mm position on the bed
G1 Y20 F1500 ; move to the Y=20mm position on the bed
G1 Y-20 F1500 ; move to the Y=20mm position on the bed
G1 Y20 F1500 ; move to the Y=20mm position on the bed
G1 Y-20 F1500 ; move to the Y=20mm position on the bed
G1 Y20 F1500 ; move to the Y=20mm position on the bed
G1 Y-20 F1500 ; move to the Y=20mm position on the bed
G1 Y20 F1500 ; move to the Y=20mm position on the bed
G1 Y-20 F1500 ; move to the Y=20mm position on the bed
G1 Y20 F1500 ; move to the Y=20mm position on the bed
G1 Y-20 F1500 ; move to the Y=20mm position on the bed
G1 Y20 F1500 ; move to the Y=20mm position on the bed
G1 Y-20 F1500 ; move to the Y=20mm position on the bed
G1 Y20 F1500 ; move to the Y=20mm position on the bed
G1 Y-20 F1500 ; move to the Y=20mm position on the bed
G1 Y20 F1500 ; move to the Y=20mm position on the bed
G1 Y-20 F1500 ; move to the Y=20mm position on the bed
G1 Y20 F1500 ; move to the Y=20mm position on the bed
G1 Y-20 F1500 ; move to the Y=20mm position on the bed
G1 Y20 F1500 ; move to the Y=20mm position on the bed
G1 Y-20 F1500 ; move to the Y=20mm position on the bed
G1 Y20 F1500 ; move to the Y=20mm position on the bed
G1 Y-20 F1500 ; move to the Y=20mm position on the bed
G1 Y20 F1500 ; move to the Y=20mm position on the bed
G1 Y-20 F1500 ; move to the Y=20mm position on the bed
G1 Y20 F1500 ; move to the Y=20mm position on the bed
G1 Y-20 F1500 ; move to the Y=20mm position on the bed
G1 Y20 F1500 ; move to the Y=20mm position on the bed
G1 Y-20 F1500 ; move to the Y=20mm position on the bed
G1 Y20 F1500 ; move to the Y=20mm position on the bed
G1 Y-20 F1500 ; move to the Y=20mm position on the bed
G1 Y20 F1500 ; move to the Y=20mm position on the bed
G1 Y-20 F1500 ; move to the Y=20mm position on the bed
G1 Y20 F1500 ; move to the Y=20mm position on the bed
G1 Y-20 F1500 ; move to the Y=20mm position on the bed
G1 Y20 F1500 ; move to the Y=20mm position on the bed
G1 Y-20 F1500 ; move to the Y=20mm position on the bed
G1 Y20 F1500 ; move to the Y=20mm position on the bed
G1 Y-20 F1500 ; move to the Y=20mm position on the bed
G1 Y20 F1500 ; move to the Y=20mm position on the bed
G1 Y-20 F1500 ; move to the Y=20mm position on the bed
G1 Y20 F1500 ; move to the Y=20mm position on the bed
G1 Y-20 F1500 ; move to the Y=20mm position on the bed
G1 Y20 F1500 ; move to the Y=20mm position on the bed
G1 Y-20 F1500 ; move to the Y=20mm position on the bed
G1 Y20 F1500 ; move to the Y=20mm position on the bed
G1 Y-20 F1500 ; move to the Y=20mm position on the bed
G1 Y20 F1500 ; move to the Y=20mm position on the bed
G1 Y-20 F1500 ; move to the Y=20mm position on the bed
G1 Y20 F1500 ; move to the Y=20mm position on the bed
G1 Y-20 F1500 ; move to the Y=20mm position on the bed
G1 Y20 F1500 ; move to the Y=20mm position on the bed
G1 Y-20 F1500 ; move to the Y=20mm position on the bed
G1 Y20 F1500 ; move to the Y=20mm position on the bed
G1 Y-20 F1500 ; move to the Y=20mm position on the bed
G1 Y20 F1500 ; move to the Y=20mm position on the bed
G1 Y-20 F1500 ; move to the Y=20mm position on the bed
G1 Y20 F1500 ; move to the Y=20mm position on the bed
G1 Y-20 F1500 ; move to the Y=20mm position on the bed
G1 Y20 F1500 ; move to the Y=20mm position on the bed
G1 Y-20 F1500 ; move to the Y=20mm position on the bed
G1 Y20 F1500 ; move to the Y=20mm position on the bed
G1 Y-20 F1500 ; move to the Y=20mm position on the bed
G1 Y20 F1500 ; move to the Y=20mm position on the bed
G1 Y-20 F1500 ; move to the Y=20mm position on the bed
G1 Y20 F1500 ; move to the Y=20mm position on the bed
G1 Y-20 F1500 ; move to the Y=20mm position on the bed
G1 Y20 F1500 ; move to the Y=20mm position on the bed
G1 Y-20 F1500 ; move to the Y=20mm position on the bed
G1 Y20 F1500 ; move to the Y=20mm position on the bed
G1 Y-20 F1500 ; move to the Y=20mm position on the bed
G1 Y20 F1500 ; move to the Y=20mm position on the bed
G1 Y-20 F1500 ; move to the Y=20mm position on the bed
G1 Y20 F1500 ; move to the Y=20mm position on the bed
G1 Y-20 F1500 ; move to the Y=20mm position on the bed
G1 Y20 F1500 ; move to the Y=20mm position on the bed
G1 Y-20 F1500 ; move to the Y=20mm position on the bed
G1 Y20 F1500 ; move to the Y=20mm position on the bed
G1 Y-20 F1500 ; move to the Y=20mm position on the bed
G1 Y20 F1500 ; move to the Y=20mm position on the bed
G1 Y-20 F1500 ; move to the Y=20mm position on the bed
G1 Y20 F1500 ; move to the Y=20mm position on the bed
G1 Y-20 F1500 ; move to the Y=20mm position on the bed
G1 Y20 F1500 ; move to the Y=20mm position on the bed
G1 Y-20 F1500 ; move to the Y=20mm position on the bed
G1 Y20 F1500 ; move to the Y=20mm position on the bed
G1 Y-20 F1500 ; move to the Y=20mm position on the bed
G1 Y20 F1500 ; move to the Y=20mm position on the bed
G1 Y-20 F1500 ; move to the Y=20mm position on the bed
G1 Y20 F1500 ; move to the Y=20mm position on the bed
G1 Y-20 F1500 ; move to the Y=20mm position on the bed
G1 Y20 F1500 ; move to the Y=20mm position on the bed
G1 Y-20 F1500 ; move to the Y=20mm position on the bed
G1 Y20 F1500 ; move to the Y=20mm position on the bed
G1 Y-20 F1500 ; move to the Y=20mm position on the bed
G1 Y20 F1500 ; move to the Y=20mm position on the bed
G1 Y-20 F1500 ; move to the Y=20mm position on the bed
G1 Y20 F1500 ; move to the Y=20mm position on the bed
G1 Y-20 F1500 ; move to the Y=20mm position on the bed
G1 Y20 F1500 ; move to the Y=20mm position on the bed
G1 Y-20 F1500 ; move to the Y=20mm position on the bed
G1 Y20 F1500 ; move to the Y=20mm position on the bed
G1 Y-20 F1500 ; move to the Y=20mm position on the bed
G1 Y20 F1500 ; move to the Y=20mm position on the bed
G1 Y-20 F1500 ; move to the Y=20mm position on the bed
G1 Y20 F1500 ; move to the Y=20mm position on the bed
G1 Y-20 F1500 ; move to the Y=20mm position on the bed
G1 Y20 F1500 ; move to the Y=20mm position on the bed
G1 Y-20 F1500 ; move to the Y=20mm position on the bed
G1 Y20 F1500 ; move to the Y=20mm position on the bed
G1 Y-20 F1500 ; move to the Y=20mm position on the bed
G1 Y20 F1500 ; move to the Y=20mm position on the bed
G1 Y-20 F1500 ; move to the Y=20mm position on the bed
G1 Y20 F1500 ; move to the Y=20mm position on the bed
G1 Y-20 F1500 ; move to the Y=20mm position on the bed
G1 Y20 F1500 ; move to the Y=20mm position on the bed
G1 Y-20 F1500 ; move to the Y=20mm position on the bed
G1 Y20 F1500 ; move to the Y=20mm position on the bed
G1 Y-20 F1500 ; move to the Y=20mm position on the bed
G1 Y20 F1500 ; move to the Y=20mm position on the bed
G1 Y-20 F1500 ; move to the Y=20mm position on the bed
G1 Y20 F1500 ; move to the Y=20mm position on the bed
G1 Y-20 F1500 ; move to the Y=20mm position on the bed
G1 Y20 F1500 ; move to the Y=20mm position on the bed
G1 Y-20 F1500 ; move to the Y=20mm position on the bed
G1 Y20 F1500 ; move to the Y=20mm position on the bed
G1 Y-20 F1500 ; move to the Y=20mm position on the bed
G1 Y20 F1500 ; move to the Y=20mm position on the bed
G1 Y-20 F1500 ; move to the Y=20mm position on the bed
G1 Y20 F1500 ; move to the Y=20mm position on the bed
G1 Y-20 F1500 ; move to the Y=20mm position on the bed
G1 Y20 F1500 ; move to the Y=20mm position on the bed
G1 Y-20 F1500 ; move to the Y=20mm position on the bed
G1 Y20 F1500 ; move to the Y=20mm position on the bed
G1 Y-20 F1500 ; move to the Y=20mm position on the bed
G1 Y20 F1500 ; move to the Y=20mm position on the bed
G1 Y-20 F1500 ; move to the Y=20mm position on the bed
G1 Y20 F1500 ; move to the Y=20mm position on the bed
G1 Y-20 F1500 ; move to the Y=20mm position on the bed
G1 Y20 F1500 ; move to the Y=20mm position on the bed
G1 Y-20 F1500 ; move to the Y=20mm position on the bed
G1 Y20 F1500 ; move to the Y=20mm position on the bed
G1 Y-20 F1500 ; move to the Y=20mm position on the bed
G1 Y20 F1500 ; move to the Y=20mm position on the bed
G1 Y-20 F1500 ; move to the Y=20mm position on the bed
G1 Y20 F1500 ; move to the Y=20mm position on the bed
G1 Y-20 F1500 ; move to the Y=20mm position on the bed
G1 Y20 F1500 ; move to the Y=20mm position on the bed
G1 Y-20 F1500 ; move to the Y=20mm position on the bed
G1 Y20 F1500 ; move to the Y=20mm position on the bed
G1 Y-20 F1500 ; move to the Y=20mm position on the bed
G1 Y20 F1500 ; move to the Y=20mm position on the bed
G1 Y-20 F1500 ; move to the Y=20mm position on the bed
G1 Y20 F1500 ; move to the Y=20mm position on the bed
G1 Y-20 F1500 ; move to the Y=20mm position on the bed
G1 Y20 F1500 ; move to the Y=20mm position on the bed
G1 Y-20 F1500 ; move to the Y=20mm position on the bed
G1 Y20 F1500 ; move to the Y=20mm position on the bed
G1 Y-20 F1500 ; move to the Y=20mm position on the bed
G1 Y20 F1500 ; move to the Y=20mm position on the bed
G1 Y-20 F1500 ; move to the Y=20mm position on the bed
G1 Y20 F1500 ; move to the Y=20mm position on the bed
G1 Y-20 F1500 ; move to the Y=20mm position on the bed
G1 Y20 F1500 ; move to the Y=20mm position on the bed
G1 Y-20 F1500 ; move to the Y=20mm position on the bed
G1 Y20 F1500 ; move to the Y=20mm position on the bed
G1 Y-20 F1500 ; move to the Y=20mm position on the bed
G1 Y20 F1500 ; move to the Y=20mm position on the bed
G1 Y-20 F1500 ; move to the Y=20mm position on the bed
G1 Y20 F1500 ; move to the Y=20mm position on the bed
G1 Y-20 F1500 ; move to the Y=20mm position on the bed
G1 Y20 F1500 ; move to the Y=20mm position on the bed
G1 Y-20 F1500 ; move to the Y=20mm position on the bed
G1 Y20 F1500 ; move to the Y=20mm position on the bed
G1 Y-20 F1500 ; move to the Y=20mm position on the bed
G1 Y20 F1500 ; move to the Y=20mm position on the bed
G1 Y-20 F1500 ; move to the Y=20mm position on the bed
G1 Y20 F1500 ; move to the Y=20mm position on the bed
G1 Y-20 F1500 ; move to the Y=20mm position on the bed
G1 Y20 F1500 ; move to the Y=20mm position on the bed
G1 Y-20 F1500 ; move to the Y=20mm position on the bed
G1 Y20 F1500 ; move to the Y=20mm position on the bed
G1 Y-20 F1500 ; move to the Y=20mm position on the bed
G1 Y20 F1500 ; move to the Y=20mm position on the bed
G1 Y-20 F1500 ; move to the Y=20mm position on the bed
G1 Y20 F1500 ; move to the Y=20mm position on the bed
G1 Y-20 F1500 ; move to the Y=20mm position on the bed
G1 Y20 F1500 ; move to the Y=20mm position on the bed
G1 Y-20 F1500 ; move to the Y=20mm position on the bed
G1 Y20 F1500 ; move to the Y=20mm position on the bed
G1 Y-20 F1500 ; move to the Y=20mm position on the bed
G1 Y20 F1500 ; move to the Y=20mm position on the bed
G1 Y-20 F1500 ; move to the Y=20mm position on the bed
G1 Y20 F1500 ; move to the Y=20mm position on the bed
G1 Y-20 F1500 ; move to the Y=20mm position on the bed
G1 Y20 F1500 ; move to the Y=20mm position on the bed
G1 Y-20 F1500 ; move to the Y=20mm position on the bed
G1 Y20 F1500 ; move to the Y=20mm position on the bed
G1 Y-20 F1500 ; move to the Y=20mm position on the bed
G1 Y20 F1500 ; move to the Y=20mm position on the bed
G1 Y-20 F1500 ; move to the Y=20mm position on the bed
G1 Y20 F1500 ; move to the Y=20mm position on the bed
G1 Y-20 F1500 ; move to the Y=20mm position on the bed
G1 Y20 F1500 ; move to the Y=20mm position on the bed
G1 Y-20 F1500 ; move to the Y=20mm position on the bed
G1 Y20 F1500 ; move to the Y=20mm position on the bed
G1 Y-20 F1500 ; move to the Y=20mm position on the bed
G1 Y20 F1500 ; move to the Y=20mm position on the bed
G1 Y-20 F1500 ; move to the Y=20mm position on the bed
G1 Y20 F1500 ; move to the Y=20mm position on the bed
G1 Y-20 F1500 ; move to the Y=20mm position on the bed
G1 Y20 F1500 ; move to the Y=20mm position on the bed
G1 Y-20 F1500 ; move to the Y=20mm position on the bed
G1 Y20 F1500 ; move to the Y=20mm position on the bed
G1 Y-20 F1500 ; move to the Y=20mm position on the bed
G1 Y20 F1500 ; move to the Y=20mm position on the bed
G1 Y-20 F1500 ; move to the Y=20mm position on the bed
G1 Y20 F1500 ; move to the Y=20mm position on the bed
G1 Y-20 F1500 ; move to the Y=20mm position on the bed
G1 Y20 F1500 ; move to the Y=20mm position on the bed
G1 Y-20 F1500 ; move to the Y=20mm position on the bed
G1 Y20 F1500 ; move to the Y=20mm position on the bed
G1 Y-20 F1500 ; move to the Y=20mm position on the bed
G1 Y20 F1500 ; move to the Y=20mm position on the bed
G1 Y-20 F1500 ; move to the Y=20mm position on the bed
G1 Y20 F1500 ; move to the Y=20mm position on the bed
G1 Y-20 F1500 ; move to the Y=20mm position on the bed
G1 Y20 F1500 ; move to the Y=20mm position on the bed
G1 Y-20 F1500 ; move to the Y=20mm position on the bed
G1 Y20 F1500 ; move to the Y=20mm position on the bed
G1 Y-20 F1500 ; move to the Y=20mm position on the bed
G1 Y20 F1500 ; move to the Y=20mm position on the bed
G1 Y-20 F1500 ; move to the Y=20mm position on the bed
G1 Y20 F1500 ; move to the Y=20mm position on the bed
G1 Y-20 F1500 ; move to the Y=20mm position on the bed
G1 Y20 F1500 ; move to the Y=20mm position on the bed
G1 Y-20 F1500 ; move to the Y=20mm position on the bed
G1 Y20 F1500 ; move to the Y=20mm position on the bed
G1 Y-20 F1500 ; move to the Y=20mm position on the bed
G1 Y20 F1500 ; move to the Y=20mm position on the bed
G1 Y-20 F1500 ; move to the Y=20mm position on the bed
G1 Y20 F1500 ; move to the Y=20mm position on the bed
G1 Y-20 F1500 ; move to the Y=20mm position on the bed
G1 Y20 F1500 ; move to the Y=20mm position on the bed
G1 Y-20 F1500 ; move to the Y=20mm position on the bed
G1 Y20 F1500 ; move to the Y=20mm position on the bed
G1 Y-20 F1500 ; move to the Y=20mm position on the bed
G1 Y20 F1500 ; move to the Y=20mm position on the bed
G1 Y-20 F1500 ; move to the Y=20mm position on the bed
G1 Y20 F1500 ; move to the Y=20mm position on the bed
G1 Y-20 F1500 ; move to the Y=20mm position on the bed
G1 Y20 F1500 ; move to the Y=20mm position on the bed
G1 Y-20 F1500 ; move to the Y=20mm position on the bed
G1 Y20 F1500 ; move to the Y=20mm position on the bed
G1 Y-20 F1500 ; move to the Y=20mm position on the bed
G1 Y20 F1500 ; move to the Y=20mm position on the bed
G1 Y-20 F1500 ; move to the Y=20mm position on the bed
G1 Y20 F1500 ; move to the Y=20mm position on the bed
G1 Y-20 F1500 ; move to the Y=20mm position on the bed
G1 Y20 F1500 ; move to the Y=20mm position on the bed
G1 Y-20 F1500 ; move to the Y=20mm position on the bed
G1 Y20 F1500 ; move to the Y=20mm position on the bed
G1 Y-20 F1500 ; move to the Y=20mm position on the bed
G1 Y20 F1500 ; move to the Y=20mm position on the bed
G1 Y-20 F1500 ; move to the Y=20mm position on the bed
G1 Y20 F1500 ; move to the Y=20mm position on the bed
G1 Y-20 F1500 ; move to the Y=20mm position on the bed
G1 Y20 F1500 ; move to the Y=20mm position on the bed
G1 Y-20 F1500 ; move to the Y=20mm position on the bed
G1 Y20 F1500 ; move to the Y=20mm position on the bed
G1 Y-20 F1500 ; move to the Y=20mm position on the bed
G1 Y20 F1500 ; move to the Y=20mm position on the bed
G1 Y-20 F1500 ; move to the Y=20mm position on the bed
G1 Y20 F1500 ; move to the Y=20mm position on the bed
G1 Y-20 F1500 ; move to the Y=20mm position on the bed
G1 Y20 F1500 ; move to the Y=20mm position on the bed
G1 Y-20 F1500 ; move to the Y=20mm position on the bed
G1 Y20 F1500 ; move to the Y=20mm position on the bed
G1 Y-20 F1500 ; move to the Y=20mm position on the bed
G1 Y20 F1500 ; move to the Y=20mm position on the bed
G1 Y-20 F1500 ; move to the Y=20mm position on the bed
G1 Y20 F1500 ; move to the Y=20mm position on the bed
G1 Y-20 F1500 ; move to the Y=20mm position on the bed
G1 Y20 F1500 ; move to the Y=20mm position on the bed
G1 Y-20 F1500 ; move to the Y=20mm position on the bed
G1 Y20 F1500 ; move to the Y=20mm position on the bed
G1 Y-20 F1500 ; move to the Y=20mm position on the bed
G1 Y20 F1500 ; move to the Y=20mm position on the bed
G1 Y-20 F1500 ; move to the Y=20mm position on the bed
G1 Y20 F1500 ; move to the Y=20mm position on the bed
G1 Y-20 F1500 ; move to the Y=20mm position on the bed
G1 Y20 F1500 ; move to the Y=20mm position on the bed
G1 Y-20 F1500 ; move to the Y=20mm position on the bed
G1 Y20 F1500 ; move to the Y=20mm position on the bed
G1 Y-20 F1500 ; move to the Y=20mm position on the bed
G1 Y20 F1500 ; move to the Y=20mm position on the bed
G1 Y-20 F1500 ; move to the Y=20mm position on the bed
G1 Y20 F1500 ; move to the Y=20mm position on the bed
G1 Y-20 F1500 ; move to the Y=20mm position on the bed
G1 Y20 F1500 ; move to the Y=20mm position on the bed
G1 Y-20 F1500 ; move to the Y=20mm position on the bed
G1 Y20 F1500 ; move to the Y=20mm position on the bed
G1 Y-20 F1500 ; move to the Y=20mm position on the bed
G1 Y20 F1500 ; move to the Y=20mm position on the bed
G1 Y-20 F1500 ; move to the Y=20mm position on the bed
G1 Y20 F1500 ; move to the Y=20mm position on the bed
G1 Y-20 F1500 ; move to the Y=20mm position on the bed
G1 Y20 F1500 ; move to the Y=20mm position on the bed
G1 Y-20 F1500 ; move to the Y=20mm position on the bed
G1 Y20 F1500 ; move to the Y=20mm position on the bed
G1 Y-20 F1500 ; move to the Y=20mm position on the bed
G1 Y20 F1500 ; move to the Y=20mm position on the bed
G1 Y-20 F1500 ; move to the Y=20mm position on the bed
G1 Y20 F1500 ; move to the Y=20mm position on the bed
G1 Y-20 F1500 ; move to the Y=20mm position on the bed
G1 Y20 F1500 ; move to the Y=20mm position on the bed
G1 Y-20 F1500 ; move to the Y=20mm position on the bed
G1 Y20 F1500 ; move to the Y=20mm position on the bed
G1 Y-20 F1500 ; move to the Y=20mm position on the bed
G1 Y20 F1500 ; move to the Y=20mm position on the bed
G1 Y-20 F1500 ; move to the Y=20mm position on the bed
G1 Y20 F1500 ; move to the Y=20mm position on the bed
G1 Y-20 F1500 ; move to the Y=20mm position on the bed
G1 Y20 F1500 ; move to the Y=20mm position on the bed
G1 Y-20 F1500 ; move to the Y=20mm position on the bed
G1 Y20 F1500 ; move to the Y=20mm position on the bed
G1 Y-20 F1500 ; move to the Y=20mm position on the bed
G1 Y20 F1500 ; move to the Y=20mm position on the bed
G1 Y-20 F1500 ; move to the Y=20mm position on the bed
G1 Y20 F1500 ; move to the Y=20mm position on the bed
G1 Y-20 F1500 ; move to the Y=20mm position on the bed
G1 Y20 F1500 ; move to the Y=20mm position on the bed
G1 Y-20 F1500 ; move to the Y=20mm position on the bed
G1 Y20 F1500 ; move to the Y=20mm position on the bed
G1 Y-20 F1500 ; move to the Y=20mm position on the bed
G1 Y20 F1500 ; move to the Y=20mm position on the bed
G1 Y-20 F1500 ; move to the Y=20mm position on the bed
G1 Y20 F1500 ; move to the Y=20mm position on the bed
G1 Y-20 F1500 ; move to the Y=20mm position on the bed
G1 Y20 F1500 ; move to the Y=20mm position on the bed
G1 Y-20 F1500 ; move to the Y=20mm position on the bed
G1 Y20 F1500 ; move to the Y=20mm position on the bed
G1 Y-20 F1500 ; move to the Y=20mm position on the bed
G1 Y20 F1500 ; move to the Y=20mm position on the bed
G1 Y-20 F1500 ; move to the Y=20mm position on the bed
G1 Y20 F1500 ; move to the Y=20mm position on the bed
G1 Y-20 F1500 ; move to the Y=20mm position on the bed
G1 Y20 F1500 ; move to the Y=20mm position on the bed
G1 Y-20 F1500 ; move to the Y=20mm position on the bed
G1 Y20 F1500 ; move to the Y=20mm position on the bed
G1 Y-20 F1500 ; move to the Y=20mm position on the bed
G1 Y20 F1500 ; move to the Y=20mm position on the bed
G1 Y-20 F1500 ; move to the Y=20mm position on the bed
G1 Y20 F1500 ; move to the Y=20mm position on the bed
G1 Y-20 F1500 ; move to the Y=20mm position on the bed
G1 Y20 F1500 ; move to the Y=20mm position on the bed
G1 Y-20 F1500 ; move to the Y=20mm position on the bed
G1 Y20 F1500 ; move to the Y=20mm position on the bed
G1 Y-20 F1500 ; move to the Y=20mm position on the bed
G1 Y20 F1500 ; move to the Y=20mm position on the bed
G1 Y-20 F1500 ; move to the Y=20mm position on the bed
G1 Y20 F1500 ; move to the Y=20mm position on the bed
G1 Y-20 F1500 ; move to the Y=20mm position on the bed
G1 Y20 F1500 ; move to the Y=20mm position on the bed
G1 Y-20 F1500 ; move to the Y=20mm position on the bed
G1 Y20 F1500 ; move to the Y=20mm position on the bed
G1 Y-20 F1500 ; move to the Y=20mm position on the bed
G1 Y20 F1500 ; move to the Y=20mm position on the bed
G1 Y-20 F1500 ; move to the Y=20mm position on the bed
G1 Y20 F1500 ; move to the Y=20mm position on the bed
G1 Y-20 F1500 ; move to the Y=20mm position on the bed
G1 Y20 F1500 ; move to the Y=20mm position on the bed
G1 Y-20 F1500 ; move to the Y=20mm position on the bed
G1 Y20 F1500 ; move to the Y=20mm position on the bed
G1 Y-20 F1500 ; move to the Y=20mm position on the bed
G1 Y20 F1500 ; move to the Y=20mm position on the bed
G1 Y-20 F1500 ; move to the Y=20mm position on the bed
G1 Y20 F1500 ; move to the Y=20mm position on the bed
G1 Y-20 F1500 ; move to the Y=20mm position on the bed
G1 Y20 F1500 ; move to the Y=20mm position on the bed
G1 Y-20 F1500 ; move to the Y=20mm position on the bed
G1 Y20 F1500 ; move to the Y=20mm position on the bed
G1 Y-20 F1500 ; move to the Y=20mm position on the bed
G1 Y20 F1500 ; move to the Y=20mm position on the bed
G1 Y-20 F1500 ; move to the Y=20mm position on the bed
G1 Y20 F1500 ; move to the Y=20mm position on the bed
G1 Y-20 F1500 ; move to the Y=20mm position on the bed
G1 Y20 F1500 ; move to the Y=20mm position on the bed
G1 Y-20 F1500 ; move to the Y=20mm position on the bed
G1 Y20 F1500 ; move to the Y=20mm position on the bed
G1 Y-20 F1500 ; move to the Y=20mm position on the bed
G1 Y20 F1500 ; move to the Y=20mm position on the bed
G1 Y-20 F1500 ; move to the Y=20mm position on the bed
G1 Y20 F1500 ; move to the Y=20mm position on the bed
G1 Y-20 F1500 ; move to the Y=20mm position on the bed
G1 Y20 F1500 ; move to the Y=20mm position on the bed
G1 Y-20 F1500 ; move to the Y=20mm position on the bed
G1 Y20 F1500 ; move to the Y=20mm position on the bed
G1 Y-20 F1500 ; move to the Y=20mm position on the bed
G1 Y20 F1500 ; move to the Y=20mm position on the bed
G1 Y-20 F1500 ; move to the Y=20mm position on the bed
G1 Y20 F1500 ; move to the Y=20mm position on the bed
G1 Y-20 F1500 ; move to the Y=20mm position on the bed
G1 Y20 F1500 ; move to the Y=20mm position on the bed
G1 Y-20 F1500 ; move to the Y=20mm position on the bed
G1 Y20 F1500 ; move to the Y=20mm position on the bed
G1 Y-20 F1500 ; move to the Y=20mm position on the bed
G1 Y20 F1500 ; move to the Y=20mm position on the bed
G1 Y-20 F1500 ; move to the Y=20mm position on the bed
G1 Y20 F1500 ; move to the Y=20mm position on the bed
G1 Y-20 F1500 ; move to the Y=20mm position on the bed
G1 Y20 F1500 ; move to the Y=20mm position on the bed
G1 Y-20 F1500 ; move to the Y=20mm position on the bed
G1 Y20 F1500 ; move to the Y=20mm position on the bed
G1 Y-20 F1500 ; move to the Y=20mm position on the bed
G1 Y20 F1500 ; move to the Y=20mm position on the bed
G1 Y-20 F1500 ; move to the Y=20mm position on the bed
G1 Y20 F1500 ; move to the Y=20mm position on the bed
G1 Y-20 F1500 ; move to the Y=20mm position on the bed
G1 Y20 F1500 ; move to the Y=20mm position on the bed
G1 Y-20 F1500 ; move to the Y=20mm position on the bed
G1 Y20 F1500 ; move to the Y=20mm position on the bed
G1 Y-20 F1500 ; move to the Y=20mm position on the bed
G1 Y20 F1500 ; move to the Y=20mm position on the bed
G1 Y-20 F1500 ; move to the Y=20mm position on the bed
G1 Y20 F1500 ; move to the Y=20mm position on the bed
G1 Y-20 F1500 ; move to the Y=20mm position on the bed
G1 Y20 F1500 ; move to the Y=20mm position on the bed
G1 Y-20 F1500 ; move to the Y=20mm position on the bed
G1 Y20 F1500 ; move to the Y=20mm position on the bed
G1 Y-20 F1500 ; move to the Y=20mm position on the bed
G1 Y20 F1500 ; move to the Y=20mm position on the bed
G1 Y-20 F1500 ; move to the Y=20mm position on the bed
G1 Y20 F1500 ; move to the Y=20mm position on the bed
G1 Y-20 F1500 ; move to the Y=20mm position on the bed
G1 Y20 F1500 ; move to the Y=20mm position on the bed
G1 Y-20 F1500 ; move to the Y=20mm position on the bed
G1 Y20 F1500 ; move to the Y=20mm position on the bed
G1 Y-20 F1500 ; move to the Y=20mm position on the bed
G1 Y20 F1500 ; move to the Y=20mm position on the bed
G1 Y-20 F1500 ; move to the Y=20mm position on the bed
G1 Y20 F1500 ; move to the Y=20mm position on the bed
G1 Y-20 F1500 ; move to the Y=20mm position on the bed
G1 Y20 F1500 ; move to the Y=20mm position on the bed
G1 Y-20 F1500 ; move to the Y=20mm position on the bed
G1 Y20 F1500 ; move to the Y=20mm position on the bed
G1 Y-20 F1500 ; move to the Y=20mm position on the bed
G1 Y20 F1500 ; move to the Y=20mm position on the bed
G1 Y-20 F1500 ; move to the Y=20mm position on the bed
G1 Y20 F1500 ; move to the Y=20mm position on the bed
G1 Y-20 F1500 ; move to the Y=20mm position on the bed
G1 Y20 F1500 ; move to the Y=20mm position on the bed
G1 Y-20 F1500 ; move to the Y=20mm position on the bed
G1 Y20 F1500 ; move to the Y=20mm position on the bed
G1 Y-20 F1500 ; move to the Y=20mm position on the bed
G1 Y20 F1500 ; move to the Y=20mm position on the bed
G1 Y-20 F1500 ; move to the Y=20mm position on the bed
G1 Y20 F1500 ; move to the Y=20mm position on the bed
G1 Y-20 F1500 ; move to the Y=20mm position on the bed
G1 Y20 F1500 ; move to the Y=20mm position on the bed
G1 Y-20 F1500 ; move to the Y=20mm position on the bed
G1 Y20 F1500 ; move to the Y=20mm position on the bed
G1 Y-20 F1500 ; move to the Y=20mm position on the bed
G1 Y20 F1500 ; move to the Y=20mm position on the bed
G1 Y-20 F1500 ; move to the Y=20mm position on the bed
G1 Y20 F1500 ; move to the Y=20mm position on the bed
G1 Y-20 F1500 ; move to the Y=20mm position on the bed
G1 Y20 F1500 ; move to the Y=20mm position on the bed
G1 Y-20 F1500 ; move to the Y=20mm position on the bed
G1 Y20 F1500 ; move to the Y=20mm position on the bed
G1 Y-20 F1500 ; move to the Y=20mm position on the bed
G1 Y20 F1500 ; move to the Y=20mm position on the bed
G1 Y-20 F1500 ; move to the Y=20mm position on the bed
G1 Y20 F1500 ; move to the Y=20mm position on the bed
G1 Y-20 F1500 ; move to the Y=20mm position on the bed
G1 Y20 F1500 ; move to the Y=20mm position on the bed
G1 Y-20 F1500 ; move to the Y=20mm position on the bed
G1 Y20 F1500 ; move to the Y=20mm position on the bed
G1 Y-20 F1500 ; move to the Y=20mm position on the bed
G1 Y20 F1500 ; move to the Y=20mm position on the bed
G1 Y-20 F1500 ; move to the Y=20mm position on the bed
G1 Y20 F1500 ; move to the Y=20mm position on the bed
G1 Y-20 F1500 ; move to the Y=20mm position on the bed
G1 Y20 F1500 ; move to the Y=20mm position on the bed
G1 Y-20 F1500 ; move to the Y=20mm position on the bed
G1 Y20 F1500 ; move to the Y=20mm position on the bed
G1 Y-20 F1500 ; move to the Y=20mm position on the bed
G1 Y20 F1500 ; move to the Y=20mm position on the bed
G1 Y-20 F1500 ; move to the Y=20mm position on the bed
G1 Y20 F1500 ; move to the Y=20mm position on the bed
G1 Y-20 F1500 ; move to the Y=20mm position on the bed
G1 Y20 F1500 ; move to the Y=20mm position on the bed
G1 Y-20 F1500 ; move to the Y=20mm position on the bed
G1 Y20 F1500 ; move to the Y=20mm position on the bed
G1 Y-20 F1500 ; move to the Y=20mm position on the bed
G1 Y20 F1500 ; move to the Y=20mm position on the bed
G1 Y-20 F1500 ; move to the Y=20mm position on the bed
G1 Y20 F1500 ; move to the Y=20mm position on the bed
G1 Y-20 F1500 ; move to the Y=20mm position on the bed
G1 Y20 F1500 ; move to the Y=20mm position on the bed
G1 Y-20 F1500 ; move to the Y=20mm position on the bed
G1 Y20 F1500 ; move to the Y=20mm position on the bed
G1 Y-20 F1500 ; move to the Y=20mm position on the bed
G1 Y20 F1500 ; move to the Y=20mm position on the bed
G1 Y-20 F1500 ; move to the Y=20mm position on the bed
G1 Y20 F1500 ; move to the Y=20mm position on the bed
G1 Y-20 F1500 ; move to the Y=20mm position on the bed
G1 Y20 F1500 ; move to the Y=20mm position on the bed
G1 Y-20 F1500 ; move to the Y=20mm position on the bed
G1 Y20 F1500 ; move to the Y=20mm position on the bed
G1 Y-20 F1500 ; move to the Y=20mm position on the bed
G1 Y20 F1500 ; move to the Y=20mm position on the bed
G1 Y-20 F1500 ; move to the Y=20mm position on the bed
G1 Y20 F1500 ; move to the Y=20mm position on the bed
G1 Y-20 F1500 ; move to the Y=20mm position on the bed
G1 Y20 F1500 ; move to the Y=20mm position on the bed
G1 Y-20 F1500 ; move to the Y=20mm position on the bed
G1 Y20 F1500 ; move to the Y=20mm position on the bed
G1 Y-20 F1500 ; move to the Y=20mm position on the bed
G1 Y20 F1500 ; move to the Y=20mm position on the bed
G1 Y-20 F1500 ; move to the Y=20mm position on the bed
G1 Y20 F1500 ; move to the Y=20mm position on the bed
G1 Y-20 F1500 ; move to the Y=20mm position on the bed
G1 Y20 F1500 ; move to the Y=20mm position on the bed
G1 Y-20 F1500 ; move to the Y=20mm position on the bed
G1 Y20 F1500 ; move to the Y=20mm position on the bed
G1 Y-20 F1500 ; move to the Y=20mm position on the bed
G1 Y20 F1500 ; move to the Y=20mm position on the bed
G1 Y-20 F1500 ; move to the Y=20mm position on the bed
G1 Y20 F1500 ; move to the Y=20mm position on the bed
G1 Y-20 F1500 ; move to the Y=20mm position on the bed
G1 Y20 F1500 ; move to the Y=20mm position on the bed
G1 Y-20 F1500 ; move to the Y=20mm position on the bed
G1 Y20 F1500 ; move to the Y=20mm position on the bed
G1 Y-20 F1500 ; move to the Y=20mm position on the bed
G1 Y20 F1500 ; move to the Y=20mm position on the bed
G1 Y-20 F1500 ; move to the Y=20mm position on the bed
G1 Y20 F1500 ; move to the Y=20mm position on the bed
G1 Y-20 F1500 ; move to the Y=20mm position on the bed
G1 Y20 F1500 ; move to the Y=20mm position on the bed
G1 Y-20 F1500 ; move to the Y=20mm position on the bed
G1 Y20 F1500 ; move to the Y=20mm position on the bed
G1 Y-20 F1500 ; move to the Y=20mm position on the bed
G1 Y20 F1500 ; move to the Y=20mm position on the bed
G1 Y-20 F1500 ; move to the Y=20mm position on the bed
G1 Y20 F1500 ; move to the Y=20mm position on the bed
G1 Y-20 F1500 ; move to the Y=20mm position on the bed
G1 Y20 F1500 ; move to the Y=20mm position on the bed
G1 Y-20 F1500 ; move to the Y=20mm position on the bed
G1 Y20 F1500 ; move to the Y=20mm position on the bed
G1 Y-20 F1500 ; move to the Y=20mm position on the bed
G1 Y20 F1500 ; move to the Y=20mm position on the bed
G1 Y-20 F1500 ; move to the Y=20mm position on the bed
G1 Y20 F1500 ; move to the Y=20mm position on the bed
G1 Y-20 F1500 ; move to the Y=20mm position on the bed
G1 Y20 F1500 ; move to the Y=20mm position on the bed
G1 Y-20 F1500 ; move to the Y=20mm position on the bed
G1 Y20 F1500 ; move to the Y=20mm position on the bed
G1 Y-20 F1500 ; move to the Y=20mm position on the bed
G1 Y20 F1500 ; move to the Y=20mm position on the bed
G1 Y-20 F1500 ; move to the Y=20mm position on the bed
G1 Y20 F1500 ; move to the Y=20mm position on the bed
G1 Y-20 F1500 ; move to the Y=20mm position on the bed
G1 Y20 F1500 ; move to the Y=20mm position on the bed
G1 Y-20 F1500 ; move to the Y=20mm position on the bed
G1 Y20 F1500 ; move to the Y=20mm position on the bed
G1 Y-20 F1500 ; move to the Y=20mm position on the bed
G1 Y20 F1500 ; move to the Y=20mm position on the bed
G1 Y-20 F1500 ; move to the Y=20mm position on the bed
G1 Y20 F1500 ; move to the Y=20mm position on the bed
G1 Y-20 F1500 ; move to the Y=20mm position on the bed
G1 Y20 F1500 ; move to the Y=20mm position on the bed
G1 Y-20 F1500 ; move to the Y=20mm position on the bed
G1 Y20 F1500 ; move to the Y=20mm position on the bed
G1 Y-20 F1500 ; move to the Y=20mm position on the bed
G1 Y20 F1500 ; move to the Y=20mm position on the bed
G1 Y-20 F1500 ; move to the Y=20mm position on the bed
G1 Y20 F1500 ; move to the Y=20mm position on the bed
G1 Y-20 F1500 ; move to the Y=20mm position on the bed
G1 Y20 F1500 ; move to the Y=20mm position on the bed
G1 Y-20 F1500 ; move to the Y=20mm position on the bed
G1 Y20 F1500 ; move to the Y=20mm position on the bed
G1 Y-20 F1500 ; move to the Y=20mm position on the bed
G1 Y20 F1500 ; move to the Y=20mm position on the bed
G1 Y-20 F1500 ; move to the Y=20mm position on the bed
G1 Y20 F1500 ; move to the Y=20mm position on the bed
G1 Y-20 F1500 ; move to the Y=20mm position on the bed
G1 Y20 F1500 ; move to the Y=20mm position on the bed
G1 Y-20 F1500 ; move to the Y=20mm position on the bed
G1 Y20 F1500 ; move to the Y=20mm position on the bed
G1 Y-20 F1500 ; move to the Y=20mm position on the bed
G1 Y20 F1500 ; move to the Y=20mm position on the bed
G1 Y-20 F1500 ; move to the Y=20mm position on the bed
G1 Y20 F1500 ; move to the Y=20mm position on the bed
G1 Y-20 F1500 ; move to the Y=20mm position on the bed
G1 Y20 F1500 ; move to the Y=20mm position on the bed
G1 Y-20 F1500 ; move to the Y=20mm position on the bed
G1 Y20 F1500 ; move to the Y=20mm position on the bed
G1 Y-20 F1500 ; move to the Y=20mm position on the bed
G1 Y20 F1500 ; move to the Y=20mm position on the bed
G1 Y-20 F1500 ; move to the Y=20mm position on the bed
G1 Y20 F1500 ; move to the Y=20mm position on the bed
G1 Y-20 F1500 ; move to the Y=20mm position on the bed
G1 Y20 F1500 ; move to the Y=20mm position on the bed
G1 Y-20 F1500 ; move to the Y=20mm position on the bed
G1 Y20 F1500 ; move to the Y=20mm position on the bed
G1 Y-20 F1500 ; move to the Y=20mm position on the bed
G1 Y20 F1500 ; move to the Y=20mm position on the bed
G1 Y-20 F1500 ; move to the Y=20mm position on the bed
G1 Y20 F1500 ; move to the Y=20mm position on the bed
G1 Y-20 F1500 ; move to the Y=20mm position on the bed
G1 Y20 F1500 ; move to the Y=20mm position on the bed
G1 Y-20 F1500 ; move to the Y=20mm position on the bed
G1 Y20 F1500 ; move to the Y=20mm position on the bed
G1 Y-20 F1500 ; move to the Y=20mm position on the bed
G1 Y20 F1500 ; move to the Y=20mm position on the bed
G1 Y-20 F1500 ; move to the Y=20mm position on the bed
G1 Y20 F1500 ; move to the Y=20mm position on the bed
G1 Y-20 F1500 ; move to the Y=20mm position on the bed
G1 Y20 F1500 ; move to the Y=20mm position on the bed
G1 Y-20 F1500 ; move to the Y=20mm position on the bed
G1 Y20 F1500 ; move to the Y=20mm position on the bed
G1 Y-20 F1500 ; move to the Y=20mm position on the bed
G1 Y20 F1500 ; move to the Y=20mm position on the bed
G1 Y-20 F1500 ; move to the Y=20mm position on the bed
G1 Y20 F1500 ; move to the Y=20mm position on the bed
G1 Y-20 F1500 ; move to the Y=20mm position on the bed
G1 Y20 F1500 ; move to the Y=20mm position on the bed
G1 Y-20 F1500 ; move to the Y=20mm position on the bed
G1 Y20 F1500 ; move to the Y=20mm position on the bed
G1 Y-20 F1500 ; move to the Y=20mm position on the bed
G1 Y20 F1500 ; move to the Y=20mm position on the bed
G1 Y-20 F1500 ; move to the Y=20mm position on the bed
G1 Y20 F1500 ; move to the Y=20mm position on the bed
G1 Y-20 F1500 ; move to the Y=20mm position on the bed
G1 Y20 F1500 ; move to the Y=20mm position on the bed
G1 Y-20 F1500 ; move to the Y=20mm position on the bed
G1 Y20 F1500 ; move to the Y=20mm position on the bed
G1 Y-20 F1500 ; move to the Y=20mm position on the bed
G1 Y20 F1500 ; move to the Y=20mm position on the bed
G1 Y-20 F1500 ; move to the Y=20mm position on the bed
G1 Y20 F1500 ; move to the Y=20mm position on the bed
G1 Y-20 F1500 ; move to the Y=20mm position on the bed
G1 Y20 F1500 ; move to the Y=20mm position on the bed
G1 Y-20 F1500 ; move to the Y=20mm position on the bed
G1 Y20 F1500 ; move to the Y=20mm position on the bed
G1 Y-20 F1500 ; move to the Y=20mm position on the bed
G1 Y20 F1500 ; move to the Y=20mm position on the bed
G1 Y-20 F1500 ; move to the Y=20mm position on the bed
G1 Y20 F1500 ; move to the Y=20mm position on the bed
G1 Y-20 F1500 ; move to the Y=20mm position on the bed
G1 Y20 F1500 ; move to the Y=20mm position on the bed
G1 Y-20 F1500 ; move to the Y=20mm position on the bed
G1 Y20 F1500 ; move to the Y=20mm position on the bed
G1 Y-20 F1500 ; move to the Y=20mm position on the bed
G1 Y20 F1500 ; move to the Y=20mm position on the bed
G1 Y-20 F1500 ; move to the Y=20mm position on the bed
G1 Y20 F1500 ; move to the Y=20mm position on the bed
G1 Y-20 F1500 ; move to the Y=20mm position on the bed
G1 Y20 F1500 ; move to the Y=20mm position on the bed
G1 Y-20 F1500 ; move to the Y=20mm position on the bed
G1 Y20 F1500 ; move to the Y=20mm position on the bed
G1 Y-20 F1500 ; move to the Y=20mm position on the bed
G1 Y20 F1500 ; move to the Y=20mm position on the bed
G1 Y-20 F1500 ; move to the Y=20mm position on the bed
G1 Y20 F1500 ; move to the Y=20mm position on the bed
G1 Y-20 F1500 ; move to the Y=20mm position on the bed
G1 Y20 F1500 ; move to the Y=20mm position on the bed
G1 Y-20 F1500 ; move to the Y=20mm position on the bed
G1 Y20 F1500 ; move to the Y=20mm position on the bed
G1 Y-20 F1500 ; move to the Y=20mm position on the bed
G1 Y20 F1500 ; move to the Y=20mm position on the bed
G1 Y-20 F1500 ; move to the Y=20mm position on the bed
G1 Y20 F1500 ; move to the Y=20mm position on the bed
G1 Y-20 F1500 ; move to the Y=20mm position on the bed
G1 Y20 F1500 ; move to the Y=20mm position on the bed
G1 Y-20 F1500 ; move to the Y=20mm position on the bed
G1 Y20 F1500 ; move to the Y=20mm position on the bed
G1 Y-20 F1500 ; move to the Y=20mm position on the bed
G1 Y20 F1500 ; move to the Y=20mm position on the bed
G1 Y-20 F1500 ; move to the Y=20mm position on the bed
G1 Y20 F1500 ; move to the Y=20mm position on the bed
G1 Y-20 F1500 ; move to the Y=20mm position on the bed
G1 Y20 F1500 ; move to the Y=20mm position on the bed
G1 Y-20 F1500 ; move to the Y=20mm position on the bed
G1 Y20 F1500 ; move to the Y=20mm position on the bed
G1 Y-20 F1500 ; move to the Y=20mm position on the bed
G1 Y20 F1500 ; move to the Y=20mm position on the bed
G1 Y-20 F1500 ; move to the Y=20mm position on the bed
G1 Y20 F1500 ; move to the Y=20mm position on the bed
G1 Y-20 F1500 ; move to the Y=20mm position on the bed
G1 Y20 F1500 ; move to the Y=20mm position on the bed
G1 Y-20 F1500 ; move to the Y=20mm position on the bed
G1 Y20 F1500 ; move to the Y=20mm position on the bed
G1 Y-20 F1500 ; move to the Y=20mm position on the bed
G1 Y20 F1500 ; move to the Y=20mm position on the bed
G1 Y-20 F1500 ; move to the Y=20mm position on the bed
G1 Y20 F1500 ; move to the Y=20mm position on the bed
G1 Y-20 F1500 ; move to the Y=20mm position on the bed
G1 Y20 F1500 ; move to the Y=20mm position on the bed
G1 Y-20 F1500 ; move to the Y=20mm position on the bed
G1 Y20 F1500 ; move to the Y=20mm position on the bed
G1 Y-20 F1500 ; move to the Y=20mm position on the bed
G1 Y20 F1500 ; move to the Y=20mm position on the bed
G1 Y-20 F1500 ; move to the Y=20mm position on the bed
G1 Y20 F1500 ; move to the Y=20mm position on the bed
G1 Y-20 F1500 ; move to the Y=20mm position on the bed
G1 Y20 F1500 ; move to the Y=20mm position on the bed
G1 Y-20 F1500 ; move to the Y=20mm position on the bed
G1 Y20 F1500 ; move to the Y=20mm position on the bed
G1 Y-20 F1500 ; move to the Y=20mm position on the bed
G1 Y20 F1500 ; move to the Y=20mm position on the bed
G1 Y-20 F1500 ; move to the Y=20mm position on the bed
G1 Y20 F1500 ; move to the Y=20mm position on the bed
G1 Y-20 F1500 ; move to the Y=20mm position on the bed
G1 Y20 F1500 ; move to the Y=20mm position on the bed
G1 Y-20 F1500 ; move to the Y=20mm position on the bed
G1 Y20 F1500 ; move to the Y=20mm position on the bed
G1 Y-20 F1500 ; move to the Y=20mm position on the bed
G1 Y20 F1500 ; move to the Y=20mm position on the bed
G1 Y-20 F1500 ; move to the Y=20mm position on the bed
G1 Y20 F1500 ; move to the Y=20mm position on the bed
G1 Y-20 F1500 ; move to the Y=20mm position on the bed
G1 Y20 F1500 ; move to the Y=20mm position on the bed
G1 Y-20 F1500 ; move to the Y=20mm position on the bed
G1 Y20 F1500 ; move to the Y=20mm position on the bed
G1 Y-20 F1500 ; move to the Y=20mm position on the bed
G1 Y20 F1500 ; move to the Y=20mm position on the bed
G1 Y-20 F1500 ; move to the Y=20mm position on the bed
G1 Y20 F1500 ; move to the Y=20mm position on the bed
G1 Y-20 F1500 ; move to the Y=20mm position on the bed
G1 Y20 F1500 ; move to the Y=20mm position on the bed
G1 Y-20 F1500 ; move to the Y=20mm position on the bed
G1 Y20 F1500 ; move to the Y=20mm position on the bed
G1 Y-20 F1500 ; move to the Y=20mm position on the bed
G1 Y20 F1500 ; move to the Y=20mm position on the bed
G1 Y-20 F1500 ; move to the Y=20mm position on the bed
G1 Y20 F1500 ; move to the Y=20mm position on the bed
G1 Y-20 F1500 ; move to the Y=20mm position on the bed
G1 Y20 F1500 ; move to the Y=20mm position on the bed
G1 Y-20 F1500 ; move to the Y=20mm position on the bed
G1 Y20 F1500 ; move to the Y=20mm position on the bed
G1 Y-20 F1500 ; move to the Y=20mm position on the bed
G1 Y20 F1500 ; move to the Y=20mm position on the bed
G1 Y-20 F1500 ; move to the Y=20mm position on the bed
G1 Y20 F1500 ; move to the Y=20mm position on the bed
G1 Y-20 F1500 ; move to the Y=20mm position on the bed
G1 Y20 F1500 ; move to the Y=20mm position on the bed
G1 Y-20 F1500 ; move to the Y=20mm position on the bed
G1 Y20 F1500 ; move to the Y=20mm position on the bed
G1 Y-20 F1500 ; move to the Y=20mm position on the bed
G1 Y20 F1500 ; move to the Y=20mm position on the bed
G1 Y-20 F1500 ; move to the Y=20mm position on the bed
G1 Y20 F1500 ; move to the Y=20mm position on the bed
G1 Y-20 F1500 ; move to the Y=20mm position on the bed
G1 Y20 F1500 ; move to the Y=20mm position on the bed
G1 Y-20 F1500 ; move to the Y=20mm position on the bed
G1 Y20 F1500 ; move to the Y=20mm position on the bed
G1 Y-20 F1500 ; move to the Y=20mm position on the bed
G1 Y20 F1500 ; move to the Y=20mm position on the bed
G1 Y-20 F1500 ; move to the Y=20mm position on the bed
G1 Y20 F1500 ; move to the Y=20mm position on the bed
G1 Y-20 F1500 ; move to the Y=20mm position on the bed
G1 Y20 F1500 ; move to the Y=20mm position on the bed
G1 Y-20 F1500 ; move to the Y=20mm position on the bed
G1 Y20 F1500 ; move to the Y=20mm position on the bed
G1 Y-20 F1500 ; move to the Y=20mm position on the bed
G1 Y20 F1500 ; move to the Y=20mm position on the bed
G1 Y-20 F1500 ; move to the Y=20mm position on the bed
G1 Y20 F1500 ; move to the Y=20mm position on the bed
G1 Y-20 F1500 ; move to the Y=20mm position on the bed
G1 Y20 F1500 ; move to the Y=20mm position on the bed
G1 Y-20 F1500 ; move to the Y=20mm position on the bed
G1 Y20 F1500 ; move to the Y=20mm position on the bed
G1 Y-20 F1500 ; move to the Y=20mm position on the bed
G1 Y20 F1500 ; move to the Y=20mm position on the bed
G1 Y-20 F1500 ; move to the Y=20mm position on the bed
G1 Y20 F1500 ; move to the Y=20mm position on the bed
G1 Y-20 F1500 ; move to the Y=20mm position on the bed
G1 Y20 F1500 ; move to the Y=20mm position on the bed
G1 Y-20 F1500 ; move to the Y=20mm position on the bed
G1 Y20 F1500 ; move to the Y=20mm position on the bed
G1 Y-20 F1500 ; move to the Y=20mm position on the bed
G1 Y20 F1500 ; move to the Y=20mm position on the bed
G1 Y-20 F1500 ; move to the Y=20mm position on the bed
G1 Y20 F1500 ; move to the Y=20mm position on the bed
G1 Y-20 F1500 ; move to the Y=20mm position on the bed
G1 Y20 F1500 ; move to the Y=20mm position on the bed
G1 Y-20 F1500 ; move to the Y=20mm position on the bed
G1 Y20 F1500 ; move to the Y=20mm position on the bed
G1 Y-20 F1500 ; move to the Y=20mm position on the bed
G1 Y20 F1500 ; move to the Y=20mm position on the bed
G1 Y-20 F1500 ; move to the Y=20mm position on the bed
G1 Y20 F1500 ; move to the Y=20mm position on the bed
G1 Y-20 F1500 ; move to the Y=20mm position on the bed
G1 Y20 F1500 ; move to the Y=20mm position on the bed
G1 Y-20 F1500 ; move to the Y=20mm position on the bed
G1 Y20 F1500 ; move to the Y=20mm position on the bed
G1 Y-20 F1500 ; move to the Y=20mm position on the bed
G1 Y20 F1500 ; move to the Y=20mm position on the bed
G1 Y-20 F1500 ; move to the Y=20mm position on the bed
G1 Y20 F1500 ; move to the Y=20mm position on the bed
G1 Y-20 F1500 ; move to the Y=20mm position on the bed
G1 Y20 F1500 ; move to the Y=20mm position on the bed
G1 Y-20 F1500 ; move to the Y=20mm position on the bed
G1 Y20 F1500 ; move to the Y=20mm position on the bed
G1 Y-20 F1500 ; move to the Y=20mm position on the bed
G1 Y20 F1500 ; move to the Y=20mm position on the bed
G1 Y-20 F1500 ; move to the Y=20mm position on the bed
G1 Y20 F1500 ; move to the Y=20mm position on the bed
G1 Y-20 F1500 ; move to the Y=20mm position on the bed
G1 Y20 F1500 ; move to the Y=20mm position on the bed
G1 Y-20 F1500 ; move to the Y=20mm position on the bed
G1 Y20 F1500 ; move to the Y=20mm position on the bed
G1 Y-20 F1500 ; move to the Y=20mm position on the bed
G1 Y20 F1500 ; move to the Y=20mm position on the bed
G1 Y-20 F1500 ; move to the Y=20mm position on the bed
G1 Y20 F1500 ; move to the Y=20mm position on the bed
G1 Y-20 F1500 ; move to the Y=20mm position on the bed
G1 Y20 F1500 ; move to the Y=20mm position on the bed
G1 Y-20 F1500 ; move to the Y=20mm position on the bed
G1 Y20 F1500 ; move to the Y=20mm position on the bed
G1 Y-20 F1500 ; move to the Y=20mm position on the bed
G1 Y20 F1500 ; move to the Y=20mm position on the bed
G1 Y-20 F1500 ; move to the Y=20mm position on the bed
G1 Y20 F1500 ; move to the Y=20mm position on the bed
G1 Y-20 F1500 ; move to the Y=20mm position on the bed
G1 Y20 F1500 ; move to the Y=20mm position on the bed
G1 Y-20 F1500 ; move to the Y=20mm position on the bed
G1 Y20 F1500 ; move to the Y=20mm position on the bed
G1 Y-20 F1500 ; move to the Y=20mm position on the bed
G1 Y20 F1500 ; move to the Y=20mm position on the bed
G1 Y-20 F1500 ; move to the Y=20mm position on the bed
G1 Y20 F1500 ; move to the Y=20mm position on the bed
G1 Y-20 F1500 ; move to the Y=20mm position on the bed
G1 Y20 F1500 ; move to the Y=20mm position on the bed
G1 Y-20 F1500 ; move to the Y=20mm position on the bed
G1 Y20 F1500 ; move to the Y=20mm position on the bed
G1 Y-20 F1500 ; move to the Y=20mm position on the bed
G1 Y20 F1500 ; move to the Y=20mm position on the bed
G1 Y-20 F1500 ; move to the Y=20mm position on the bed
G1 Y20 F1500 ; move to the Y=20mm position on the bed
G1 Y-20 F1500 ; move to the Y=20mm position on the bed
G1 Y20 F1500 ; move to the Y=20mm position on the bed
G1 Y-20 F1500 ; move to the Y=20mm position on the bed
G1 Y20 F1500 ; move to the Y=20mm position on the bed
G1 Y-20 F1500 ; move to the Y=20mm position on the bed
G1 Y20 F1500 ; move to the Y=20mm position on the bed
G1 Y-20 F1500 ; move to the Y=20mm position on the bed
G1 Y20 F1500 ; move to the Y=20mm position on the bed
G1 Y-20 F1500 ; move to the Y=20mm position on the bed
G1 Y20 F1500 ; move to the Y=20mm position on the bed
G1 Y-20 F1500 ; move to the Y=20mm position on the bed
G1 Y20 F1500 ; move to the Y=20mm position on the bed
G1 Y-20 F1500 ; move to the Y=20mm position on the bed
G1 Y20 F1500 ; move to the Y=20mm position on the bed
G1 Y-20 F1500 ; move to the Y=20mm position on the bed
G1 Y20 F1500 ; move to the Y=20mm position on the bed
G1 Y-20 F1500 ; move to the Y=20mm position on the bed
G1 Y20 F1500 ; move to the Y=20mm position on the bed
G1 Y-20 F1500 ; move to the Y=20mm position on the bed
G1 Y20 F1500 ; move to the Y=20mm position on the bed
G1 Y-20 F1500 ; move to the Y=20mm position on the bed
G1 Y20 F1500 ; move to the Y=20mm position on the bed
G1 Y-20 F1500 ; move to the Y=20mm position on the bed
G1 Y20 F1500 ; move to the Y=20mm position on the bed
G1 Y-20 F1500 ; move to the Y=20mm position on the bed
G1 Y20 F1500 ; move to the Y=20mm position on the bed
G1 Y-20 F1500 ; move to the Y=20mm position on the bed
G1 Y20 F1500 ; move to the Y=20mm position on the bed
G1 Y-20 F1500 ; move to the Y=20mm position on the bed
G1 Y20 F1500 ; move to the Y=20mm position on the bed
G1 Y-20 F1500 ; move to the Y=20mm position on the bed
G1 Y20 F1500 ; move to the Y=20mm position on the bed
G1 Y-20 F1500 ; move to the Y=20mm position on the bed
G1 Y20 F1500 ; move to the Y=20mm position on the bed
G1 Y-20 F1500 ; move to the Y=20mm position on the bed
G1 Y20 F1500 ; move to the Y=20mm position on the bed
G1 Y-20 F1500 ; move to the Y=20mm position on the bed
G1 Y20 F1500 ; move to the Y=20mm position on the bed
G1 Y-20 F1500 ; move to the Y=20mm position on the bed
G1 Y20 F1500 ; move to the Y=20mm position on the bed
G1 Y-20 F1500 ; move to the Y=20mm position on the bed
G1 Y20 F1500 ; move to the Y=20mm position on the bed
G1 Y-20 F1500 ; move to the Y=20mm position on the bed
G1 Y20 F1500 ; move to the Y=20mm position on the bed
G1 Y-20 F1500 ; move to the Y=20mm position on the bed
G1 Y20 F1500 ; move to the Y=20mm position on the bed
G1 Y-20 F1500 ; move to the Y=20mm position on the bed
G1 Y20 F1500 ; move to the Y=20mm position on the bed
G1 Y-20 F1500 ; move to the Y=20mm position on the bed
G1 Y20 F1500 ; move to the Y=20mm position on the bed
G1 Y-20 F1500 ; move to the Y=20mm position on the bed
G1 Y20 F1500 ; move to the Y=20mm position on the bed
G1 Y-20 F1500 ; move to the Y=20mm position on the bed
G1 Y20 F1500 ; move to the Y=20mm position on the bed
G1 Y-20 F1500 ; move to the Y=20mm position on the bed
G1 Y20 F1500 ; move to the Y=20mm position on the bed
G1 Y-20 F1500 ; move to the Y=20mm position on the bed
G1 Y20 F1500 ; move to the Y=20mm position on the bed
G1 Y-20 F1500 ; move to the Y=20mm position on the bed
G1 Y20 F1500 ; move to the Y=20mm position on the bed
G1 Y-20 F1500 ; move to the Y=20mm position on the bed
G1 Y20 F1500 ; move to the Y=20mm position on the bed
G1 Y-20 F1500 ; move to the Y=20mm position on the bed
G1 Y20 F1500 ; move to the Y=20mm position on the bed
G1 Y-20 F1500 ; move to the Y=20mm position on the bed
G1 Y20 F1500 ; move to the Y=20mm position on the bed
G1 Y-20 F1500 ; move to the Y=20mm position on the bed
G1 Y20 F1500 ; move to the Y=20mm position on the bed
G1 Y-20 F1500 ; move to the Y=20mm position on the bed
G1 Y20 F1500 ; move to the Y=20mm position on the bed
G1 Y-20 F1500 ; move to the Y=20mm position on the bed
G1 Y20 F1500 ; move to the Y=20mm position on the bed
G1 Y-20 F1500 ; move to the Y=20mm position on the bed
G1 Y20 F1500 ; move to the Y=20mm position on the bed
G1 Y-20 F1500 ; move to the Y=20mm position on the bed
G1 Y20 F1500 ; move to the Y=20mm position on the bed
G1 Y-20 F1500 ; move to the Y=20mm position on the bed
G1 Y20 F1500 ; move to the Y=20mm position on the bed
G1 Y-20 F1500 ; move to the Y=20mm position on the bed
G1 Y20 F1500 ; move to the Y=20mm position on the bed
G1 Y-20 F1500 ; move to the Y=20mm position on the bed
G1 Y20 F1500 ; move to the Y=20mm position on the bed
G1 Y-20 F1500 ; move to the Y=20mm position on the bed
G1 Y20 F1500 ; move to the Y=20mm position on the bed
G1 Y-20 F1500 ; move to the Y=20mm position on the bed
G1 Y20 F1500 ; move to the Y=20mm position on the bed
G1 Y-20 F1500 ; move to the Y=20mm position on the bed
G1 Y20 F1500 ; move to the Y=20mm position on the bed
G1 Y-20 F1500 ; move to the Y=20mm position on the bed
G1 Y20 F1500 ; move to the Y=20mm position on the bed
G1 Y-20 F1500 ; move to the Y=20mm position on the bed
G1 Y20 F1500 ; move to the Y=20mm position on the bed
G1 Y-20 F1500 ; move to the Y=20mm position on the bed
G1 Y20 F1500 ; move to the Y=20mm position on the bed
G1 Y-20 F1500 ; move to the Y=20mm position on the bed
G1 Y20 F1500 ; move to the Y=20mm position on the bed
G1 Y-20 F1500 ; move to the Y=20mm position on the bed
G1 Y20 F1500 ; move to the Y=20mm position on the bed
G1 Y-20 F1500 ; move to the Y=20mm position on the bed
G1 Y20 F1500 ; move to the Y=20mm position on the bed
G1 Y-20 F1500 ; move to the Y=20mm position on the bed
G1 Y20 F1500 ; move to the Y=20mm position on the bed
G1 Y-20 F1500 ; move to the Y=20mm position on the bed
G1 Y20 F1500 ; move to the Y=20mm position on the bed
G1 Y-20 F1500 ; move to the Y=20mm position on the bed
G1 Y20 F1500 ; move to the Y=20mm position on the bed
G1 Y-20 F1500 ; move to the Y=20mm position on the bed
G1 Y20 F1500 ; move to the Y=20mm position on the bed
G1 Y-20 F1500 ; move to the Y=20mm position on the bed
G1 Y20 F1500 ; move to the Y=20mm position on the bed
G1 Y-20 F1500 ; move to the Y=20mm position on the bed
G1 Y20 F1500 ; move to the Y=20mm position on the bed
G1 Y-20 F1500 ; move to the Y=20mm position on the bed
G1 Y20 F1500 ; move to the Y=20mm position on the bed
G1 Y-20 F1500 ; move to the Y=20mm position on the bed
G1 Y20 F1500 ; move to the Y=20mm position on the bed
G1 Y-20 F1500 ; move to the Y=20mm position on the bed
G1 Y20 F1500 ; move to the Y=20mm position on the bed
G1 Y-20 F1500 ; move to the Y=20mm position on the bed
G1 Y20 F1500 ; move to the Y=20mm position on the bed
G1 Y-20 F1500 ; move to the Y=20mm position on the bed
G1 Y20 F1500 ; move to the Y=20mm position on the bed
G1 Y-20 F1500 ; move to the Y=20mm position on the bed
G1 Y20 F1500 ; move to the Y=20mm position on the bed
G1 Y-20 F1500 ; move to the Y=20mm position on the bed
G1 Y20 F1500 ; move to the Y=20mm position on the bed
G1 Y-20 F1500 ; move to the Y=20mm position on the bed
G1 Y20 F1500 ; move to the Y=20mm position on the bed
G1 Y-20 F1500 ; move to the Y=20mm position on the bed
G1 Y20 F1500 ; move to the Y=20mm position on the bed
G1 Y-20 F1500 ; move to the Y=20mm position on the bed
G1 Y20 F1500 ; move to the Y=20mm position on the bed
G1 Y-20 F1500 ; move to the Y=20mm position on the bed
G1 Y20 F1500 ; move to the Y=20mm position on the bed
G1 Y-20 F1500 ; move to the Y=20mm position on the bed
G1 Y20 F1500 ; move to the Y=20mm position on the bed
G1 Y-20 F1500 ; move to the Y=20mm position on the bed
G1 Y20 F1500 ; move to the Y=20mm position on the bed
G1 Y-20 F1500 ; move to the Y=20mm position on the bed
G1 Y20 F1500 ; move to the Y=20mm position on the bed
G1 Y-20 F1500 ; move to the Y=20mm position on the bed
G1 Y20 F1500 ; move to the Y=20mm position on the bed
G1 Y-20 F1500 ; move to the Y=20mm position on the bed
G1 Y20 F1500 ; move to the Y=20mm position on the bed
G1 Y-20 F1500 ; move to the Y=20mm position on the bed
G1 Y20 F1500 ; move to the Y=20mm position on the bed
G1 Y-20 F1500 ; move to the Y=20mm position on the bed
G1 Y20 F1500 ; move to the Y=20mm position on the bed
G1 Y-20 F1500 ; move to the Y=20mm position on the bed
G1 Y20 F1500 ; move to the Y=20mm position on the bed
G1 Y-20 F1500 ; move to the Y=20mm position on the bed
G1 Y20 F1500 ; move to the Y=20mm position on the bed
G1 Y-20 F1500 ; move to the Y=20mm position on the bed
G1 Y20 F1500 ; move to the Y=20mm position on the bed
G1 Y-20 F1500 ; move to the Y=20mm position on the bed
G1 Y20 F1500 ; move to the Y=20mm position on the bed
G1 Y-20 F1500 ; move to the Y=20mm position on the bed
G1 Y20 F1500 ; move to the Y=20mm position on the bed
G1 Y-20 F1500 ; move to the Y=20mm position on the bed
G1 Y20 F1500 ; move to the Y=20mm position on the bed
G1 Y-20 F1500 ; move to the Y=20mm position on the bed
G1 Y20 F1500 ; move to the Y=20mm position on the bed
G1 Y-20 F1500 ; move to the Y=20mm position on the bed
G1 Y20 F1500 ; move to the Y=20mm position on the bed
G1 Y-20 F1500 ; move to the Y=20mm position on the bed
G1 Y20 F1500 ; move to the Y=20mm position on the bed
G1 Y-20 F1500 ; move to the Y=20mm position on the bed
G1 Y20 F1500 ; move to the Y=20mm position on the bed
G1 Y-20 F1500 ; move to the Y=20mm position on the bed
G1 Y20 F1500 ; move to the Y=20mm position on the bed
G1 Y-20 F1500 ; move to the Y=20mm position on the bed
G1 Y20 F1500 ; move to the Y=20mm position on the bed
G1 Y-20 F1500 ; move to the Y=20mm position on the bed
G1 Y20 F1500 ; move to the Y=20mm position on the bed
G1 Y-20 F1500 ; move to the Y=20mm position on the bed
G1 Y20 F1500 ; move to the Y=20mm position on the bed
G1 Y-20 F1500 ; move to the Y=20mm position on the bed
G1 Y20 F1500 ; move to the Y=20mm position on the bed
G1 Y-20 F1500 ; move to the Y=20mm position on the bed
G1 Y20 F1500 ; move to the Y=20mm position on the bed
G1 Y-20 F1500 ; move to the Y=20mm position on the bed
G1 Y20 F1500 ; move to the Y=20mm position on the bed
G1 Y-20 F1500 ; move to the Y=20mm position on the bed
G1 Y20 F1500 ; move to the Y=20mm position on the bed
G1 Y-20 F1500 ; move to the Y=20mm position on the bed
G1 Y20 F1500 ; move to the Y=20mm position on the bed
G1 Y-20 F1500 ; move to the Y=20mm position on the bed
G1 Y20 F1500 ; move to the Y=20mm position on the bed
G1 Y-20 F1500 ; move to the Y=20mm position on the bed
G1 Y20 F1500 ; move to the Y=20mm position on the bed
G1 Y-20 F1500 ; move to the Y=20mm position on the bed
G1 Y20 F1500 ; move to the Y=20mm position on the bed
G1 Y-20 F1500 ; move to the Y=20mm position on the bed
G1 Y20 F1500 ; move to the Y=20mm position on the bed
G1 Y-20 F1500 ; move to the Y=20mm position on the bed
G1 Y20 F1500 ; move to the Y=20mm position on the bed
G1 Y-20 F1500 ; move to the Y=20mm position on the bed
G1 Y20 F1500 ; move to the Y=20mm position on the bed
G1 Y-20 F1500 ; move to the Y=20mm position on the bed
G1 Y20 F1500 ; move to the Y=20mm position on the bed
G1 Y-20 F1500 ; move to the Y=20mm position on the bed
G1 Y20 F1500 ; move to the Y=20mm position on the bed
G1 Y-20 F1500 ; move to the Y=20mm position on the bed
G1 Y20 F1500 ; move to the Y=20mm position on the bed
G1 Y-20 F1500 ; move to the Y=20mm position on the bed
G1 Y20 F1500 ; move to the Y=20mm position on the bed
G1 Y-20 F1500 ; move to the Y=20mm position on the bed
G1 Y20 F1500 ; move to the Y=20mm position on the bed
G1 Y-20 F1500 ; move to the Y=20mm position on the bed
G1 Y20 F1500 ; move to the Y=20mm position on the bed
G1 Y-20 F1500 ; move to the Y=20mm position on the bed
G1 Y20 F1500 ; move to the Y=20mm position on the bed
G1 Y-20 F1500 ; move to the Y=20mm position on the bed
G1 Y20 F1500 ; move to the Y=20mm position on the bed
G1 Y-20 F1500 ; move to the Y=20mm position on the bed
G1 Y20 F1500 ; move to the Y=20mm position on the bed
G1 Y-20 F1500 ; move to the Y=20mm position on the bed
G1 Y20 F1500 ; move to the Y=20mm position on the bed
G1 Y-20 F1500 ; move to the Y=20mm position on the bed
G1 Y20 F1500 ; move to the Y=20mm position on the bed
G1 Y-20 F1500 ; move to the Y=20mm position on the bed
G1 Y20 F1500 ; move to the Y=20mm position on the bed
G1 Y-20 F1500 ; move to the Y=20mm position on the bed
G1 Y20 F1500 ; move to the Y=20mm position on the bed
G1 Y-20 F1500 ; move to the Y=20mm position on the bed
G1 Y20 F1500 ; move to the Y=20mm position on the bed
G1 Y-20 F1500 ; move to the Y=20mm position on the bed
G1 Y20 F1500 ; move to the Y=20mm position on the bed
G1 Y-20 F1500 ; move to the Y=20mm position on the bed
G1 Y20 F1500 ; move to the Y=20mm position on the bed
G1 Y-20 F1500 ; move to the Y=20mm position on the bed
G1 Y20 F1500 ; move to the Y=20mm position on the bed
G1 Y-20 F1500 ; move to the Y=20mm position on the bed
G1 Y20 F1500 ; move to the Y=20mm position on the bed
G1 Y-20 F1500 ; move to the Y=20mm position on the bed
G1 Y20 F1500 ; move to the Y=20mm position on the bed
G1 Y-20 F1500 ; move to the Y=20mm position on the bed
G1 Y20 F1500 ; move to the Y=20mm position on the bed
G1 Y-20 F1500 ; move to the Y=20mm position on the bed
G1 Y20 F1500 ; move to the Y=20mm position on the bed
G1 Y-20 F1500 ; move to the Y=20mm position on the bed
G1 Y20 F1500 ; move to the Y=20mm position on the bed
G1 Y-20 F1500 ; move to the Y=20mm position on the bed
G1 Y20 F1500 ; move to the Y=20mm position on the bed
G1 Y-20 F1500 ; move to the Y=20mm position on the bed
G1 Y20 F1500 ; move to the Y=20mm position on the bed
G1 Y-20 F1500 ; move to the Y=20mm position on the bed
G1 Y20 F1500 ; move to the Y=20mm position on the bed
G1 Y-20 F1500 ; move to the Y=20mm position on the bed
G1 Y20 F1500 ; move to the Y=20mm position on the bed
G1 Y-20 F1500 ; move to the Y=20mm position on the bed
G1 Y20 F1500 ; move to the Y=20mm position on the bed
G1 Y-20 F1500 ; move to the Y=20mm position on the bed
G1 Y20 F1500 ; move to the Y=20mm position on the bed
G1 Y-20 F1500 ; move to the Y=20mm position on the bed
G1 Y20 F1500 ; move to the Y=20mm position on the bed
G1 Y-20 F1500 ; move to the Y=20mm position on the bed
G1 Y20 F1500 ; move to the Y=20mm position on the bed
G1 Y-20 F1500 ; move to the Y=20mm position on the bed
G1 Y20 F1500 ; move to the Y=20mm position on the bed
G1 Y-20 F1500 ; move to the Y=20mm position on the bed
G1 Y20 F1500 ; move to the Y=20mm position on the bed
G1 Y-20 F1500 ; move to the Y=20mm position on the bed
G1 Y20 F1500 ; move to the Y=20mm position on the bed
G1 Y-20 F1500 ; move to the Y=20mm position on the bed
G1 Y20 F1500 ; move to the Y=20mm position on the bed
G1 Y-20 F1500 ; move to the Y=20mm position on the bed
G1 Y20 F1500 ; move to the Y=20mm position on the bed
G1 Y-20 F1500 ; move to the Y=20mm position on the bed
G1 Y20 F1500 ; move to the Y=20mm position on the bed
G1 Y-20 F1500 ; move to the Y=20mm position on the bed
G1 Y20 F1500 ; move to the Y=20mm position on the bed
G1 Y-20 F1500 ; move to the Y=20mm position on the bed
G1 Y20 F1500 ; move to the Y=20mm position on the bed
G1 Y-20 F1500 ; move to the Y=20mm position on the bed
G1 Y20 F1500 ; move to the Y=20mm position on the bed
G1 Y-20 F1500 ; move to the Y=20mm position on the bed
G1 Y20 F1500 ; move to the Y=20mm position on the bed
G1 Y-20 F1500 ; move to the Y=20mm position on the bed
G1 Y20 F1500 ; move to the Y=20mm position on the bed
G1 Y-20 F1500 ; move to the Y=20mm position on the bed
G1 Y20 F1500 ; move to the Y=20mm position on the bed
G1 Y-20 F1500 ; move to the Y=20mm position on the bed
G1 Y20 F1500 ; move to the Y=20mm position on the bed
G1 Y-20 F1500 ; move to the Y=20mm position on the bed
G1 Y20 F1500 ; move to the Y=20mm position on the bed
G1 Y-20 F1500 ; move to the Y=20mm position on the bed
G1 Y20 F1500 ; move to the Y=20mm position on the bed
G1 Y-20 F1500 ; move to the Y=20mm position on the bed
G1 Y20 F1500 ; move to the Y=20mm position on the bed
G1 Y-20 F1500 ; move to the Y=20mm position on the bed
G1 Y20 F1500 ; move to the Y=20mm position on the bed
G1 Y-20 F1500 ; move to the Y=20mm position on the bed
G1 Y20 F1500 ; move to the Y=20mm position on the bed
G1 Y-20 F1500 ; move to the Y=20mm position on the bed
G1 Y20 F1500 ; move to the Y=20mm position on the bed
G1 Y-20 F1500 ; move to the Y=20mm position on the bed
G1 Y20 F1500 ; move to the Y=20mm position on the bed
G1 Y-20 F1500 ; move to the Y=20mm position on the bed
G1 Y20 F1500 ; move to the Y=20mm position on the bed
G1 Y-20 F1500 ; move to the Y=20mm position on the bed
G1 Y20 F1500 ; move to the Y=20mm position on the bed
G1 Y-20 F1500 ; move to the Y=20mm position on the bed
G1 Y20 F1500 ; move to the Y=20mm position on the bed
G1 Y-20 F1500 ; move to the Y=20mm position on the bed
G1 Y20 F1500 ; move to the Y=20mm position on the bed
G1 Y-20 F1500 ; move to the Y=20mm position on the bed
G1 Y20 F1500 ; move to the Y=20mm position on the bed
G1 Y-20 F1500 ; move to the Y=20mm position on the bed
G1 Y20 F1500 ; move to the Y=20mm position on the bed
G1 Y-20 F1500 ; move to the Y=20mm position on the bed
G1 Y20 F1500 ; move to the Y=20mm position on the bed
G1 Y-20 F1500 ; move to the Y=20mm position on the bed
G1 Y20 F1500 ; move to the Y=20mm position on the bed
G1 Y-20 F1500 ; move to the Y=20mm position on the bed
G1 Y20 F1500 ; move to the Y=20mm position on the bed
G1 Y-20 F1500 ; move to the Y=20mm position on the bed
G1 Y20 F1500 ; move to the Y=20mm position on the bed
G1 Y-20 F1500 ; move to the Y=20mm position on the bed
G1 Y20 F1500 ; move to the Y=20mm position on the bed
G1 Y-20 F1500 ; move to the Y=20mm position on the bed
G1 Y20 F1500 ; move to the Y=20mm position on the bed
G1 Y-20 F1500 ; move to the Y=20mm position on the bed
G1 Y20 F1500 ; move to the Y=20mm position on the bed
G1 Y-20 F1500 ; move to the Y=20mm position on the bed
G1 Y20 F1500 ; move to the Y=20mm position on the bed
G1 Y-20 F1500 ; move to the Y=20mm position on the bed
G1 Y20 F1500 ; move to the Y=20mm position on the bed
G1 Y-20 F1500 ; move to the Y=20mm position on the bed
G1 Y20 F1500 ; move to the Y=20mm position on the bed
G1 Y-20 F1500 ; move to the Y=20mm position on the bed
G1 Y20 F1500 ; move to the Y=20mm position on the bed
G1 Y-20 F1500 ; move to the Y=20mm position on the bed
G1 Y20 F1500 ; move to the Y=20mm position on the bed
G1 Y-20 F1500 ; move to the Y=20mm position on the bed
G1 Y20 F1500 ; move to the Y=20mm position on the bed
G1 Y-20 F1500 ; move to the Y=20mm position on the bed
G1 Y20 F1500 ; move to the Y=20mm position on the bed
G1 Y-20 F1500 ; move to the Y=20mm position on the bed
G1 Y20 F1500 ; move to the Y=20mm position on the bed
G1 Y-20 F1500 ; move to the Y=20mm position on the bed
G1 Y20 F1500 ; move to the Y=20mm position on the bed
G1 Y-20 F1500 ; move to the Y=20mm position on the bed
G1 Y20 F1500 ; move to the Y=20mm position on the bed
G1 Y-20 F1500 ; move to the Y=20mm position on the bed
G1 Y20 F1500 ; move to the Y=20mm position on the bed
G1 Y-20 F1500 ; move to the Y=20mm position on the bed
G1 Y20 F1500 ; move to the Y=20mm position on the bed
G1 Y-20 F1500 ; move to the Y=20mm position on the bed
G1 Y20 F1500 ; move to the Y=20mm position on the bed
G1 Y-20 F1500 ; move to the Y=20mm position on the bed
G1 Y20 F1500 ; move to the Y=20mm position on the bed
G1 Y-20 F1500 ; move to the Y=20mm position on the bed
G1 Y20 F1500 ; move to the Y=20mm position on the bed
G1 Y-20 F1500 ; move to the Y=20mm position on the bed
G1 Y20 F1500 ; move to the Y=20mm position on the bed
G1 Y-20 F1500 ; move to the Y=20mm position on the bed
G1 Y20 F1500 ; move to the Y=20mm position on the bed
G1 Y-20 F1500 ; move to the Y=20mm position on the bed
G1 Y20 F1500 ; move to the Y=20mm position on the bed
G1 Y-20 F1500 ; move to the Y=20mm position on the bed
G1 Y20 F1500 ; move to the Y=20mm position on the bed
G1 Y-20 F1500 ; move to the Y=20mm position on the bed
G1 Y20 F1500 ; move to the Y=20mm position on the bed
G1 Y-20 F1500 ; move to the Y=20mm position on the bed
G1 Y20 F1500 ; move to the Y=20mm position on the bed
G1 Y-20 F1500 ; move to the Y=20mm position on the bed
G1 Y20 F1500 ; move to the Y=20mm position on the bed
G1 Y-20 F1500 ; move to the Y=20mm position on the bed
G1 Y20 F1500 ; move to the Y=20mm position on the bed
G1 Y-20 F1500 ; move to the Y=20mm position on the bed
G1 Y20 F1500 ; move to the Y=20mm position on the bed
G1 Y-20 F1500 ; move to the Y=20mm position on the bed
G1 Y20 F1500 ; move to the Y=20mm position on the bed
G1 Y-20 F1500 ; move to the Y=20mm position on the bed
G1 Y20 F1500 ; move to the Y=20mm position on the bed
G1 Y-20 F1500 ; move to the Y=20mm position on the bed
G1 Y20 F1500 ; move to the Y=20mm position on the bed
G1 Y-20 F1500 ; move to the Y=20mm position on the bed
G1 Y20 F1500 ; move to the Y=20mm position on the bed
G1 Y-20 F1500 ; move to the Y=20mm position on the bed
G1 Y20 F1500 ; move to the Y=20mm position on the bed
G1 Y-20 F1500 ; move to the Y=20mm position on the bed
G1 Y20 F1500 ; move to the Y=20mm position on the bed
G1 Y-20 F1500 ; move to the Y=20mm position on the bed
G1 Y20 F1500 ; move to the Y=20mm position on the bed
G1 Y-20 F1500 ; move to the Y=20mm position on the bed
G1 Y20 F1500 ; move to the Y=20mm position on the bed
G1 Y-20 F1500 ; move to the Y=20mm position on the bed
G1 Y20 F1500 ; move to the Y=20mm position on the bed
G1 Y-20 F1500 ; move to the Y=20mm position on the bed
G1 Y20 F1500 ; move to the Y=20mm position on the bed
G1 Y-20 F1500 ; move to the Y=20mm position on the bed
G1 Y20 F1500 ; move to the Y=20mm position on the bed
G1 Y-20 F1500 ; move to the Y=20mm position on the bed
G1 Y20 F1500 ; move to the Y=20mm position on the bed
G1 Y-20 F1500 ; move to the Y=20mm position on the bed
G1 Y20 F1500 ; move to the Y=20mm position on the bed
G1 Y-20 F1500 ; move to the Y=20mm position on the bed
G1 Y20 F1500 ; move to the Y=20mm position on the bed
G1 Y-20 F1500 ; move to the Y=20mm position on the bed
G1 Y20 F1500 ; move to the Y=20mm position on the bed
G1 Y-20 F1500 ; move to the Y=20mm position on the bed
G1 Y20 F1500 ; move to the Y=20mm position on the bed
G1 Y-20 F1500 ; move to the Y=20mm position on the bed
G1 Y20 F1500 ; move to the Y=20mm position on the bed
G1 Y-20 F1500 ; move to the Y=20mm position on the bed
G1 Y20 F1500 ; move to the Y=20mm position on the bed
G1 Y-20 F1500 ; move to the Y=20mm position on the bed
G1 Y20 F1500 ; move to the Y=20mm position on the bed
G1 Y-20 F1500 ; move to the Y=20mm position on the bed
G1 Y20 F1500 ; move to the Y=20mm position on the bed
G1 Y-20 F1500 ; move to the Y=20mm position on the bed
G1 Y20 F1500 ; move to the Y=20mm position on the bed
G1 Y-20 F1500 ; move to the Y=20mm position on the bed
G1 Y20 F1500 ; move to the Y=20mm position on the bed
G1 Y-20 F1500 ; move to the Y=20mm position on the bed
G1 Y20 F1500 ; move to the Y=20mm position on the bed
G1 Y-20 F1500 ; move to the Y=20mm position on the bed
G1 Y20 F1500 ; move to the Y=20mm position on the bed
G1 Y-20 F1500 ; move to the Y=20mm position on the bed
G1 Y20 F1500 ; move to the Y=20mm position on the bed
G1 Y-20 F1500 ; move to the Y=20mm position on the bed
G1 Y20 F1500 ; move to the Y=20mm position on the bed
G1 Y-20 F1500 ; move to the Y=20mm position on the bed
G1 Y20 F1500 ; move to the Y=20mm position on the bed
G1 Y-20 F1500 ; move to the Y=20mm position on the bed
G1 Y20 F1500 ; move to the Y=20mm position on the bed
G1 Y-20 F1500 ; move to the Y=20mm position on the bed
G1 Y20 F1500 ; move to the Y=20mm position on the bed
G1 Y-20 F1500 ; move to the Y=20mm position on the bed
G1 Y20 F1500 ; move to the Y=20mm position on the bed
G1 Y-20 F1500 ; move to the Y=20mm position on the bed
G1 Y20 F1500 ; move to the Y=20mm position on the bed
G1 Y-20 F1500 ; move to the Y=20mm position on the bed
G1 Y20 F1500 ; move to the Y=20mm position on the bed
G1 Y-20 F1500 ; move to the Y=20mm position on the bed
G1 Y20 F1500 ; move to the Y=20mm position on the bed
G1 Y-20 F1500 ; move to the Y=20mm position on the bed
G1 Y20 F1500 ; move to the Y=20mm position on the bed
G1 Y-20 F1500 ; move to the Y=20mm position on the bed
G1 Y20 F1500 ; move to the Y=20mm position on the bed
G1 Y-20 F1500 ; move to the Y=20mm position on the bed
G1 Y20 F1500 ; move to the Y=20mm position on the bed
G1 Y-20 F1500 ; move to the Y=20mm position on the bed
G1 Y20 F1500 ; move to the Y=20mm position on the bed
G1 Y-20 F1500 ; move to the Y=20mm position on the bed
G1 Y20 F1500 ; move to the Y=20mm position on the bed
G1 Y-20 F1500 ; move to the Y=20mm position on the bed
G1 Y20 F1500 ; move to the Y=20mm position on the bed
G1 Y-20 F1500 ; move to the Y=20mm position on the bed
G1 Y20 F1500 ; move to the Y=20mm position on the bed
G1 Y-20 F1500 ; move to the Y=20mm position on the bed
G1 Y20 F1500 ; move to the Y=20mm position on the bed
G1 Y-20 F1500 ; move to the Y=20mm position on the bed
G1 Y20 F1500 ; move to the Y=20mm position on the bed
G1 Y-20 F1500 ; move to the Y=20mm position on the bed
G1 Y20 F1500 ; move to the Y=20mm position on the bed
G1 Y-20 F1500 ; move to the Y=20mm position on the bed
G1 Y20 F1500 ; move to the Y=20mm position on the bed
G1 Y-20 F1500 ; move to the Y=20mm position on the bed
G1 Y20 F1500 ; move to the Y=20mm position on the bed
G1 Y-20 F1500 ; move to the Y=20mm position on the bed
G1 Y20 F1500 ; move to the Y=20mm position on the bed
G1 Y-20 F1500 ; move to the Y=20mm position on the bed
G1 Y20 F1500 ; move to the Y=20mm position on the bed
G1 Y-20 F1500 ; move to the Y=20mm position on the bed
G1 Y20 F1500 ; move to the Y=20mm position on the bed
G1 Y-20 F1500 ; move to the Y=20mm position on the bed
G1 Y20 F1500 ; move to the Y=20mm position on the bed
G1 Y-20 F1500 ; move to the Y=20mm position on the bed
G1 Y20 F1500 ; move to the Y=20mm position on the bed
G1 Y-20 F1500 ; move to the Y=20mm position on the bed
G1 Y20 F1500 ; move to the Y=20mm position on the bed
G1 Y-20 F1500 ; move to the Y=20mm position on the bed
G1 Y20 F1500 ; move to the Y=20mm position on the bed
G1 Y-20 F1500 ; move to the Y=20mm position on the bed
G1 Y20 F1500 ; move to the Y=20mm position on the bed
G1 Y-20 F1500 ; move to the Y=20mm position on the bed
G1 Y20 F1500 ; move to the Y=20mm position on the bed
G1 Y-20 F1500 ; move to the Y=20mm position on the bed
G1 Y20 F1500 ; move to the Y=20mm position on the bed
G1 Y-20 F1500 ; move to the Y=20mm position on the bed
G1 Y20 F1500 ; move to the Y=20mm position on the bed
G1 Y-20 F1500 ; move to the Y=20mm position on the bed
G1 Y20 F1500 ; move to the Y=20mm position on the bed
G1 Y-20 F1500 ; move to the Y=20mm position on the bed
G1 Y20 F1500 ; move to the Y=20mm position on the bed
G1 Y-20 F1500 ; move to the Y=20mm position on the bed
G1 Y20 F1500 ; move to the Y=20mm position on the bed
G1 Y-20 F1500 ; move to the Y=20mm position on the bed
G1 Y20 F1500 ; move to the Y=20mm position on the bed
G1 Y-20 F1500 ; move to the Y=20mm position on the bed
G1 Y20 F1500 ; move to the Y=20mm position on the bed
G1 Y-20 F1500 ; move to the Y=20mm position on the bed
G1 Y20 F1500 ; move to the Y=20mm position on the bed
G1 Y-20 F1500 ; move to the Y=20mm position on the bed
G1 Y20 F1500 ; move to the Y=20mm position on the bed
G1 Y-20 F1500 ; move to the Y=20mm position on the bed
G1 Y20 F1500 ; move to the Y=20mm position on the bed
G1 Y-20 F1500 ; move to the Y=20mm position on the bed
G1 Y20 F1500 ; move to the Y=20mm position on the bed
G1 Y-20 F1500 ; move to the Y=20mm position on the bed
G1 Y20 F1500 ; move to the Y=20mm position on the bed
G1 Y-20 F1500 ; move to the Y=20mm position on the bed
G1 Y20 F1500 ; move to the Y=20mm position on the bed
G1 Y-20 F1500 ; move to the Y=20mm position on the bed
G1 Y20 F1500 ; move to the Y=20mm position on the bed
G1 Y-20 F1500 ; move to the Y=20mm position on the bed
G1 Y20 F1500 ; move to the Y=20mm position on the bed
G1 Y-20 F1500 ; move to the Y=20mm position on the bed
G1 Y20 F1500 ; move to the Y=20mm position on the bed
G1 Y-20 F1500 ; move to the Y=20mm position on the bed
G1 Y20 F1500 ; move to the Y=20mm position on the bed
G1 Y-20 F1500 ; move to the Y=20mm position on the bed
G1 Y20 F1500 ; move to the Y=20mm position on the bed
G1 Y-20 F1500 ; move to the Y=20mm position on the bed
G1 Y20 F1500 ; move to the Y=20mm position on the bed
G1 Y-20 F1500 ; move to the Y=20mm position on the bed
G1 Y20 F1500 ; move to the Y=20mm position on the bed
G1 Y-20 F1500 ; move to the Y=20mm position on the bed
G1 Y20 F1500 ; move to the Y=20mm position on the bed
G1 Y-20 F1500 ; move to the Y=20mm position on the bed
G1 Y20 F1500 ; move to the Y=20mm position on the bed
G1 Y-20 F1500 ; move to the Y=20mm position on the bed
G1 Y20 F1500 ; move to the Y=20mm position on the bed
G1 Y-20 F1500 ; move to the Y=20mm position on the bed
G1 Y20 F1500 ; move to the Y=20mm position on the bed
G1 Y-20 F1500 ; move to the Y=20mm position on the bed
G1 Y20 F1500 ; move to the Y=20mm position on the bed
G1 Y-20 F1500 ; move to the Y=20mm position on the bed
G1 Y20 F1500 ; move to the Y=20mm position on the bed
G1 Y-20 F1500 ; move to the Y=20mm position on the bed
G1 Y20 F1500 ; move to the Y=20mm position on the bed
G1 Y-20 F1500 ; move to the Y=20mm position on the bed
G1 Y20 F1500 ; move to the Y=20mm position on the bed
G1 Y-20 F1500 ; move to the Y=20mm position on the bed
G1 Y20 F1500 ; move to the Y=20mm position on the bed
G1 Y-20 F1500 ; move to the Y=20mm position on the bed
G1 Y20 F1500 ; move to the Y=20mm position on the bed
G1 Y-20 F1500 ; move to the Y=20mm position on the bed
G1 Y20 F1500 ; move to the Y=20mm position on the bed
G1 Y-20 F1500 ; move to the Y=20mm position on the bed
G1 Y20 F1500 ; move to the Y=20mm position on the bed
G1 Y-20 F1500 ; move to the Y=20mm position on the bed
G1 Y20 F1500 ; move to the Y=20mm position on the bed
G1 Y-20 F1500 ; move to the Y=20mm position on the bed
G1 Y20 F1500 ; move to the Y=20mm position on the bed
G1 Y-20 F1500 ; move to the Y=20mm position on the bed
G1 Y20 F1500 ; move to the Y=20mm position on the bed
G1 Y-20 F1500 ; move to the Y=20mm position on the bed
G1 Y20 F1500 ; move to the Y=20mm position on the bed
G1 Y-20 F1500 ; move to the Y=20mm position on the bed
G1 Y20 F1500 ; move to the Y=20mm position on the bed
G1 Y-20 F1500 ; move to the Y=20mm position on the bed
G1 Y20 F1500 ; move to the Y=20mm position on the bed
G1 Y-20 F1500 ; move to the Y=20mm position on the bed
G1 Y20 F1500 ; move to the Y=20mm position on the bed
G1 Y-20 F1500 ; move to the Y=20mm position on the bed
G1 Y20 F1500 ; move to the Y=20mm position on the bed
G1 Y-20 F1500 ; move to the Y=20mm position on the bed
G1 Y20 F1500 ; move to the Y=20mm position on the bed
G1 Y-20 F1500 ; move to the Y=20mm position on the bed
G1 Y20 F1500 ; move to the Y=20mm position on the bed
G1 Y-20 F1500 ; move to the Y=20mm position on the bed
G1 Y20 F1500 ; move to the Y=20mm position on the bed
G1 Y-20 F1500 ; move to the Y=20mm position on the bed
G1 Y20 F1500 ; move to the Y=20mm position on the bed
G1 Y-20 F1500 ; move to the Y=20mm position on the bed
G1 Y20 F1500 ; move to the Y=20mm position on the bed
G1 Y-20 F1500 ; move to the Y=20mm position on the bed
G1 Y20 F1500 ; move to the Y=20mm position on the bed
G1 Y-20 F1500 ; move to the Y=20mm position on the bed
G1 Y20 F1500 ; move to the Y=20mm position on the bed
G1 Y-20 F1500 ; move to the Y=20mm position on the bed
G1 Y20 F1500 ; move to the Y=20mm position on the bed
G1 Y-20 F1500 ; move to the Y=20mm position on the bed
G1 Y20 F1500 ; move to the Y=20mm position on the bed
G1 Y-20 F1500 ; move to the Y=20mm position on the bed
G1 Y20 F1500 ; move to the Y=20mm position on the bed
G1 Y-20 F1500 ; move to the Y=20mm position on the bed
G1 Y20 F1500 ; move to the Y=20mm position on the bed
G1 Y-20 F1500 ; move to the Y=20mm position on the bed
G1 Y20 F1500 ; move to the Y=20mm position on the bed
G1 Y-20 F1500 ; move to the Y=20mm position on the bed
G1 Y20 F1500 ; move to the Y=20mm position on the bed
G1 Y-20 F1500 ; move to the Y=20mm position on the bed
G1 Y20 F1500 ; move to the Y=20mm position on the bed
G1 Y-20 F1500 ; move to the Y=20mm position on the bed
G1 Y20 F1500 ; move to the Y=20mm position on the bed
G1 Y-20 F1500 ; move to the Y=20mm position on the bed
G1 Y20 F1500 ; move to the Y=20mm position on the bed
G1 Y-20 F1500 ; move to the Y=20mm position on the bed
G1 Y20 F1500 ; move to the Y=20mm position on the bed
G1 Y-20 F1500 ; move to the Y=20mm position on the bed
G1 Y20 F1500 ; move to the Y=20mm position on the bed
G1 Y-20 F1500 ; move to the Y=20mm position on the bed
G1 Y20 F1500 ; move to the Y=20mm position on the bed
G1 Y-20 F1500 ; move to the Y=20mm position on the bed
G1 Y20 F1500 ; move to the Y=20mm position on the bed
G1 Y-20 F1500 ; move to the Y=20mm position on the bed
G1 Y20 F1500 ; move to the Y=20mm position on the bed
G1 Y-20 F1500 ; move to the Y=20mm position on the bed
G1 Y20 F1500 ; move to the Y=20mm position on the bed
G1 Y-20 F1500 ; move to the Y=20mm position on the bed
G1 Y20 F1500 ; move to the Y=20mm position on the bed
G1 Y-20 F1500 ; move to the Y=20mm position on the bed
G1 Y20 F1500 ; move to the Y=20mm position on the bed
G1 Y-20 F1500 ; move to the Y=20mm position on the bed
G1 Y20 F1500 ; move to the Y=20mm position on the bed
G1 Y-20 F1500 ; move to the Y=20mm position on the bed
G1 Y20 F1500 ; move to the Y=20mm position on the bed
G1 Y-20 F1500 ; move to the Y=20mm position on the bed
G1 Y20 F1500 ; move to the Y=20mm position on the bed
G1 Y-20 F1500 ; move to the Y=20mm position on the bed
G1 Y20 F1500 ; move to the Y=20mm position on the bed
G1 Y-20 F1500 ; move to the Y=20mm position on the bed
G1 Y20 F1500 ; move to the Y=20mm position on the bed
G1 Y-20 F1500 ; move to the Y=20mm position on the bed
G1 Y20 F1500 ; move to the Y=20mm position on the bed
G1 Y-20 F1500 ; move to the Y=20mm position on the bed
G1 Y20 F1500 ; move to the Y=20mm position on the bed
G1 Y-20 F1500 ; move to the Y=20mm position on the bed
G1 Y20 F1500 ; move to the Y=20mm position on the bed
G1 Y-20 F1500 ; move to the Y=20mm position on the bed
G1 Y20 F1500 ; move to the Y=20mm position on the bed
G1 Y-20 F1500 ; move to the Y=20mm position on the bed
G1 Y20 F1500 ; move to the Y=20mm position on the bed
G1 Y-20 F1500 ; move to the Y=20mm position on the bed
G1 Y20 F1500 ; move to the Y=20mm position on the bed
G1 Y-20 F1500 ; move to the Y=20mm position on the bed
G1 Y20 F1500 ; move to the Y=20mm position on the bed
G1 Y-20 F1500 ; move to the Y=20mm position on the bed
G1 Y20 F1500 ; move to the Y=20mm position on the bed
G1 Y-20 F1500 ; move to the Y=20mm position on the bed
G1 Y20 F1500 ; move to the Y=20mm position on the bed
G1 Y-20 F1500 ; move to the Y=20mm position on the bed
G1 Y20 F1500 ; move to the Y=20mm position on the bed
G1 Y-20 F1500 ; move to the Y=20mm position on the bed
G1 Y20 F1500 ; move to the Y=20mm position on the bed
G1 Y-20 F1500 ; move to the Y=20mm position on the bed
G1 Y20 F1500 ; move to the Y=20mm position on the bed
G1 Y-20 F1500 ; move to the Y=20mm position on the bed
G1 Y20 F1500 ; move to the Y=20mm position on the bed
G1 Y-20 F1500 ; move to the Y=20mm position on the bed
G1 Y20 F1500 ; move to the Y=20mm position on the bed
G1 Y-20 F1500 ; move to the Y=20mm position on the bed
G1 Y20 F1500 ; move to the Y=20mm position on the bed
G1 Y-20 F1500 ; move to the Y=20mm position on the bed
G1 Y20 F1500 ; move to the Y=20mm position on the bed
G1 Y-20 F1500 ; move to the Y=20mm position on the bed
G1 Y20 F1500 ; move to the Y=20mm position on the bed
G1 Y-20 F1500 ; move to the Y=20mm position on the bed
G1 Y20 F1500 ; move to the Y=20mm position on the bed
G1 Y-20 F1500 ; move to the Y=20mm position on the bed
G1 Y20 F1500 ; move to the Y=20mm position on the bed
G1 Y-20 F1500 ; move to the Y=20mm position on the bed
G1 Y20 F1500 ; move to the Y=20mm position on the bed
G1 Y-20 F1500 ; move to the Y=20mm position on the bed
G1 Y20 F1500 ; move to the Y=20mm position on the bed
G1 Y-20 F1500 ; move to the Y=20mm position on the bed
G1 Y20 F1500 ; move to the Y=20mm position on the bed
G1 Y-20 F1500 ; move to the Y=20mm position on the bed
G1 Y20 F1500 ; move to the Y=20mm position on the bed
G1 Y-20 F1500 ; move to the Y=20mm position on the bed
G1 Y20 F1500 ; move to the Y=20mm position on the bed
G1 Y-20 F1500 ; move to the Y=20mm position on the bed
G1 Y20 F1500 ; move to the Y=20mm position on the bed
G1 Y-20 F1500 ; move to the Y=20mm position on the bed
G1 Y20 F1500 ; move to the Y=20mm position on the bed
G1 Y-20 F1500 ; move to the Y=20mm position on the bed
G1 Y20 F1500 ; move to the Y=20mm position on the bed
G1 Y-20 F1500 ; move to the Y=20mm position on the bed
G1 Y20 F1500 ; move to the Y=20mm position on the bed
